(G-CODE GENERATED BY FLATCAM v8.991 - www.flatcam.org - Version Date: 2019/12/27)

(Name: Drills)
(Type: G-code from Excellon)
(Units: MM)

(Created on Tuesday, 25 August 2020 at 15:51)

(Feedrate: 200.0 mm/min)
(Feedrate rapids 1500.0 mm/min)

(Z_Cut: -3.0 mm)
(Z_Move: 4.0 mm)
(Z Toolchange: 15.0 mm)
(X,Y Toolchange: 0.0000, 0.0000 mm)
(Z Start: None mm)
(Z End: 0.5 mm)
(Steps per circle: 64)
(Preprocessor Excellon: default)

(X range:    4.8431 ...   96.7441  mm)
(Y range:    3.5279 ...  180.2179  mm)

(Spindle Speed: None RPM)
G21
G90
G94




G01 F200.00
G00 Z4.0000

M03
G00 X45.9835 Y180.0185
G01 Z-3.0000
G01 Z0
G00 Z4.0000
G00 X23.1235 Y171.7635
G01 Z-3.0000
G01 Z0
G00 Z4.0000
G00 X23.1235 Y157.7935
G01 Z-3.0000
G01 Z0
G00 Z4.0000
G00 X49.7935 Y153.3485
G01 Z-3.0000
G01 Z0
G00 Z4.0000
G00 X49.7935 Y144.4585
G01 Z-3.0000
G01 Z0
G00 Z4.0000
G00 X54.8735 Y134.2985
G01 Z-3.0000
G01 Z0
G00 Z4.0000
G00 X54.8735 Y124.1385
G01 Z-3.0000
G01 Z0
G00 Z4.0000
G00 X59.9535 Y119.0585
G01 Z-3.0000
G01 Z0
G00 Z4.0000
G00 X70.1135 Y119.0585
G01 Z-3.0000
G01 Z0
G00 Z4.0000
G00 X70.1135 Y111.4385
G01 Z-3.0000
G01 Z0
G00 Z4.0000
G00 X70.1135 Y106.3585
G01 Z-3.0000
G01 Z0
G00 Z4.0000
G00 X51.0635 Y105.0885
G01 Z-3.0000
G01 Z0
G00 Z4.0000
G00 X40.9035 Y115.2485
G01 Z-3.0000
G01 Z0
G00 Z4.0000
G00 X42.1735 Y130.4885
G01 Z-3.0000
G01 Z0
G00 Z4.0000
G00 X23.1235 Y130.4885
G01 Z-3.0000
G01 Z0
G00 Z4.0000
G00 X20.5835 Y125.4085
G01 Z-3.0000
G01 Z0
G00 Z4.0000
G00 X16.7735 Y125.4085
G01 Z-3.0000
G01 Z0
G00 Z4.0000
G00 X12.9635 Y127.9485
G01 Z-3.0000
G01 Z0
G00 Z4.0000
G00 X10.4235 Y121.5985
G01 Z-3.0000
G01 Z0
G00 Z4.0000
G00 X10.4235 Y116.5185
G01 Z-3.0000
G01 Z0
G00 Z4.0000
G00 X12.9635 Y111.4385
G01 Z-3.0000
G01 Z0
G00 Z4.0000
G00 X16.7735 Y112.7085
G01 Z-3.0000
G01 Z0
G00 Z4.0000
G00 X20.5835 Y112.7085
G01 Z-3.0000
G01 Z0
G00 Z4.0000
G00 X45.9835 Y84.7685
G01 Z-3.0000
G01 Z0
G00 Z4.0000
G00 X45.9835 Y79.6885
G01 Z-3.0000
G01 Z0
G00 Z4.0000
G00 X23.1235 Y76.5135
G01 Z-3.0000
G01 Z0
G00 Z4.0000
G00 X23.1235 Y62.5435
G01 Z-3.0000
G01 Z0
G00 Z4.0000
G00 X23.1235 Y35.2385
G01 Z-3.0000
G01 Z0
G00 Z4.0000
G00 X20.5835 Y30.1585
G01 Z-3.0000
G01 Z0
G00 Z4.0000
G00 X16.7735 Y30.1585
G01 Z-3.0000
G01 Z0
G00 Z4.0000
G00 X12.9635 Y32.6985
G01 Z-3.0000
G01 Z0
G00 Z4.0000
G00 X10.4235 Y26.3485
G01 Z-3.0000
G01 Z0
G00 Z4.0000
G00 X10.4235 Y21.2685
G01 Z-3.0000
G01 Z0
G00 Z4.0000
G00 X12.9635 Y16.1885
G01 Z-3.0000
G01 Z0
G00 Z4.0000
G00 X16.7735 Y17.4585
G01 Z-3.0000
G01 Z0
G00 Z4.0000
G00 X20.5835 Y17.4585
G01 Z-3.0000
G01 Z0
G00 Z4.0000
G00 X40.9035 Y19.9985
G01 Z-3.0000
G01 Z0
G00 Z4.0000
G00 X42.1735 Y35.2385
G01 Z-3.0000
G01 Z0
G00 Z4.0000
G00 X49.7935 Y49.2085
G01 Z-3.0000
G01 Z0
G00 Z4.0000
G00 X49.7935 Y58.0985
G01 Z-3.0000
G01 Z0
G00 Z4.0000
G00 X54.8735 Y39.0485
G01 Z-3.0000
G01 Z0
G00 Z4.0000
G00 X54.8735 Y28.8885
G01 Z-3.0000
G01 Z0
G00 Z4.0000
G00 X59.9535 Y23.8085
G01 Z-3.0000
G01 Z0
G00 Z4.0000
G00 X51.0635 Y9.8385
G01 Z-3.0000
G01 Z0
G00 Z4.0000
G00 X70.1135 Y11.1085
G01 Z-3.0000
G01 Z0
G00 Z4.0000
G00 X70.1135 Y16.1885
G01 Z-3.0000
G01 Z0
G00 Z4.0000
G00 X70.1135 Y23.8085
G01 Z-3.0000
G01 Z0
G00 Z4.0000
G00 X84.0835 Y28.8885
G01 Z-3.0000
G01 Z0
G00 Z4.0000
G00 X91.7035 Y28.8885
G01 Z-3.0000
G01 Z0
G00 Z4.0000
G00 X81.5435 Y40.3185
G01 Z-3.0000
G01 Z0
G00 Z4.0000
G00 X81.5435 Y54.2885
G01 Z-3.0000
G01 Z0
G00 Z4.0000
G00 X76.4635 Y72.0685
G01 Z-3.0000
G01 Z0
G00 Z4.0000
G00 X81.5435 Y72.0685
G01 Z-3.0000
G01 Z0
G00 Z4.0000
G00 X91.7035 Y124.1385
G01 Z-3.0000
G01 Z0
G00 Z4.0000
G00 X84.0835 Y124.1385
G01 Z-3.0000
G01 Z0
G00 Z4.0000
G00 X81.5435 Y135.5685
G01 Z-3.0000
G01 Z0
G00 Z4.0000
G00 X81.5435 Y149.5385
G01 Z-3.0000
G01 Z0
G00 Z4.0000
G00 X81.5435 Y167.3185
G01 Z-3.0000
G01 Z0
G00 Z4.0000
G00 X76.4635 Y167.3185
G01 Z-3.0000
G01 Z0
G00 Z4.0000
G00 X45.9835 Y174.9385
G01 Z-3.0000
G01 Z0
G00 Z4.0000
M03
G00 X73.9235 Y79.6885
G01 Z-3.0000
G01 Z0
G00 Z4.0000
G00 X66.3035 Y111.4385
G01 Z-3.0000
G01 Z0
G00 Z4.0000
G00 X66.3035 Y113.9785
G01 Z-3.0000
G01 Z0
G00 Z4.0000
G00 X66.3035 Y116.5185
G01 Z-3.0000
G01 Z0
G00 Z4.0000
G00 X73.9235 Y174.9385
G01 Z-3.0000
G01 Z0
G00 Z4.0000
G00 X76.4635 Y174.9385
G01 Z-3.0000
G01 Z0
G00 Z4.0000
G00 X79.0035 Y174.9385
G01 Z-3.0000
G01 Z0
G00 Z4.0000
G00 X76.4635 Y79.6885
G01 Z-3.0000
G01 Z0
G00 Z4.0000
G00 X79.0035 Y79.6885
G01 Z-3.0000
G01 Z0
G00 Z4.0000
G00 X66.3035 Y21.2685
G01 Z-3.0000
G01 Z0
G00 Z4.0000
G00 X66.3035 Y18.7285
G01 Z-3.0000
G01 Z0
G00 Z4.0000
G00 X66.3035 Y16.1885
G01 Z-3.0000
G01 Z0
G00 Z4.0000
M03
G00 X75.1935 Y41.5885
G01 Z-3.0000
G01 Z0
G00 Z4.0000
G00 X76.4635 Y41.5885
G01 Z-3.0000
G01 Z0
G00 Z4.0000
G00 X77.7335 Y41.5885
G01 Z-3.0000
G01 Z0
G00 Z4.0000
G00 X77.7335 Y136.8385
G01 Z-3.0000
G01 Z0
G00 Z4.0000
G00 X76.4635 Y136.8385
G01 Z-3.0000
G01 Z0
G00 Z4.0000
G00 X75.1935 Y136.8385
G01 Z-3.0000
G01 Z0
G00 Z4.0000
G00 X32.0135 Y106.3585
G01 Z-3.0000
G01 Z0
G00 Z4.0000
G00 X30.7435 Y106.3585
G01 Z-3.0000
G01 Z0
G00 Z4.0000
G00 X29.4735 Y106.3585
G01 Z-3.0000
G01 Z0
G00 Z4.0000
G00 X29.4735 Y11.1085
G01 Z-3.0000
G01 Z0
G00 Z4.0000
G00 X30.7435 Y11.1085
G01 Z-3.0000
G01 Z0
G00 Z4.0000
G00 X32.0135 Y11.1085
G01 Z-3.0000
G01 Z0
G00 Z4.0000
M03
G00 X26.9335 Y73.3385
G01 Z-3.0000
G01 Z0
G00 Z4.0000
G00 X26.9335 Y61.9085
G01 Z-3.0000
G01 Z0
G00 Z4.0000
G00 X29.4735 Y61.9085
G01 Z-3.0000
G01 Z0
G00 Z4.0000
G00 X32.0135 Y61.9085
G01 Z-3.0000
G01 Z0
G00 Z4.0000
G00 X34.5535 Y61.9085
G01 Z-3.0000
G01 Z0
G00 Z4.0000
G00 X37.0935 Y61.9085
G01 Z-3.0000
G01 Z0
G00 Z4.0000
G00 X39.6335 Y61.9085
G01 Z-3.0000
G01 Z0
G00 Z4.0000
G00 X39.6335 Y73.3385
G01 Z-3.0000
G01 Z0
G00 Z4.0000
G00 X37.0935 Y73.3385
G01 Z-3.0000
G01 Z0
G00 Z4.0000
G00 X34.5535 Y73.3385
G01 Z-3.0000
G01 Z0
G00 Z4.0000
G00 X32.0135 Y73.3385
G01 Z-3.0000
G01 Z0
G00 Z4.0000
G00 X29.4735 Y73.3385
G01 Z-3.0000
G01 Z0
G00 Z4.0000
G00 X26.9335 Y157.1585
G01 Z-3.0000
G01 Z0
G00 Z4.0000
G00 X26.9335 Y168.5885
G01 Z-3.0000
G01 Z0
G00 Z4.0000
G00 X29.4735 Y168.5885
G01 Z-3.0000
G01 Z0
G00 Z4.0000
G00 X32.0135 Y168.5885
G01 Z-3.0000
G01 Z0
G00 Z4.0000
G00 X34.5535 Y168.5885
G01 Z-3.0000
G01 Z0
G00 Z4.0000
G00 X37.0935 Y168.5885
G01 Z-3.0000
G01 Z0
G00 Z4.0000
G00 X39.6335 Y168.5885
G01 Z-3.0000
G01 Z0
G00 Z4.0000
G00 X39.6335 Y157.1585
G01 Z-3.0000
G01 Z0
G00 Z4.0000
G00 X37.0935 Y157.1585
G01 Z-3.0000
G01 Z0
G00 Z4.0000
G00 X34.5535 Y157.1585
G01 Z-3.0000
G01 Z0
G00 Z4.0000
G00 X32.0135 Y157.1585
G01 Z-3.0000
G01 Z0
G00 Z4.0000
G00 X29.4735 Y157.1585
G01 Z-3.0000
G01 Z0
G00 Z4.0000
M03
G00 X53.6035 Y153.3485
G01 Z-3.0000
G01 Z0
G00 Z4.0000
G00 X57.4135 Y152.0785
G01 Z-3.0000
G01 Z0
G00 Z4.0000
G00 X59.9535 Y152.0785
G01 Z-3.0000
G01 Z0
G00 Z4.0000
G00 X59.9535 Y144.4585
G01 Z-3.0000
G01 Z0
G00 Z4.0000
G00 X57.4135 Y144.4585
G01 Z-3.0000
G01 Z0
G00 Z4.0000
G00 X53.6035 Y143.1885
G01 Z-3.0000
G01 Z0
G00 Z4.0000
G00 X57.4135 Y139.3785
G01 Z-3.0000
G01 Z0
G00 Z4.0000
G00 X48.5235 Y138.1491
G01 Z-3.0000
G01 Z0
G00 Z4.0000
G00 X48.5235 Y140.6485
G01 Z-3.0000
G01 Z0
G00 Z4.0000
G00 X46.6185 Y149.6172
G01 Z-3.0000
G01 Z0
G00 Z4.0000
G00 X46.6185 Y154.6185
G01 Z-3.0000
G01 Z0
G00 Z4.0000
G00 X18.0435 Y157.1991
G01 Z-3.0000
G01 Z0
G00 Z4.0000
G00 X18.0435 Y159.6985
G01 Z-3.0000
G01 Z0
G00 Z4.0000
G00 X18.0435 Y166.0891
G01 Z-3.0000
G01 Z0
G00 Z4.0000
G00 X18.0435 Y168.5885
G01 Z-3.0000
G01 Z0
G00 Z4.0000
G00 X12.9635 Y169.8585
G01 Z-3.0000
G01 Z0
G00 Z4.0000
G00 X12.9635 Y164.8572
G01 Z-3.0000
G01 Z0
G00 Z4.0000
G00 X12.9635 Y160.8898
G01 Z-3.0000
G01 Z0
G00 Z4.0000
G00 X12.9635 Y155.8885
G01 Z-3.0000
G01 Z0
G00 Z4.0000
G00 X34.5535 Y126.6785
G01 Z-3.0000
G01 Z0
G00 Z4.0000
G00 X34.5535 Y116.5185
G01 Z-3.0000
G01 Z0
G00 Z4.0000
G00 X35.8235 Y111.4385
G01 Z-3.0000
G01 Z0
G00 Z4.0000
G00 X25.6635 Y111.4385
G01 Z-3.0000
G01 Z0
G00 Z4.0000
G00 X12.9635 Y74.6085
G01 Z-3.0000
G01 Z0
G00 Z4.0000
G00 X18.0435 Y73.3385
G01 Z-3.0000
G01 Z0
G00 Z4.0000
G00 X18.0435 Y70.8391
G01 Z-3.0000
G01 Z0
G00 Z4.0000
G00 X12.9635 Y69.6072
G01 Z-3.0000
G01 Z0
G00 Z4.0000
G00 X12.9635 Y65.6398
G01 Z-3.0000
G01 Z0
G00 Z4.0000
G00 X18.0435 Y64.4485
G01 Z-3.0000
G01 Z0
G00 Z4.0000
G00 X18.0435 Y61.9491
G01 Z-3.0000
G01 Z0
G00 Z4.0000
G00 X12.9635 Y60.6385
G01 Z-3.0000
G01 Z0
G00 Z4.0000
G00 X25.6635 Y16.1885
G01 Z-3.0000
G01 Z0
G00 Z4.0000
G00 X35.8235 Y16.1885
G01 Z-3.0000
G01 Z0
G00 Z4.0000
G00 X34.5535 Y21.2685
G01 Z-3.0000
G01 Z0
G00 Z4.0000
G00 X34.5535 Y31.4285
G01 Z-3.0000
G01 Z0
G00 Z4.0000
G00 X48.5235 Y42.8991
G01 Z-3.0000
G01 Z0
G00 Z4.0000
G00 X48.5235 Y45.3985
G01 Z-3.0000
G01 Z0
G00 Z4.0000
G00 X57.4135 Y44.1285
G01 Z-3.0000
G01 Z0
G00 Z4.0000
G00 X57.4135 Y33.9685
G01 Z-3.0000
G01 Z0
G00 Z4.0000
G00 X62.4935 Y31.4285
G01 Z-3.0000
G01 Z0
G00 Z4.0000
G00 X66.3035 Y31.4285
G01 Z-3.0000
G01 Z0
G00 Z4.0000
G00 X66.3035 Y26.4272
G01 Z-3.0000
G01 Z0
G00 Z4.0000
G00 X73.9235 Y21.2685
G01 Z-3.0000
G01 Z0
G00 Z4.0000
G00 X73.9235 Y18.7285
G01 Z-3.0000
G01 Z0
G00 Z4.0000
G00 X73.9235 Y16.1885
G01 Z-3.0000
G01 Z0
G00 Z4.0000
G00 X73.9235 Y13.6485
G01 Z-3.0000
G01 Z0
G00 Z4.0000
G00 X81.5435 Y13.6485
G01 Z-3.0000
G01 Z0
G00 Z4.0000
G00 X81.5435 Y16.1885
G01 Z-3.0000
G01 Z0
G00 Z4.0000
G00 X81.5435 Y18.7285
G01 Z-3.0000
G01 Z0
G00 Z4.0000
G00 X81.5435 Y21.2685
G01 Z-3.0000
G01 Z0
G00 Z4.0000
G00 X71.3835 Y28.9291
G01 Z-3.0000
G01 Z0
G00 Z4.0000
G00 X71.3835 Y31.4285
G01 Z-3.0000
G01 Z0
G00 Z4.0000
G00 X70.1135 Y35.2385
G01 Z-3.0000
G01 Z0
G00 Z4.0000
G00 X66.3035 Y37.7785
G01 Z-3.0000
G01 Z0
G00 Z4.0000
G00 X62.4935 Y41.5885
G01 Z-3.0000
G01 Z0
G00 Z4.0000
G00 X66.3035 Y45.3985
G01 Z-3.0000
G01 Z0
G00 Z4.0000
G00 X70.1135 Y45.3985
G01 Z-3.0000
G01 Z0
G00 Z4.0000
G00 X70.1135 Y49.2085
G01 Z-3.0000
G01 Z0
G00 Z4.0000
G00 X67.5735 Y49.2085
G01 Z-3.0000
G01 Z0
G00 Z4.0000
G00 X65.0335 Y49.2085
G01 Z-3.0000
G01 Z0
G00 Z4.0000
G00 X62.4935 Y49.2085
G01 Z-3.0000
G01 Z0
G00 Z4.0000
G00 X59.9535 Y49.2085
G01 Z-3.0000
G01 Z0
G00 Z4.0000
G00 X57.4135 Y49.2085
G01 Z-3.0000
G01 Z0
G00 Z4.0000
G00 X53.6035 Y47.9385
G01 Z-3.0000
G01 Z0
G00 Z4.0000
G00 X46.6185 Y54.3672
G01 Z-3.0000
G01 Z0
G00 Z4.0000
G00 X46.6185 Y59.3685
G01 Z-3.0000
G01 Z0
G00 Z4.0000
G00 X53.6035 Y58.0985
G01 Z-3.0000
G01 Z0
G00 Z4.0000
G00 X57.4135 Y56.8285
G01 Z-3.0000
G01 Z0
G00 Z4.0000
G00 X59.9535 Y56.8285
G01 Z-3.0000
G01 Z0
G00 Z4.0000
G00 X62.4935 Y56.8285
G01 Z-3.0000
G01 Z0
G00 Z4.0000
G00 X65.0335 Y56.8285
G01 Z-3.0000
G01 Z0
G00 Z4.0000
G00 X67.5735 Y56.8285
G01 Z-3.0000
G01 Z0
G00 Z4.0000
G00 X70.1135 Y56.8285
G01 Z-3.0000
G01 Z0
G00 Z4.0000
G00 X72.6535 Y56.8285
G01 Z-3.0000
G01 Z0
G00 Z4.0000
G00 X72.6535 Y49.2085
G01 Z-3.0000
G01 Z0
G00 Z4.0000
G00 X77.7335 Y46.6685
G01 Z-3.0000
G01 Z0
G00 Z4.0000
G00 X84.0835 Y46.6685
G01 Z-3.0000
G01 Z0
G00 Z4.0000
G00 X84.0835 Y56.8285
G01 Z-3.0000
G01 Z0
G00 Z4.0000
G00 X77.7335 Y56.8285
G01 Z-3.0000
G01 Z0
G00 Z4.0000
G00 X73.9235 Y64.4485
G01 Z-3.0000
G01 Z0
G00 Z4.0000
G00 X68.8435 Y66.9885
G01 Z-3.0000
G01 Z0
G00 Z4.0000
G00 X66.3035 Y66.9885
G01 Z-3.0000
G01 Z0
G00 Z4.0000
G00 X63.7635 Y66.9885
G01 Z-3.0000
G01 Z0
G00 Z4.0000
G00 X58.6835 Y65.7185
G01 Z-3.0000
G01 Z0
G00 Z4.0000
G00 X58.6835 Y75.8785
G01 Z-3.0000
G01 Z0
G00 Z4.0000
G00 X63.7635 Y77.1485
G01 Z-3.0000
G01 Z0
G00 Z4.0000
G00 X66.3035 Y77.1485
G01 Z-3.0000
G01 Z0
G00 Z4.0000
G00 X68.8435 Y77.1485
G01 Z-3.0000
G01 Z0
G00 Z4.0000
G00 X73.9235 Y74.6085
G01 Z-3.0000
G01 Z0
G00 Z4.0000
G00 X81.5435 Y108.8985
G01 Z-3.0000
G01 Z0
G00 Z4.0000
G00 X81.5435 Y111.4385
G01 Z-3.0000
G01 Z0
G00 Z4.0000
G00 X81.5435 Y113.9785
G01 Z-3.0000
G01 Z0
G00 Z4.0000
G00 X81.5435 Y116.5185
G01 Z-3.0000
G01 Z0
G00 Z4.0000
G00 X73.9235 Y108.8985
G01 Z-3.0000
G01 Z0
G00 Z4.0000
G00 X73.9235 Y111.4385
G01 Z-3.0000
G01 Z0
G00 Z4.0000
G00 X73.9235 Y113.9785
G01 Z-3.0000
G01 Z0
G00 Z4.0000
G00 X73.9235 Y116.5185
G01 Z-3.0000
G01 Z0
G00 Z4.0000
G00 X66.3035 Y121.6772
G01 Z-3.0000
G01 Z0
G00 Z4.0000
G00 X57.4135 Y129.2185
G01 Z-3.0000
G01 Z0
G00 Z4.0000
G00 X62.4935 Y126.6785
G01 Z-3.0000
G01 Z0
G00 Z4.0000
G00 X66.3035 Y126.6785
G01 Z-3.0000
G01 Z0
G00 Z4.0000
G00 X71.3835 Y124.1791
G01 Z-3.0000
G01 Z0
G00 Z4.0000
G00 X71.3835 Y126.6785
G01 Z-3.0000
G01 Z0
G00 Z4.0000
G00 X70.1135 Y130.4885
G01 Z-3.0000
G01 Z0
G00 Z4.0000
G00 X66.3035 Y133.0285
G01 Z-3.0000
G01 Z0
G00 Z4.0000
G00 X62.4935 Y136.8385
G01 Z-3.0000
G01 Z0
G00 Z4.0000
G00 X66.3035 Y140.6485
G01 Z-3.0000
G01 Z0
G00 Z4.0000
G00 X62.4935 Y144.4585
G01 Z-3.0000
G01 Z0
G00 Z4.0000
G00 X65.0335 Y144.4585
G01 Z-3.0000
G01 Z0
G00 Z4.0000
G00 X67.5735 Y144.4585
G01 Z-3.0000
G01 Z0
G00 Z4.0000
G00 X70.1135 Y140.6485
G01 Z-3.0000
G01 Z0
G00 Z4.0000
G00 X70.1135 Y144.4585
G01 Z-3.0000
G01 Z0
G00 Z4.0000
G00 X72.6535 Y144.4585
G01 Z-3.0000
G01 Z0
G00 Z4.0000
G00 X77.7335 Y141.9185
G01 Z-3.0000
G01 Z0
G00 Z4.0000
G00 X84.0835 Y141.9185
G01 Z-3.0000
G01 Z0
G00 Z4.0000
G00 X84.0835 Y152.0785
G01 Z-3.0000
G01 Z0
G00 Z4.0000
G00 X77.7335 Y152.0785
G01 Z-3.0000
G01 Z0
G00 Z4.0000
G00 X72.6535 Y152.0785
G01 Z-3.0000
G01 Z0
G00 Z4.0000
G00 X70.1135 Y152.0785
G01 Z-3.0000
G01 Z0
G00 Z4.0000
G00 X67.5735 Y152.0785
G01 Z-3.0000
G01 Z0
G00 Z4.0000
G00 X65.0335 Y152.0785
G01 Z-3.0000
G01 Z0
G00 Z4.0000
G00 X62.4935 Y152.0785
G01 Z-3.0000
G01 Z0
G00 Z4.0000
G00 X63.7635 Y162.2385
G01 Z-3.0000
G01 Z0
G00 Z4.0000
G00 X66.3035 Y162.2385
G01 Z-3.0000
G01 Z0
G00 Z4.0000
G00 X68.8435 Y162.2385
G01 Z-3.0000
G01 Z0
G00 Z4.0000
G00 X73.9235 Y159.6985
G01 Z-3.0000
G01 Z0
G00 Z4.0000
G00 X73.9235 Y169.8585
G01 Z-3.0000
G01 Z0
G00 Z4.0000
G00 X68.8435 Y172.3985
G01 Z-3.0000
G01 Z0
G00 Z4.0000
G00 X66.3035 Y172.3985
G01 Z-3.0000
G01 Z0
G00 Z4.0000
G00 X63.7635 Y172.3985
G01 Z-3.0000
G01 Z0
G00 Z4.0000
G00 X58.6835 Y171.1285
G01 Z-3.0000
G01 Z0
G00 Z4.0000
G00 X58.6835 Y160.9685
G01 Z-3.0000
G01 Z0
G00 Z4.0000
M03
G00 X30.7435 Y31.4285
G01 Z-3.0000
G01 Z0
G00 Z4.0000
G00 X30.7435 Y21.2685
G01 Z-3.0000
G01 Z0
G00 Z4.0000
G00 X26.9335 Y21.2685
G01 Z-3.0000
G01 Z0
G00 Z4.0000
G00 X26.9335 Y31.4285
G01 Z-3.0000
G01 Z0
G00 Z4.0000
G00 X30.7435 Y116.5185
G01 Z-3.0000
G01 Z0
G00 Z4.0000
G00 X26.9335 Y126.6785
G01 Z-3.0000
G01 Z0
G00 Z4.0000
G00 X30.7435 Y126.6785
G01 Z-3.0000
G01 Z0
G00 Z4.0000
G00 X26.9335 Y116.5185
G01 Z-3.0000
G01 Z0
G00 Z4.0000
M03
G00 X25.6635 Y174.9385
G01 Z-3.0000
G01 Z0
G00 Z4.0000
G00 X28.2035 Y174.9385
G01 Z-3.0000
G01 Z0
G00 Z4.0000
G00 X30.7435 Y174.9385
G01 Z-3.0000
G01 Z0
G00 Z4.0000
G00 X33.2835 Y174.9385
G01 Z-3.0000
G01 Z0
G00 Z4.0000
G00 X35.8235 Y174.9385
G01 Z-3.0000
G01 Z0
G00 Z4.0000
G00 X38.3635 Y174.9385
G01 Z-3.0000
G01 Z0
G00 Z4.0000
G00 X40.9035 Y174.9385
G01 Z-3.0000
G01 Z0
G00 Z4.0000
G00 X79.0035 Y126.6785
G01 Z-3.0000
G01 Z0
G00 Z4.0000
G00 X79.0035 Y124.1385
G01 Z-3.0000
G01 Z0
G00 Z4.0000
G00 X79.0035 Y121.5985
G01 Z-3.0000
G01 Z0
G00 Z4.0000
G00 X79.0035 Y31.4285
G01 Z-3.0000
G01 Z0
G00 Z4.0000
G00 X79.0035 Y28.8885
G01 Z-3.0000
G01 Z0
G00 Z4.0000
G00 X79.0035 Y26.3485
G01 Z-3.0000
G01 Z0
G00 Z4.0000
G00 X7.8835 Y23.8085
G01 Z-3.0000
G01 Z0
G00 Z4.0000
G00 X5.3435 Y23.8085
G01 Z-3.0000
G01 Z0
G00 Z4.0000
G00 X5.3435 Y26.3485
G01 Z-3.0000
G01 Z0
G00 Z4.0000
G00 X7.8835 Y26.3485
G01 Z-3.0000
G01 Z0
G00 Z4.0000
G00 X7.8835 Y28.8885
G01 Z-3.0000
G01 Z0
G00 Z4.0000
G00 X5.3435 Y28.8885
G01 Z-3.0000
G01 Z0
G00 Z4.0000
G00 X5.3435 Y31.4285
G01 Z-3.0000
G01 Z0
G00 Z4.0000
G00 X7.8835 Y31.4285
G01 Z-3.0000
G01 Z0
G00 Z4.0000
G00 X40.9035 Y79.6885
G01 Z-3.0000
G01 Z0
G00 Z4.0000
G00 X38.3635 Y79.6885
G01 Z-3.0000
G01 Z0
G00 Z4.0000
G00 X35.8235 Y79.6885
G01 Z-3.0000
G01 Z0
G00 Z4.0000
G00 X33.2835 Y79.6885
G01 Z-3.0000
G01 Z0
G00 Z4.0000
G00 X30.7435 Y79.6885
G01 Z-3.0000
G01 Z0
G00 Z4.0000
G00 X28.2035 Y79.6885
G01 Z-3.0000
G01 Z0
G00 Z4.0000
G00 X25.6635 Y79.6885
G01 Z-3.0000
G01 Z0
G00 Z4.0000
G00 X7.8835 Y119.0585
G01 Z-3.0000
G01 Z0
G00 Z4.0000
G00 X5.3435 Y119.0585
G01 Z-3.0000
G01 Z0
G00 Z4.0000
G00 X5.3435 Y121.5985
G01 Z-3.0000
G01 Z0
G00 Z4.0000
G00 X7.8835 Y121.5985
G01 Z-3.0000
G01 Z0
G00 Z4.0000
G00 X7.8835 Y124.1385
G01 Z-3.0000
G01 Z0
G00 Z4.0000
G00 X5.3435 Y124.1385
G01 Z-3.0000
G01 Z0
G00 Z4.0000
G00 X5.3435 Y126.6785
G01 Z-3.0000
G01 Z0
G00 Z4.0000
G00 X7.8835 Y126.6785
G01 Z-3.0000
G01 Z0
G00 Z4.0000
M03
G00 X8.0410 Y150.4910
G01 Z-3.0000
G01 Z0
G00 Z4.0000
G00 X5.5035 Y149.2210
G01 Z-3.0000
G01 Z0
G00 Z4.0000
G00 X5.5035 Y146.6810
G01 Z-3.0000
G01 Z0
G00 Z4.0000
G00 X5.5035 Y144.1410
G01 Z-3.0000
G01 Z0
G00 Z4.0000
G00 X5.5035 Y141.6010
G01 Z-3.0000
G01 Z0
G00 Z4.0000
G00 X5.5035 Y139.0610
G01 Z-3.0000
G01 Z0
G00 Z4.0000
G00 X5.5035 Y136.5210
G01 Z-3.0000
G01 Z0
G00 Z4.0000
G00 X8.0410 Y135.2510
G01 Z-3.0000
G01 Z0
G00 Z4.0000
G00 X10.5810 Y135.2510
G01 Z-3.0000
G01 Z0
G00 Z4.0000
G00 X13.1235 Y135.2510
G01 Z-3.0000
G01 Z0
G00 Z4.0000
G00 X15.6610 Y135.2510
G01 Z-3.0000
G01 Z0
G00 Z4.0000
G00 X16.7735 Y138.1085
G01 Z-3.0000
G01 Z0
G00 Z4.0000
G00 X19.3135 Y138.1085
G01 Z-3.0000
G01 Z0
G00 Z4.0000
G00 X20.7410 Y135.2510
G01 Z-3.0000
G01 Z0
G00 Z4.0000
G00 X18.2010 Y135.2510
G01 Z-3.0000
G01 Z0
G00 Z4.0000
G00 X18.2010 Y55.2410
G01 Z-3.0000
G01 Z0
G00 Z4.0000
G00 X15.6610 Y55.2410
G01 Z-3.0000
G01 Z0
G00 Z4.0000
G00 X13.1235 Y55.2410
G01 Z-3.0000
G01 Z0
G00 Z4.0000
G00 X10.5810 Y55.2410
G01 Z-3.0000
G01 Z0
G00 Z4.0000
G00 X8.0410 Y55.2410
G01 Z-3.0000
G01 Z0
G00 Z4.0000
G00 X5.5035 Y53.9710
G01 Z-3.0000
G01 Z0
G00 Z4.0000
G00 X5.5035 Y51.4310
G01 Z-3.0000
G01 Z0
G00 Z4.0000
G00 X5.5035 Y48.8910
G01 Z-3.0000
G01 Z0
G00 Z4.0000
G00 X5.5035 Y46.3510
G01 Z-3.0000
G01 Z0
G00 Z4.0000
G00 X5.5035 Y43.8110
G01 Z-3.0000
G01 Z0
G00 Z4.0000
G00 X5.5035 Y41.2710
G01 Z-3.0000
G01 Z0
G00 Z4.0000
G00 X8.0410 Y40.0010
G01 Z-3.0000
G01 Z0
G00 Z4.0000
G00 X10.5810 Y40.0010
G01 Z-3.0000
G01 Z0
G00 Z4.0000
G00 X13.1235 Y40.0010
G01 Z-3.0000
G01 Z0
G00 Z4.0000
G00 X15.6610 Y40.0010
G01 Z-3.0000
G01 Z0
G00 Z4.0000
G00 X16.7735 Y42.8585
G01 Z-3.0000
G01 Z0
G00 Z4.0000
G00 X19.3135 Y42.8585
G01 Z-3.0000
G01 Z0
G00 Z4.0000
G00 X18.2010 Y40.0010
G01 Z-3.0000
G01 Z0
G00 Z4.0000
G00 X20.7410 Y40.0010
G01 Z-3.0000
G01 Z0
G00 Z4.0000
G00 X23.2810 Y40.0010
G01 Z-3.0000
G01 Z0
G00 Z4.0000
G00 X25.8235 Y40.0010
G01 Z-3.0000
G01 Z0
G00 Z4.0000
G00 X28.3610 Y40.0010
G01 Z-3.0000
G01 Z0
G00 Z4.0000
G00 X30.9010 Y40.0010
G01 Z-3.0000
G01 Z0
G00 Z4.0000
G00 X33.4410 Y40.0010
G01 Z-3.0000
G01 Z0
G00 Z4.0000
G00 X35.9810 Y40.0010
G01 Z-3.0000
G01 Z0
G00 Z4.0000
G00 X35.9810 Y42.5410
G01 Z-3.0000
G01 Z0
G00 Z4.0000
G00 X35.9810 Y45.0810
G01 Z-3.0000
G01 Z0
G00 Z4.0000
G00 X35.9810 Y47.6210
G01 Z-3.0000
G01 Z0
G00 Z4.0000
G00 X35.9810 Y55.2410
G01 Z-3.0000
G01 Z0
G00 Z4.0000
G00 X33.4410 Y55.2410
G01 Z-3.0000
G01 Z0
G00 Z4.0000
G00 X30.9010 Y55.2410
G01 Z-3.0000
G01 Z0
G00 Z4.0000
G00 X28.3610 Y55.2410
G01 Z-3.0000
G01 Z0
G00 Z4.0000
G00 X25.8235 Y55.2410
G01 Z-3.0000
G01 Z0
G00 Z4.0000
G00 X23.2810 Y55.2410
G01 Z-3.0000
G01 Z0
G00 Z4.0000
G00 X20.7410 Y55.2410
G01 Z-3.0000
G01 Z0
G00 Z4.0000
G00 X23.2810 Y135.2510
G01 Z-3.0000
G01 Z0
G00 Z4.0000
G00 X25.8235 Y135.2510
G01 Z-3.0000
G01 Z0
G00 Z4.0000
G00 X28.3610 Y135.2510
G01 Z-3.0000
G01 Z0
G00 Z4.0000
G00 X30.9010 Y135.2510
G01 Z-3.0000
G01 Z0
G00 Z4.0000
G00 X33.4410 Y135.2510
G01 Z-3.0000
G01 Z0
G00 Z4.0000
G00 X35.9810 Y135.2510
G01 Z-3.0000
G01 Z0
G00 Z4.0000
G00 X35.9810 Y137.7910
G01 Z-3.0000
G01 Z0
G00 Z4.0000
G00 X35.9810 Y140.3310
G01 Z-3.0000
G01 Z0
G00 Z4.0000
G00 X35.9810 Y142.8710
G01 Z-3.0000
G01 Z0
G00 Z4.0000
G00 X35.9810 Y150.4910
G01 Z-3.0000
G01 Z0
G00 Z4.0000
G00 X33.4410 Y150.4910
G01 Z-3.0000
G01 Z0
G00 Z4.0000
G00 X30.9010 Y150.4910
G01 Z-3.0000
G01 Z0
G00 Z4.0000
G00 X28.3610 Y150.4910
G01 Z-3.0000
G01 Z0
G00 Z4.0000
G00 X25.8235 Y150.4910
G01 Z-3.0000
G01 Z0
G00 Z4.0000
G00 X23.2810 Y150.4910
G01 Z-3.0000
G01 Z0
G00 Z4.0000
G00 X20.7410 Y150.4910
G01 Z-3.0000
G01 Z0
G00 Z4.0000
G00 X18.2010 Y150.4910
G01 Z-3.0000
G01 Z0
G00 Z4.0000
G00 X15.6610 Y150.4910
G01 Z-3.0000
G01 Z0
G00 Z4.0000
G00 X13.1235 Y150.4910
G01 Z-3.0000
G01 Z0
G00 Z4.0000
G00 X10.5810 Y150.4910
G01 Z-3.0000
G01 Z0
G00 Z4.0000
M03
G00 X7.8835 Y69.5285
G01 Z-3.0000
G01 Z0
G00 Z4.0000
G00 X7.8835 Y66.9885
G01 Z-3.0000
G01 Z0
G00 Z4.0000
G00 X7.8835 Y64.4485
G01 Z-3.0000
G01 Z0
G00 Z4.0000
G00 X7.8835 Y159.6985
G01 Z-3.0000
G01 Z0
G00 Z4.0000
G00 X7.8835 Y162.2385
G01 Z-3.0000
G01 Z0
G00 Z4.0000
G00 X7.8835 Y164.7785
G01 Z-3.0000
G01 Z0
G00 Z4.0000
M03
G00 X7.8835 Y101.2785
G01 Z-3.0000
G01 Z0
G00 Z4.0000
G00 X7.8835 Y82.2285
G01 Z-3.0000
G01 Z0
G00 Z4.0000
G00 X7.8835 Y6.0285
G01 Z-3.0000
G01 Z0
G00 Z4.0000
G00 X94.2435 Y6.0285
G01 Z-3.0000
G01 Z0
G00 Z4.0000
G00 X94.2435 Y82.2285
G01 Z-3.0000
G01 Z0
G00 Z4.0000
G00 X94.2435 Y101.2785
G01 Z-3.0000
G01 Z0
G00 Z4.0000
G00 X94.2435 Y177.4785
G01 Z-3.0000
G01 Z0
G00 Z4.0000
G00 X7.8835 Y177.4785
G01 Z-3.0000
G01 Z0
G00 Z4.0000
M05
G00 Z0.50
G00 X0.0 Y0.0

