(G-CODE GENERATED BY FLATCAM v8.991 - www.flatcam.org - Version Date: 2019/12/27)

(Name: Gcode agujeros 2)
(Type: G-code from Excellon)
(Units: MM)

(Created on Tuesday, 09 June 2020 at 20:23)

(Feedrate: 300.0 mm/min)
(Feedrate rapids 1500.0 mm/min)

(Z_Cut: -2.0 mm)
(Z_Move: 2.0 mm)
(Z Toolchange: 15.0 mm)
(X,Y Toolchange: 0.0000, 0.0000 mm)
(Z Start: None mm)
(Z End: 0.5 mm)
(Steps per circle: 64)
(Preprocessor Excellon: default)

(X range:    4.2640 ...  105.7240  mm)
(Y range:    9.7330 ...  127.9850  mm)

(Spindle Speed: None RPM)
G21
G90
G94




G01 F300.00
G00 Z2.0000

M03
G00 X100.9840 Y31.0670
G01 Z-2.0000
G01 Z0
G00 Z2.0000
G00 X94.7090 Y31.0670
G01 Z-2.0000
G01 Z0
G00 Z2.0000
G00 X63.1380 Y49.5570
G01 Z-2.0000
G01 Z0
G00 Z2.0000
G00 X65.9320 Y52.3510
G01 Z-2.0000
G01 Z0
G00 Z2.0000
G00 X63.1380 Y58.4470
G01 Z-2.0000
G01 Z0
G00 Z2.0000
G00 X65.9320 Y59.7170
G01 Z-2.0000
G01 Z0
G00 Z2.0000
G00 X63.1380 Y74.4490
G01 Z-2.0000
G01 Z0
G00 Z2.0000
G00 X68.9800 Y74.4490
G01 Z-2.0000
G01 Z0
G00 Z2.0000
G00 X79.3940 Y68.0990
G01 Z-2.0000
G01 Z0
G00 Z2.0000
G00 X84.7280 Y68.0990
G01 Z-2.0000
G01 Z0
G00 Z2.0000
G00 X88.7920 Y65.5590
G01 Z-2.0000
G01 Z0
G00 Z2.0000
G00 X84.2200 Y56.4150
G01 Z-2.0000
G01 Z0
G00 Z2.0000
G00 X95.9040 Y56.4150
G01 Z-2.0000
G01 Z0
G00 Z2.0000
G00 X95.1420 Y65.5590
G01 Z-2.0000
G01 Z0
G00 Z2.0000
G00 X96.2420 Y77.1590
G01 Z-2.0000
G01 Z0
G00 Z2.0000
G00 X91.3200 Y81.7070
G01 Z-2.0000
G01 Z0
G00 Z2.0000
G00 X94.8880 Y98.8330
G01 Z-2.0000
G01 Z0
G00 Z2.0000
G00 X82.8060 Y98.8330
G01 Z-2.0000
G01 Z0
G00 Z2.0000
G00 X82.1880 Y116.3590
G01 Z-2.0000
G01 Z0
G00 Z2.0000
G00 X71.0120 Y116.3590
G01 Z-2.0000
G01 Z0
G00 Z2.0000
G00 X63.1380 Y119.6610
G01 Z-2.0000
G01 Z0
G00 Z2.0000
G00 X56.5340 Y115.8510
G01 Z-2.0000
G01 Z0
G00 Z2.0000
G00 X48.6600 Y119.7120
G01 Z-2.0000
G01 Z0
G00 Z2.0000
G00 X48.1520 Y115.8510
G01 Z-2.0000
G01 Z0
G00 Z2.0000
G00 X37.7380 Y99.0870
G01 Z-2.0000
G01 Z0
G00 Z2.0000
G00 X32.9120 Y99.0870
G01 Z-2.0000
G01 Z0
G00 Z2.0000
G00 X26.5620 Y93.4990
G01 Z-2.0000
G01 Z0
G00 Z2.0000
G00 X37.4840 Y86.3870
G01 Z-2.0000
G01 Z0
G00 Z2.0000
G00 X25.3940 Y83.9490
G01 Z-2.0000
G01 Z0
G00 Z2.0000
G00 X25.3940 Y69.1150
G01 Z-2.0000
G01 Z0
G00 Z2.0000
G00 X12.3460 Y69.2420
G01 Z-2.0000
G01 Z0
G00 Z2.0000
G00 X4.4640 Y69.2420
G01 Z-2.0000
G01 Z0
G00 Z2.0000
G00 X20.4150 Y56.2120
G01 Z-2.0000
G01 Z0
G00 Z2.0000
G00 X31.8960 Y56.1610
G01 Z-2.0000
G01 Z0
G00 Z2.0000
G00 X41.0400 Y49.5570
G01 Z-2.0000
G01 Z0
G00 Z2.0000
G00 X41.0400 Y40.9210
G01 Z-2.0000
G01 Z0
G00 Z2.0000
G00 X20.9740 Y30.2530
G01 Z-2.0000
G01 Z0
G00 Z2.0000
G00 X32.1500 Y30.2530
G01 Z-2.0000
G01 Z0
G00 Z2.0000
G00 X74.5680 Y9.9330
G01 Z-2.0000
G01 Z0
G00 Z2.0000
G00 X74.5680 Y20.3470
G01 Z-2.0000
G01 Z0
G00 Z2.0000
G00 X84.4740 Y25.4270
G01 Z-2.0000
G01 Z0
G00 Z2.0000
G00 X92.0940 Y17.8070
G01 Z-2.0000
G01 Z0
G00 Z2.0000
M03
G00 X68.7260 Y24.4110
G01 Z-2.0000
G01 Z0
G00 Z2.0000
G00 X66.1860 Y24.4110
G01 Z-2.0000
G01 Z0
G00 Z2.0000
G00 X63.6460 Y24.4110
G01 Z-2.0000
G01 Z0
G00 Z2.0000
G00 X38.2460 Y12.9810
G01 Z-2.0000
G01 Z0
G00 Z2.0000
G00 X35.7060 Y12.9810
G01 Z-2.0000
G01 Z0
G00 Z2.0000
G00 X33.1660 Y12.9810
G01 Z-2.0000
G01 Z0
G00 Z2.0000
G00 X34.4360 Y52.6050
G01 Z-2.0000
G01 Z0
G00 Z2.0000
G00 X36.9760 Y52.6050
G01 Z-2.0000
G01 Z0
G00 Z2.0000
G00 X39.5160 Y52.6050
G01 Z-2.0000
G01 Z0
G00 Z2.0000
G00 X64.9160 Y69.3690
G01 Z-2.0000
G01 Z0
G00 Z2.0000
G00 X67.4560 Y69.3690
G01 Z-2.0000
G01 Z0
G00 Z2.0000
G00 X69.9960 Y69.3690
G01 Z-2.0000
G01 Z0
G00 Z2.0000
G00 X89.5540 Y36.6030
G01 Z-2.0000
G01 Z0
G00 Z2.0000
G00 X89.5540 Y34.0630
G01 Z-2.0000
G01 Z0
G00 Z2.0000
G00 X89.5540 Y31.5230
G01 Z-2.0000
G01 Z0
G00 Z2.0000
G00 X89.5540 Y28.9830
G01 Z-2.0000
G01 Z0
G00 Z2.0000
M03
G00 X52.9780 Y50.8270
G01 Z-2.0000
G01 Z0
G00 Z2.0000
G00 X51.7080 Y50.8270
G01 Z-2.0000
G01 Z0
G00 Z2.0000
G00 X50.4380 Y50.8270
G01 Z-2.0000
G01 Z0
G00 Z2.0000
M03
G00 X56.7880 Y82.5770
G01 Z-2.0000
G01 Z0
G00 Z2.0000
G00 X46.6280 Y82.5770
G01 Z-2.0000
G01 Z0
G00 Z2.0000
G00 X43.1990 Y77.4970
G01 Z-2.0000
G01 Z0
G00 Z2.0000
G00 X43.0720 Y73.6870
G01 Z-2.0000
G01 Z0
G00 Z2.0000
G00 X43.1990 Y69.8770
G01 Z-2.0000
G01 Z0
G00 Z2.0000
G00 X33.0390 Y77.4970
G01 Z-2.0000
G01 Z0
G00 Z2.0000
G00 X22.3460 Y78.4110
G01 Z-2.0000
G01 Z0
G00 Z2.0000
G00 X18.4340 Y85.1170
G01 Z-2.0000
G01 Z0
G00 Z2.0000
G00 X14.6240 Y95.2770
G01 Z-2.0000
G01 Z0
G00 Z2.0000
G00 X18.4340 Y95.2770
G01 Z-2.0000
G01 Z0
G00 Z2.0000
G00 X14.6240 Y85.1170
G01 Z-2.0000
G01 Z0
G00 Z2.0000
G00 X14.7260 Y78.4110
G01 Z-2.0000
G01 Z0
G00 Z2.0000
G00 X14.7260 Y75.8710
G01 Z-2.0000
G01 Z0
G00 Z2.0000
G00 X14.7260 Y73.3310
G01 Z-2.0000
G01 Z0
G00 Z2.0000
G00 X14.7260 Y70.7910
G01 Z-2.0000
G01 Z0
G00 Z2.0000
G00 X22.3460 Y70.7910
G01 Z-2.0000
G01 Z0
G00 Z2.0000
G00 X22.3460 Y73.3310
G01 Z-2.0000
G01 Z0
G00 Z2.0000
G00 X22.3460 Y75.8710
G01 Z-2.0000
G01 Z0
G00 Z2.0000
G00 X32.9120 Y73.6870
G01 Z-2.0000
G01 Z0
G00 Z2.0000
G00 X33.0390 Y69.8770
G01 Z-2.0000
G01 Z0
G00 Z2.0000
G00 X33.4200 Y62.5110
G01 Z-2.0000
G01 Z0
G00 Z2.0000
G00 X32.4040 Y58.7010
G01 Z-2.0000
G01 Z0
G00 Z2.0000
G00 X38.2460 Y37.0710
G01 Z-2.0000
G01 Z0
G00 Z2.0000
G00 X38.2460 Y34.5710
G01 Z-2.0000
G01 Z0
G00 Z2.0000
G00 X30.6260 Y27.3320
G01 Z-2.0000
G01 Z0
G00 Z2.0000
G00 X30.4990 Y23.5220
G01 Z-2.0000
G01 Z0
G00 Z2.0000
G00 X30.6260 Y19.3310
G01 Z-2.0000
G01 Z0
G00 Z2.0000
G00 X40.7860 Y27.3320
G01 Z-2.0000
G01 Z0
G00 Z2.0000
G00 X40.6590 Y23.5220
G01 Z-2.0000
G01 Z0
G00 Z2.0000
G00 X40.7860 Y19.3310
G01 Z-2.0000
G01 Z0
G00 Z2.0000
G00 X47.1360 Y18.0610
G01 Z-2.0000
G01 Z0
G00 Z2.0000
G00 X47.1360 Y15.5210
G01 Z-2.0000
G01 Z0
G00 Z2.0000
G00 X54.7560 Y15.5210
G01 Z-2.0000
G01 Z0
G00 Z2.0000
G00 X54.7560 Y18.0610
G01 Z-2.0000
G01 Z0
G00 Z2.0000
G00 X60.8520 Y19.3310
G01 Z-2.0000
G01 Z0
G00 Z2.0000
G00 X71.0120 Y19.3310
G01 Z-2.0000
G01 Z0
G00 Z2.0000
G00 X71.2660 Y29.4910
G01 Z-2.0000
G01 Z0
G00 Z2.0000
G00 X61.1060 Y29.4910
G01 Z-2.0000
G01 Z0
G00 Z2.0000
G00 X57.2960 Y35.8410
G01 Z-2.0000
G01 Z0
G00 Z2.0000
G00 X54.7560 Y30.7610
G01 Z-2.0000
G01 Z0
G00 Z2.0000
G00 X54.7560 Y28.2210
G01 Z-2.0000
G01 Z0
G00 Z2.0000
G00 X54.7560 Y25.6810
G01 Z-2.0000
G01 Z0
G00 Z2.0000
G00 X54.7560 Y23.1410
G01 Z-2.0000
G01 Z0
G00 Z2.0000
G00 X54.7560 Y20.6010
G01 Z-2.0000
G01 Z0
G00 Z2.0000
G00 X47.1360 Y20.6010
G01 Z-2.0000
G01 Z0
G00 Z2.0000
G00 X47.1360 Y23.1410
G01 Z-2.0000
G01 Z0
G00 Z2.0000
G00 X47.1360 Y25.6810
G01 Z-2.0000
G01 Z0
G00 Z2.0000
G00 X47.1360 Y28.2210
G01 Z-2.0000
G01 Z0
G00 Z2.0000
G00 X47.1360 Y30.7610
G01 Z-2.0000
G01 Z0
G00 Z2.0000
G00 X43.3260 Y33.3810
G01 Z-2.0000
G01 Z0
G00 Z2.0000
G00 X47.1360 Y35.8410
G01 Z-2.0000
G01 Z0
G00 Z2.0000
G00 X43.3260 Y38.3810
G01 Z-2.0000
G01 Z0
G00 Z2.0000
G00 X46.6280 Y56.1610
G01 Z-2.0000
G01 Z0
G00 Z2.0000
G00 X42.5640 Y58.7010
G01 Z-2.0000
G01 Z0
G00 Z2.0000
G00 X41.0400 Y62.5110
G01 Z-2.0000
G01 Z0
G00 Z2.0000
G00 X47.6440 Y60.9870
G01 Z-2.0000
G01 Z0
G00 Z2.0000
G00 X47.6440 Y63.5270
G01 Z-2.0000
G01 Z0
G00 Z2.0000
G00 X47.6440 Y66.0670
G01 Z-2.0000
G01 Z0
G00 Z2.0000
G00 X47.6440 Y68.6070
G01 Z-2.0000
G01 Z0
G00 Z2.0000
G00 X47.6440 Y71.1470
G01 Z-2.0000
G01 Z0
G00 Z2.0000
G00 X47.6440 Y73.6870
G01 Z-2.0000
G01 Z0
G00 Z2.0000
G00 X47.6440 Y76.2270
G01 Z-2.0000
G01 Z0
G00 Z2.0000
G00 X55.2640 Y76.2270
G01 Z-2.0000
G01 Z0
G00 Z2.0000
G00 X55.2640 Y73.6870
G01 Z-2.0000
G01 Z0
G00 Z2.0000
G00 X55.2640 Y71.1470
G01 Z-2.0000
G01 Z0
G00 Z2.0000
G00 X55.2640 Y68.6070
G01 Z-2.0000
G01 Z0
G00 Z2.0000
G00 X55.2640 Y66.0670
G01 Z-2.0000
G01 Z0
G00 Z2.0000
G00 X55.2640 Y63.5270
G01 Z-2.0000
G01 Z0
G00 Z2.0000
G00 X55.2640 Y60.9870
G01 Z-2.0000
G01 Z0
G00 Z2.0000
G00 X56.7880 Y56.1610
G01 Z-2.0000
G01 Z0
G00 Z2.0000
G00 X61.8680 Y63.7810
G01 Z-2.0000
G01 Z0
G00 Z2.0000
G00 X72.0280 Y63.7810
G01 Z-2.0000
G01 Z0
G00 Z2.0000
G00 X76.6000 Y62.7650
G01 Z-2.0000
G01 Z0
G00 Z2.0000
G00 X79.1400 Y62.7650
G01 Z-2.0000
G01 Z0
G00 Z2.0000
G00 X81.6800 Y62.7650
G01 Z-2.0000
G01 Z0
G00 Z2.0000
G00 X101.5940 Y61.0380
G01 Z-2.0000
G01 Z0
G00 Z2.0000
G00 X104.0940 Y61.0380
G01 Z-2.0000
G01 Z0
G00 Z2.0000
G00 X105.3240 Y65.8640
G01 Z-2.0000
G01 Z0
G00 Z2.0000
G00 X100.3240 Y65.8640
G01 Z-2.0000
G01 Z0
G00 Z2.0000
G00 X91.5860 Y73.3310
G01 Z-2.0000
G01 Z0
G00 Z2.0000
G00 X98.3170 Y106.5800
G01 Z-2.0000
G01 Z0
G00 Z2.0000
G00 X97.0470 Y111.9140
G01 Z-2.0000
G01 Z0
G00 Z2.0000
G00 X102.0470 Y111.9140
G01 Z-2.0000
G01 Z0
G00 Z2.0000
G00 X100.8170 Y106.5800
G01 Z-2.0000
G01 Z0
G00 Z2.0000
G00 X87.0140 Y80.4430
G01 Z-2.0000
G01 Z0
G00 Z2.0000
G00 X87.0140 Y77.9430
G01 Z-2.0000
G01 Z0
G00 Z2.0000
G00 X86.5860 Y73.3310
G01 Z-2.0000
G01 Z0
G00 Z2.0000
G00 X81.6800 Y72.9250
G01 Z-2.0000
G01 Z0
G00 Z2.0000
G00 X79.1400 Y72.9250
G01 Z-2.0000
G01 Z0
G00 Z2.0000
G00 X76.6000 Y72.9250
G01 Z-2.0000
G01 Z0
G00 Z2.0000
G00 X72.0280 Y77.7510
G01 Z-2.0000
G01 Z0
G00 Z2.0000
G00 X61.8680 Y77.7510
G01 Z-2.0000
G01 Z0
G00 Z2.0000
M03
G00 X36.2140 Y122.4550
G01 Z-2.0000
G01 Z0
G00 Z2.0000
G00 X26.0540 Y122.4550
G01 Z-2.0000
G01 Z0
G00 Z2.0000
G00 X26.3080 Y127.5350
G01 Z-2.0000
G01 Z0
G00 Z2.0000
G00 X36.4680 Y127.5350
G01 Z-2.0000
G01 Z0
G00 Z2.0000
G00 X39.5160 Y127.0270
G01 Z-2.0000
G01 Z0
G00 Z2.0000
G00 X49.6760 Y127.0270
G01 Z-2.0000
G01 Z0
G00 Z2.0000
G00 X49.6760 Y122.2010
G01 Z-2.0000
G01 Z0
G00 Z2.0000
G00 X39.5160 Y122.2010
G01 Z-2.0000
G01 Z0
G00 Z2.0000
M03
G00 X90.4680 Y106.9100
G01 Z-2.0000
G01 Z0
G00 Z2.0000
G00 X90.4680 Y104.3700
G01 Z-2.0000
G01 Z0
G00 Z2.0000
G00 X86.1000 Y104.2180
G01 Z-2.0000
G01 Z0
G00 Z2.0000
G00 X12.6430 Y60.1740
G01 Z-2.0000
G01 Z0
G00 Z2.0000
G00 X12.6430 Y62.7140
G01 Z-2.0000
G01 Z0
G00 Z2.0000
G00 X12.6430 Y65.2540
G01 Z-2.0000
G01 Z0
G00 Z2.0000
G00 X72.5360 Y123.0900
G01 Z-2.0000
G01 Z0
G00 Z2.0000
G00 X72.5360 Y125.6300
G01 Z-2.0000
G01 Z0
G00 Z2.0000
G00 X75.0760 Y125.6300
G01 Z-2.0000
G01 Z0
G00 Z2.0000
G00 X77.6160 Y125.6300
G01 Z-2.0000
G01 Z0
G00 Z2.0000
G00 X80.1560 Y125.6300
G01 Z-2.0000
G01 Z0
G00 Z2.0000
G00 X80.1560 Y123.0900
G01 Z-2.0000
G01 Z0
G00 Z2.0000
G00 X77.6160 Y123.0900
G01 Z-2.0000
G01 Z0
G00 Z2.0000
G00 X75.0760 Y123.0900
G01 Z-2.0000
G01 Z0
G00 Z2.0000
G00 X86.1000 Y106.7580
G01 Z-2.0000
G01 Z0
G00 Z2.0000
M03
G00 X71.0120 Y111.7870
G01 Z-2.0000
G01 Z0
G00 Z2.0000
G00 X71.0120 Y109.2470
G01 Z-2.0000
G01 Z0
G00 Z2.0000
G00 X71.0120 Y106.7070
G01 Z-2.0000
G01 Z0
G00 Z2.0000
G00 X71.0120 Y104.1670
G01 Z-2.0000
G01 Z0
G00 Z2.0000
G00 X71.0120 Y101.6270
G01 Z-2.0000
G01 Z0
G00 Z2.0000
G00 X71.0120 Y99.0870
G01 Z-2.0000
G01 Z0
G00 Z2.0000
G00 X68.4720 Y97.8170
G01 Z-2.0000
G01 Z0
G00 Z2.0000
G00 X65.9320 Y97.8170
G01 Z-2.0000
G01 Z0
G00 Z2.0000
G00 X63.3920 Y97.8170
G01 Z-2.0000
G01 Z0
G00 Z2.0000
G00 X60.8520 Y97.8170
G01 Z-2.0000
G01 Z0
G00 Z2.0000
G00 X58.3120 Y97.8170
G01 Z-2.0000
G01 Z0
G00 Z2.0000
G00 X55.7720 Y97.8170
G01 Z-2.0000
G01 Z0
G00 Z2.0000
G00 X53.2320 Y97.8170
G01 Z-2.0000
G01 Z0
G00 Z2.0000
G00 X50.6920 Y97.8170
G01 Z-2.0000
G01 Z0
G00 Z2.0000
G00 X48.1520 Y97.8170
G01 Z-2.0000
G01 Z0
G00 Z2.0000
G00 X45.6120 Y97.8170
G01 Z-2.0000
G01 Z0
G00 Z2.0000
G00 X43.0720 Y97.8170
G01 Z-2.0000
G01 Z0
G00 Z2.0000
G00 X40.5320 Y97.8170
G01 Z-2.0000
G01 Z0
G00 Z2.0000
G00 X40.5320 Y105.4370
G01 Z-2.0000
G01 Z0
G00 Z2.0000
G00 X40.5320 Y107.9770
G01 Z-2.0000
G01 Z0
G00 Z2.0000
G00 X40.5320 Y110.5170
G01 Z-2.0000
G01 Z0
G00 Z2.0000
G00 X40.5320 Y113.0570
G01 Z-2.0000
G01 Z0
G00 Z2.0000
G00 X43.0720 Y113.0570
G01 Z-2.0000
G01 Z0
G00 Z2.0000
G00 X45.6120 Y113.0570
G01 Z-2.0000
G01 Z0
G00 Z2.0000
G00 X48.1520 Y113.0570
G01 Z-2.0000
G01 Z0
G00 Z2.0000
G00 X50.6920 Y113.0570
G01 Z-2.0000
G01 Z0
G00 Z2.0000
G00 X53.2320 Y113.0570
G01 Z-2.0000
G01 Z0
G00 Z2.0000
G00 X55.7720 Y113.0570
G01 Z-2.0000
G01 Z0
G00 Z2.0000
G00 X58.3120 Y113.0570
G01 Z-2.0000
G01 Z0
G00 Z2.0000
G00 X57.2010 Y110.2000
G01 Z-2.0000
G01 Z0
G00 Z2.0000
G00 X59.7410 Y110.2000
G01 Z-2.0000
G01 Z0
G00 Z2.0000
G00 X60.8520 Y113.0570
G01 Z-2.0000
G01 Z0
G00 Z2.0000
G00 X63.3920 Y113.0570
G01 Z-2.0000
G01 Z0
G00 Z2.0000
G00 X65.9320 Y113.0570
G01 Z-2.0000
G01 Z0
G00 Z2.0000
G00 X68.4720 Y113.0570
G01 Z-2.0000
G01 Z0
G00 Z2.0000
M03
G00 X99.2060 Y95.8360
G01 Z-2.0000
G01 Z0
G00 Z2.0000
G00 X91.7060 Y95.8360
G01 Z-2.0000
G01 Z0
G00 Z2.0000
G00 X91.7060 Y85.1360
G01 Z-2.0000
G01 Z0
G00 Z2.0000
G00 X99.2060 Y85.1360
G01 Z-2.0000
G01 Z0
G00 Z2.0000
M05
G00 Z0.50
G00 X0.0 Y0.0

