(G-CODE GENERATED BY FLATCAM v8.991 - www.flatcam.org - Version Date: 2019/12/27)

(Name: Gcode placa V1)
(Type: G-code from Geometry)
(Units: MM)

(Created on Wednesday, 10 June 2020 at 15:12)

(TOOL DIAMETER: 0.19 mm)
(Feedrate: 100.0 mm/min)
(Feedrate_Z: 50.0 mm/min)
(Feedrate rapids 1500.0 mm/min)

(Z_Cut: -0.2 mm)
(Z_Move: 2.0 mm)
(Z Toolchange: 15.0 mm)
(X,Y Toolchange: 0.0000, 0.0000 mm)
(Z Start: None mm)
(Z End: 15.0 mm)
(Steps per circle: 64)
(Preprocessor Geometry: default)

(X range:    0.4440 ...  108.0840  mm)
(Y range:    0.4520 ...  129.6312  mm)

(Spindle Speed: None RPM)
G21
G90
G94




G01 F100.00
G00 Z2.0000

M03
G00 X0.4606 Y0.5399
G01 F50.00
G01 Z-0.2000
G01 F100.00
G01 X0.4682 Y0.5264
G01 X0.4771 Y0.5136
G01 X0.4830 Y0.5064
G01 X0.4938 Y0.4952
G01 X0.4984 Y0.4910
G01 X0.5056 Y0.4851
G01 X0.5184 Y0.4762
G01 X0.5319 Y0.4686
G01 X0.5376 Y0.4659
G01 X0.5521 Y0.4603
G01 X0.5610 Y0.4576
G01 X0.5670 Y0.4560
G01 X0.5823 Y0.4533
G01 X0.5916 Y0.4524
G01 X0.6025 Y0.4520
G01 X107.9255 Y0.4520
G01 X107.9364 Y0.4524
G01 X107.9457 Y0.4533
G01 X107.9610 Y0.4560
G01 X107.9759 Y0.4603
G01 X107.9904 Y0.4659
G01 X108.0043 Y0.4730
G01 X108.0174 Y0.4814
G01 X108.0296 Y0.4910
G01 X108.0342 Y0.4952
G01 X108.0450 Y0.5064
G01 X108.0546 Y0.5186
G01 X108.0630 Y0.5317
G01 X108.0674 Y0.5399
G01 X108.0736 Y0.5542
G01 X108.0784 Y0.5690
G01 X108.0818 Y0.5842
G01 X108.0836 Y0.5996
G01 X108.0840 Y0.6105
G01 X108.0840 Y129.4727
G01 X108.0836 Y129.4836
G01 X108.0827 Y129.4929
G01 X108.0800 Y129.5082
G01 X108.0757 Y129.5231
G01 X108.0701 Y129.5376
G01 X108.0630 Y129.5515
G01 X108.0546 Y129.5646
G01 X108.0450 Y129.5768
G01 X108.0342 Y129.5880
G01 X108.0296 Y129.5922
G01 X108.0174 Y129.6018
G01 X108.0043 Y129.6102
G01 X107.9961 Y129.6146
G01 X107.9818 Y129.6208
G01 X107.9670 Y129.6256
G01 X107.9518 Y129.6290
G01 X107.9364 Y129.6308
G01 X107.9255 Y129.6312
G01 X0.6025 Y129.6312
G01 X0.5916 Y129.6308
G01 X0.5823 Y129.6299
G01 X0.5670 Y129.6272
G01 X0.5521 Y129.6229
G01 X0.5376 Y129.6173
G01 X0.5237 Y129.6102
G01 X0.5184 Y129.6070
G01 X0.5056 Y129.5981
G01 X0.4938 Y129.5880
G01 X0.4830 Y129.5768
G01 X0.4734 Y129.5646
G01 X0.4650 Y129.5515
G01 X0.4606 Y129.5433
G01 X0.4544 Y129.5290
G01 X0.4496 Y129.5142
G01 X0.4462 Y129.4990
G01 X0.4444 Y129.4836
G01 X0.4440 Y129.4727
G01 X0.4440 Y0.6105
G01 X0.4444 Y0.5996
G01 X0.4453 Y0.5903
G01 X0.4480 Y0.5750
G01 X0.4496 Y0.5690
G01 X0.4544 Y0.5542
G01 X0.4606 Y0.5399
G00 Z2.0000
G00 X10.8410 Y7.8947
G01 F50.00
G01 Z-0.2000
G01 F100.00
G01 X10.8410 Y8.4473
G01 X10.7332 Y8.9892
G01 X10.5217 Y9.4997
G01 X10.2148 Y9.9591
G01 X9.8241 Y10.3498
G01 X9.3647 Y10.6567
G01 X8.8542 Y10.8682
G01 X8.3123 Y10.9760
G01 X7.7597 Y10.9760
G01 X7.2178 Y10.8682
G01 X6.7073 Y10.6567
G01 X6.2479 Y10.3498
G01 X5.8572 Y9.9591
G01 X5.5503 Y9.4997
G01 X5.3388 Y8.9892
G01 X5.2310 Y8.4473
G01 X5.2310 Y7.8947
G01 X5.3388 Y7.3528
G01 X5.5503 Y6.8423
G01 X5.8572 Y6.3829
G01 X6.2479 Y5.9922
G01 X6.7073 Y5.6853
G01 X7.2178 Y5.4738
G01 X7.7597 Y5.3660
G01 X8.3123 Y5.3660
G01 X8.8542 Y5.4738
G01 X9.3647 Y5.6853
G01 X9.8241 Y5.9922
G01 X10.2148 Y6.3829
G01 X10.5217 Y6.8423
G01 X10.7332 Y7.3528
G01 X10.8410 Y7.8947
G00 Z2.0000
G00 X26.8638 Y9.9046
G01 F50.00
G01 Z-0.2000
G01 F100.00
G01 X26.8681 Y9.8964
G01 X26.8934 Y9.8543
G01 X26.8986 Y9.8465
G01 X26.9278 Y9.8071
G01 X26.9337 Y9.7999
G01 X26.9699 Y9.7601
G01 X29.2913 Y7.4389
G01 X29.3277 Y7.4059
G01 X29.3349 Y7.4000
G01 X29.3743 Y7.3708
G01 X29.3821 Y7.3656
G01 X29.4242 Y7.3403
G01 X29.4324 Y7.3359
G01 X29.4768 Y7.3149
G01 X29.4854 Y7.3114
G01 X29.5316 Y7.2948
G01 X29.5405 Y7.2921
G01 X29.5882 Y7.2802
G01 X29.5973 Y7.2784
G01 X29.6459 Y7.2712
G01 X29.6551 Y7.2703
G01 X29.7088 Y7.2677
G01 X72.5027 Y7.2679
G01 X72.5517 Y7.2703
G01 X72.5610 Y7.2712
G01 X72.6095 Y7.2784
G01 X72.6187 Y7.2802
G01 X72.6663 Y7.2921
G01 X72.6752 Y7.2948
G01 X72.7214 Y7.3114
G01 X72.7301 Y7.3149
G01 X72.7744 Y7.3359
G01 X72.7827 Y7.3403
G01 X72.8248 Y7.3656
G01 X72.8325 Y7.3708
G01 X72.8719 Y7.4000
G01 X72.8792 Y7.4059
G01 X72.9189 Y7.4421
G01 X73.2571 Y7.7803
G01 X73.3303 Y7.7620
G01 X73.3395 Y7.7602
G01 X73.4462 Y7.7443
G01 X73.4555 Y7.7434
G01 X73.5633 Y7.7381
G01 X73.5727 Y7.7381
G01 X73.6805 Y7.7434
G01 X73.6898 Y7.7443
G01 X73.7965 Y7.7602
G01 X73.8057 Y7.7620
G01 X73.9104 Y7.7882
G01 X73.9193 Y7.7909
G01 X74.0210 Y7.8273
G01 X74.0296 Y7.8309
G01 X74.1272 Y7.8770
G01 X74.1354 Y7.8814
G01 X74.2280 Y7.9369
G01 X74.2357 Y7.9421
G01 X74.3224 Y8.0064
G01 X74.3296 Y8.0123
G01 X74.4096 Y8.0848
G01 X74.4162 Y8.0914
G01 X74.4887 Y8.1714
G01 X74.4946 Y8.1786
G01 X74.5589 Y8.2653
G01 X74.5641 Y8.2730
G01 X74.6196 Y8.3656
G01 X74.6237 Y8.3733
G01 X74.6701 Y8.4714
G01 X74.6737 Y8.4800
G01 X74.7101 Y8.5817
G01 X74.7128 Y8.5906
G01 X74.7390 Y8.6953
G01 X74.7408 Y8.7045
G01 X74.7567 Y8.8112
G01 X74.7576 Y8.8205
G01 X74.7629 Y8.9283
G01 X74.7629 Y8.9377
G01 X74.7576 Y9.0455
G01 X74.7567 Y9.0548
G01 X74.7408 Y9.1615
G01 X74.7390 Y9.1707
G01 X74.7128 Y9.2754
G01 X74.7101 Y9.2843
G01 X74.6737 Y9.3860
G01 X74.6701 Y9.3946
G01 X74.6240 Y9.4922
G01 X74.6196 Y9.5004
G01 X74.5641 Y9.5930
G01 X74.5589 Y9.6007
G01 X74.4946 Y9.6874
G01 X74.4887 Y9.6946
G01 X74.4162 Y9.7746
G01 X74.4096 Y9.7812
G01 X74.3296 Y9.8537
G01 X74.3224 Y9.8596
G01 X74.2357 Y9.9239
G01 X74.2280 Y9.9291
G01 X74.1354 Y9.9846
G01 X74.1272 Y9.9890
G01 X74.0296 Y10.0351
G01 X74.0210 Y10.0387
G01 X73.9193 Y10.0751
G01 X73.9104 Y10.0778
G01 X73.8057 Y10.1040
G01 X73.7965 Y10.1058
G01 X73.6898 Y10.1217
G01 X73.6805 Y10.1226
G01 X73.5727 Y10.1279
G01 X73.5633 Y10.1279
G01 X73.4555 Y10.1226
G01 X73.4462 Y10.1217
G01 X73.3395 Y10.1058
G01 X73.3303 Y10.1040
G01 X73.2256 Y10.0778
G01 X73.2167 Y10.0751
G01 X73.1150 Y10.0387
G01 X73.1064 Y10.0351
G01 X73.0088 Y9.9890
G01 X73.0006 Y9.9846
G01 X72.9080 Y9.9291
G01 X72.9003 Y9.9239
G01 X72.8136 Y9.8596
G01 X72.8064 Y9.8537
G01 X72.7264 Y9.7812
G01 X72.7198 Y9.7746
G01 X72.6473 Y9.6946
G01 X72.6414 Y9.6874
G01 X72.5771 Y9.6007
G01 X72.5719 Y9.5930
G01 X72.5164 Y9.5004
G01 X72.5120 Y9.4922
G01 X72.4659 Y9.3946
G01 X72.4623 Y9.3860
G01 X72.4259 Y9.2843
G01 X72.4232 Y9.2754
G01 X72.3970 Y9.1707
G01 X72.3952 Y9.1615
G01 X72.3793 Y9.0548
G01 X72.3784 Y9.0455
G01 X72.3731 Y8.9377
G01 X72.3731 Y8.9283
G01 X72.3784 Y8.8205
G01 X72.3793 Y8.8112
G01 X72.3952 Y8.7045
G01 X72.3970 Y8.6953
G01 X72.4153 Y8.6221
G01 X72.2514 Y8.4582
G01 X29.9554 Y8.4582
G01 X27.9861 Y10.4276
G01 X27.9861 Y20.1672
G01 X29.2705 Y21.4517
G01 X29.2900 Y21.4472
G01 X29.3870 Y21.4328
G01 X29.3963 Y21.4319
G01 X29.4943 Y21.4271
G01 X29.5037 Y21.4271
G01 X29.6017 Y21.4319
G01 X29.6110 Y21.4328
G01 X29.7080 Y21.4472
G01 X29.7172 Y21.4491
G01 X29.8124 Y21.4729
G01 X29.8213 Y21.4756
G01 X29.9137 Y21.5087
G01 X29.9223 Y21.5122
G01 X30.0110 Y21.5542
G01 X30.0192 Y21.5586
G01 X30.1034 Y21.6090
G01 X30.1112 Y21.6142
G01 X30.1900 Y21.6727
G01 X30.1972 Y21.6786
G01 X30.2699 Y21.7445
G01 X30.2765 Y21.7511
G01 X30.3424 Y21.8238
G01 X30.3483 Y21.8310
G01 X30.4068 Y21.9098
G01 X30.4120 Y21.9176
G01 X30.4624 Y22.0018
G01 X30.4668 Y22.0100
G01 X30.5088 Y22.0987
G01 X30.5123 Y22.1073
G01 X30.5454 Y22.1997
G01 X30.5481 Y22.2086
G01 X30.5719 Y22.3038
G01 X30.5738 Y22.3130
G01 X30.5882 Y22.4100
G01 X30.5891 Y22.4193
G01 X30.5939 Y22.5173
G01 X30.5939 Y22.5267
G01 X30.5891 Y22.6247
G01 X30.5882 Y22.6340
G01 X30.5738 Y22.7310
G01 X30.5719 Y22.7402
G01 X30.5481 Y22.8354
G01 X30.5454 Y22.8443
G01 X30.5123 Y22.9367
G01 X30.5088 Y22.9453
G01 X30.4668 Y23.0340
G01 X30.4624 Y23.0422
G01 X30.4120 Y23.1264
G01 X30.4068 Y23.1342
G01 X30.3483 Y23.2130
G01 X30.3424 Y23.2202
G01 X30.2765 Y23.2929
G01 X30.2699 Y23.2995
G01 X30.1972 Y23.3654
G01 X30.1900 Y23.3713
G01 X30.1112 Y23.4298
G01 X30.1034 Y23.4350
G01 X30.0192 Y23.4854
G01 X30.0110 Y23.4898
G01 X29.9223 Y23.5318
G01 X29.9137 Y23.5353
G01 X29.8213 Y23.5684
G01 X29.8124 Y23.5711
G01 X29.7172 Y23.5949
G01 X29.7080 Y23.5968
G01 X29.6110 Y23.6112
G01 X29.6017 Y23.6121
G01 X29.5037 Y23.6169
G01 X29.4943 Y23.6169
G01 X29.3963 Y23.6121
G01 X29.3870 Y23.6112
G01 X29.2900 Y23.5968
G01 X29.2808 Y23.5949
G01 X29.1856 Y23.5711
G01 X29.1767 Y23.5684
G01 X29.0843 Y23.5353
G01 X29.0757 Y23.5318
G01 X28.9870 Y23.4898
G01 X28.9788 Y23.4854
G01 X28.8946 Y23.4350
G01 X28.8868 Y23.4298
G01 X28.8080 Y23.3713
G01 X28.8008 Y23.3654
G01 X28.7281 Y23.2995
G01 X28.7215 Y23.2929
G01 X28.6556 Y23.2202
G01 X28.6497 Y23.2130
G01 X28.5912 Y23.1342
G01 X28.5860 Y23.1264
G01 X28.5356 Y23.0422
G01 X28.5312 Y23.0340
G01 X28.4892 Y22.9453
G01 X28.4857 Y22.9367
G01 X28.4526 Y22.8443
G01 X28.4499 Y22.8354
G01 X28.4261 Y22.7402
G01 X28.4242 Y22.7310
G01 X28.4098 Y22.6340
G01 X28.4089 Y22.6247
G01 X28.4041 Y22.5267
G01 X28.4041 Y22.5173
G01 X28.4089 Y22.4193
G01 X28.4098 Y22.4100
G01 X28.4242 Y22.3130
G01 X28.4287 Y22.2935
G01 X26.9667 Y20.8313
G01 X26.9337 Y20.7950
G01 X26.9278 Y20.7877
G01 X26.8986 Y20.7483
G01 X26.8934 Y20.7406
G01 X26.8681 Y20.6985
G01 X26.8637 Y20.6902
G01 X26.8428 Y20.6459
G01 X26.8392 Y20.6372
G01 X26.8226 Y20.5910
G01 X26.8199 Y20.5821
G01 X26.8080 Y20.5345
G01 X26.8062 Y20.5253
G01 X26.7990 Y20.4768
G01 X26.7981 Y20.4675
G01 X26.7956 Y20.4138
G01 X26.7956 Y10.1810
G01 X26.7981 Y10.1273
G01 X26.7990 Y10.1181
G01 X26.8062 Y10.0695
G01 X26.8080 Y10.0604
G01 X26.8199 Y10.0127
G01 X26.8226 Y10.0038
G01 X26.8392 Y9.9576
G01 X26.8428 Y9.9490
G01 X26.8638 Y9.9046
G00 Z2.0000
G00 X31.1982 Y11.4690
G01 F50.00
G01 Z-0.2000
G01 F100.00
G01 X31.1562 Y11.5577
G01 X31.1527 Y11.5663
G01 X31.1196 Y11.6587
G01 X31.1169 Y11.6676
G01 X31.0931 Y11.7628
G01 X31.0912 Y11.7720
G01 X31.0768 Y11.8690
G01 X31.0759 Y11.8783
G01 X31.0711 Y11.9763
G01 X31.0711 Y11.9857
G01 X31.0759 Y12.0837
G01 X31.0768 Y12.0930
G01 X31.0912 Y12.1900
G01 X31.0931 Y12.1992
G01 X31.1169 Y12.2944
G01 X31.1196 Y12.3033
G01 X31.1527 Y12.3957
G01 X31.1562 Y12.4043
G01 X31.1982 Y12.4930
G01 X31.2026 Y12.5012
G01 X31.2510 Y12.5820
G01 X31.2170 Y12.6160
G01 X31.1777 Y12.5929
G01 X31.0942 Y12.4367
G01 X31.0258 Y12.2181
G01 X31.0015 Y11.9911
G01 X31.0219 Y11.7638
G01 X31.0862 Y11.5447
G01 X31.1783 Y11.3687
G01 X31.2170 Y11.3460
G01 X31.2510 Y11.3800
G01 X31.2026 Y11.4608
G01 X31.1982 Y11.4690
G00 Z2.0000
G00 X31.5650 Y11.0660
G01 F50.00
G01 Z-0.2000
G01 F100.00
G01 X31.5310 Y11.0320
G01 X31.5541 Y10.9927
G01 X31.5896 Y10.9738
G01 X31.5832 Y10.9991
G01 X31.5814 Y11.0082
G01 X31.5738 Y11.0607
G01 X31.5650 Y11.0660
G00 Z2.0000
G00 X31.5650 Y12.8960
G01 F50.00
G01 Z-0.2000
G01 F100.00
G01 X31.6458 Y12.9444
G01 X31.6540 Y12.9488
G01 X31.7427 Y12.9908
G01 X31.7513 Y12.9943
G01 X31.8437 Y13.0274
G01 X31.8526 Y13.0301
G01 X31.9478 Y13.0539
G01 X31.9570 Y13.0558
G01 X32.0540 Y13.0702
G01 X32.0633 Y13.0711
G01 X32.1613 Y13.0759
G01 X32.1707 Y13.0759
G01 X32.2687 Y13.0711
G01 X32.2780 Y13.0702
G01 X32.3750 Y13.0558
G01 X32.3842 Y13.0539
G01 X32.4794 Y13.0301
G01 X32.4883 Y13.0274
G01 X32.5807 Y12.9943
G01 X32.5893 Y12.9908
G01 X32.6780 Y12.9488
G01 X32.6862 Y12.9444
G01 X32.7670 Y12.8960
G01 X32.8010 Y12.9300
G01 X32.7779 Y12.9693
G01 X32.6217 Y13.0528
G01 X32.4031 Y13.1212
G01 X32.1761 Y13.1455
G01 X31.9488 Y13.1251
G01 X31.7297 Y13.0608
G01 X31.5537 Y12.9687
G01 X31.5310 Y12.9300
G01 X31.5650 Y12.8960
G00 Z2.0000
G00 X33.7382 Y11.4690
G01 F50.00
G01 Z-0.2000
G01 F100.00
G01 X33.7426 Y11.4608
G01 X33.7930 Y11.3766
G01 X33.7982 Y11.3688
G01 X33.8567 Y11.2900
G01 X33.8626 Y11.2828
G01 X33.9285 Y11.2101
G01 X33.9351 Y11.2035
G01 X34.0078 Y11.1376
G01 X34.0150 Y11.1317
G01 X34.0938 Y11.0732
G01 X34.1016 Y11.0680
G01 X34.1858 Y11.0176
G01 X34.1940 Y11.0132
G01 X34.2827 Y10.9712
G01 X34.2913 Y10.9677
G01 X34.3837 Y10.9346
G01 X34.3926 Y10.9319
G01 X34.4878 Y10.9081
G01 X34.4970 Y10.9062
G01 X34.5940 Y10.8918
G01 X34.6033 Y10.8909
G01 X34.7013 Y10.8861
G01 X34.7107 Y10.8861
G01 X34.8087 Y10.8909
G01 X34.8180 Y10.8918
G01 X34.9150 Y10.9062
G01 X34.9242 Y10.9081
G01 X35.0194 Y10.9319
G01 X35.0283 Y10.9346
G01 X35.1207 Y10.9677
G01 X35.1293 Y10.9712
G01 X35.2180 Y11.0132
G01 X35.2262 Y11.0176
G01 X35.3104 Y11.0680
G01 X35.3182 Y11.0732
G01 X35.3970 Y11.1317
G01 X35.4042 Y11.1376
G01 X35.4769 Y11.2035
G01 X35.4835 Y11.2101
G01 X35.5494 Y11.2828
G01 X35.5553 Y11.2900
G01 X35.6138 Y11.3688
G01 X35.6190 Y11.3766
G01 X35.6694 Y11.4608
G01 X35.6738 Y11.4690
G01 X35.7158 Y11.5577
G01 X35.7193 Y11.5663
G01 X35.7524 Y11.6587
G01 X35.7551 Y11.6676
G01 X35.7789 Y11.7628
G01 X35.7808 Y11.7720
G01 X35.7952 Y11.8690
G01 X35.7961 Y11.8783
G01 X35.8009 Y11.9763
G01 X35.8009 Y11.9857
G01 X35.7961 Y12.0837
G01 X35.7952 Y12.0930
G01 X35.7808 Y12.1900
G01 X35.7789 Y12.1992
G01 X35.7551 Y12.2944
G01 X35.7524 Y12.3033
G01 X35.7193 Y12.3957
G01 X35.7158 Y12.4043
G01 X35.6738 Y12.4930
G01 X35.6694 Y12.5012
G01 X35.6190 Y12.5854
G01 X35.6138 Y12.5932
G01 X35.5553 Y12.6720
G01 X35.5494 Y12.6792
G01 X35.4835 Y12.7519
G01 X35.4769 Y12.7585
G01 X35.4042 Y12.8244
G01 X35.3970 Y12.8303
G01 X35.3182 Y12.8888
G01 X35.3013 Y12.8994
G01 X35.3013 Y17.9828
G01 X36.7542 Y19.4358
G01 X44.3281 Y19.4358
G01 X44.5871 Y19.1769
G01 X44.6235 Y19.1439
G01 X44.6307 Y19.1380
G01 X44.6701 Y19.1088
G01 X44.6779 Y19.1036
G01 X44.7200 Y19.0783
G01 X44.7282 Y19.0739
G01 X44.7726 Y19.0530
G01 X44.7812 Y19.0494
G01 X44.8274 Y19.0328
G01 X44.8363 Y19.0301
G01 X44.8840 Y19.0182
G01 X44.8931 Y19.0164
G01 X44.9417 Y19.0092
G01 X44.9509 Y19.0083
G01 X45.0046 Y19.0057
G01 X45.1176 Y19.0057
G01 X45.1282 Y18.9888
G01 X45.1867 Y18.9100
G01 X45.1926 Y18.9028
G01 X45.2585 Y18.8301
G01 X45.2651 Y18.8235
G01 X45.3378 Y18.7576
G01 X45.3450 Y18.7517
G01 X45.4238 Y18.6932
G01 X45.4316 Y18.6880
G01 X45.5158 Y18.6376
G01 X45.5240 Y18.6332
G01 X45.6127 Y18.5912
G01 X45.6213 Y18.5877
G01 X45.7137 Y18.5546
G01 X45.7226 Y18.5519
G01 X45.8178 Y18.5281
G01 X45.8270 Y18.5262
G01 X45.9240 Y18.5118
G01 X45.9333 Y18.5109
G01 X46.0360 Y18.5060
G01 X46.2360 Y18.5060
G01 X46.3387 Y18.5109
G01 X46.3480 Y18.5118
G01 X46.4450 Y18.5262
G01 X46.4542 Y18.5281
G01 X46.5494 Y18.5519
G01 X46.5583 Y18.5546
G01 X46.6507 Y18.5877
G01 X46.6593 Y18.5912
G01 X46.7480 Y18.6332
G01 X46.7562 Y18.6376
G01 X46.8404 Y18.6880
G01 X46.8482 Y18.6932
G01 X46.9270 Y18.7517
G01 X46.9342 Y18.7576
G01 X47.0069 Y18.8235
G01 X47.0135 Y18.8301
G01 X47.0794 Y18.9028
G01 X47.0853 Y18.9100
G01 X47.1438 Y18.9888
G01 X47.1490 Y18.9966
G01 X47.1994 Y19.0808
G01 X47.2035 Y19.0884
G01 X47.2458 Y19.1777
G01 X47.2493 Y19.1863
G01 X47.2824 Y19.2787
G01 X47.2851 Y19.2876
G01 X47.3089 Y19.3828
G01 X47.3108 Y19.3920
G01 X47.3252 Y19.4890
G01 X47.3261 Y19.4983
G01 X47.3309 Y19.5963
G01 X47.3309 Y19.6057
G01 X47.3261 Y19.7037
G01 X47.3252 Y19.7130
G01 X47.3108 Y19.8100
G01 X47.3089 Y19.8192
G01 X47.2851 Y19.9144
G01 X47.2824 Y19.9233
G01 X47.2493 Y20.0157
G01 X47.2458 Y20.0243
G01 X47.2038 Y20.1130
G01 X47.1994 Y20.1212
G01 X47.1490 Y20.2054
G01 X47.1438 Y20.2132
G01 X47.0853 Y20.2920
G01 X47.0794 Y20.2992
G01 X47.0135 Y20.3719
G01 X47.0069 Y20.3785
G01 X46.9342 Y20.4444
G01 X46.9270 Y20.4503
G01 X46.8482 Y20.5088
G01 X46.8404 Y20.5140
G01 X46.7562 Y20.5644
G01 X46.7480 Y20.5688
G01 X46.6593 Y20.6108
G01 X46.6507 Y20.6143
G01 X46.5583 Y20.6474
G01 X46.5494 Y20.6501
G01 X46.4542 Y20.6739
G01 X46.4450 Y20.6758
G01 X46.3480 Y20.6902
G01 X46.3387 Y20.6911
G01 X46.2407 Y20.6959
G01 X46.0360 Y20.6960
G01 X45.9333 Y20.6911
G01 X45.9240 Y20.6902
G01 X45.8270 Y20.6758
G01 X45.8178 Y20.6739
G01 X45.7226 Y20.6501
G01 X45.7137 Y20.6474
G01 X45.6213 Y20.6143
G01 X45.6127 Y20.6108
G01 X45.5240 Y20.5688
G01 X45.5158 Y20.5644
G01 X45.4316 Y20.5140
G01 X45.4238 Y20.5088
G01 X45.3450 Y20.4503
G01 X45.3378 Y20.4444
G01 X45.2651 Y20.3785
G01 X45.2585 Y20.3719
G01 X45.1926 Y20.2992
G01 X45.1867 Y20.2920
G01 X45.1734 Y20.2741
G01 X44.9955 Y20.4519
G01 X44.9558 Y20.4881
G01 X44.9486 Y20.4940
G01 X44.9091 Y20.5232
G01 X44.9014 Y20.5284
G01 X44.8593 Y20.5537
G01 X44.8511 Y20.5581
G01 X44.8067 Y20.5791
G01 X44.7981 Y20.5826
G01 X44.7518 Y20.5992
G01 X44.7429 Y20.6019
G01 X44.6953 Y20.6138
G01 X44.6862 Y20.6156
G01 X44.6376 Y20.6228
G01 X44.6283 Y20.6237
G01 X44.5793 Y20.6261
G01 X36.5076 Y20.6263
G01 X36.4539 Y20.6237
G01 X36.4446 Y20.6228
G01 X36.3961 Y20.6156
G01 X36.3869 Y20.6138
G01 X36.3393 Y20.6019
G01 X36.3304 Y20.5992
G01 X36.2842 Y20.5826
G01 X36.2755 Y20.5791
G01 X36.2312 Y20.5581
G01 X36.2229 Y20.5537
G01 X36.1808 Y20.5284
G01 X36.1731 Y20.5232
G01 X36.1337 Y20.4940
G01 X36.1264 Y20.4881
G01 X36.0867 Y20.4519
G01 X34.2851 Y18.6503
G01 X34.2489 Y18.6106
G01 X34.2430 Y18.6033
G01 X34.2138 Y18.5639
G01 X34.2086 Y18.5562
G01 X34.1833 Y18.5141
G01 X34.1789 Y18.5058
G01 X34.1580 Y18.4615
G01 X34.1544 Y18.4528
G01 X34.1378 Y18.4066
G01 X34.1351 Y18.3977
G01 X34.1232 Y18.3501
G01 X34.1214 Y18.3409
G01 X34.1142 Y18.2924
G01 X34.1133 Y18.2831
G01 X34.1108 Y18.2294
G01 X34.1108 Y12.8994
G01 X34.0938 Y12.8888
G01 X34.0150 Y12.8303
G01 X34.0078 Y12.8244
G01 X33.9351 Y12.7585
G01 X33.9285 Y12.7519
G01 X33.8626 Y12.6792
G01 X33.8567 Y12.6720
G01 X33.7982 Y12.5932
G01 X33.7930 Y12.5854
G01 X33.7426 Y12.5012
G01 X33.7382 Y12.4930
G01 X33.6962 Y12.4043
G01 X33.6927 Y12.3957
G01 X33.6596 Y12.3033
G01 X33.6569 Y12.2944
G01 X33.6331 Y12.1992
G01 X33.6312 Y12.1900
G01 X33.6168 Y12.0930
G01 X33.6159 Y12.0837
G01 X33.6111 Y11.9857
G01 X33.6111 Y11.9763
G01 X33.6159 Y11.8783
G01 X33.6168 Y11.8690
G01 X33.6312 Y11.7720
G01 X33.6331 Y11.7628
G01 X33.6569 Y11.6676
G01 X33.6596 Y11.6587
G01 X33.6927 Y11.5663
G01 X33.6962 Y11.5577
G01 X33.7382 Y11.4690
G00 Z2.0000
G00 X35.5250 Y17.8952
G01 F50.00
G01 Z-0.2000
G01 F100.00
G01 X35.5193 Y17.8808
G01 X35.5150 Y17.8658
G01 X35.5123 Y17.8505
G01 X35.5114 Y17.8412
G01 X35.5110 Y17.8303
G01 X35.5111 Y13.0825
G01 X35.5123 Y13.0670
G01 X35.5150 Y13.0517
G01 X35.5166 Y13.0457
G01 X35.5214 Y13.0309
G01 X35.5276 Y13.0166
G01 X35.5320 Y13.0084
G01 X35.5352 Y13.0031
G01 X35.5441 Y12.9903
G01 X35.5500 Y12.9831
G01 X35.5574 Y12.9751
G01 X35.6715 Y12.8611
G01 X35.6834 Y12.8510
G01 X35.6961 Y12.8421
G01 X35.7097 Y12.8345
G01 X35.7153 Y12.8319
G01 X35.7298 Y12.8262
G01 X35.7387 Y12.8235
G01 X35.7448 Y12.8220
G01 X35.7601 Y12.8192
G01 X35.7756 Y12.8180
G01 X35.7849 Y12.8180
G01 X35.8004 Y12.8192
G01 X35.8066 Y12.8202
G01 X35.8218 Y12.8235
G01 X35.8307 Y12.8262
G01 X35.8452 Y12.8319
G01 X35.8508 Y12.8345
G01 X35.8644 Y12.8421
G01 X35.8772 Y12.8510
G01 X35.8844 Y12.8569
G01 X35.8956 Y12.8677
G01 X35.8998 Y12.8723
G01 X35.9057 Y12.8795
G01 X35.9146 Y12.8923
G01 X35.9222 Y12.9059
G01 X35.9248 Y12.9115
G01 X35.9305 Y12.9260
G01 X35.9347 Y12.9410
G01 X35.9375 Y12.9563
G01 X35.9387 Y12.9721
G01 X35.9454 Y13.0408
G01 X35.9629 Y13.0983
G01 X35.9912 Y13.1512
G01 X36.0293 Y13.1977
G01 X36.0758 Y13.2358
G01 X36.1287 Y13.2641
G01 X36.1862 Y13.2816
G01 X36.2538 Y13.2882
G01 X38.2382 Y13.2882
G01 X38.3058 Y13.2816
G01 X38.3633 Y13.2641
G01 X38.4163 Y13.2358
G01 X38.4627 Y13.1977
G01 X38.5008 Y13.1512
G01 X38.5291 Y13.0983
G01 X38.5466 Y13.0408
G01 X38.5532 Y12.9732
G01 X38.5533 Y12.9398
G01 X38.5536 Y12.9336
G01 X38.5555 Y12.9182
G01 X38.5588 Y12.9030
G01 X38.5615 Y12.8941
G01 X38.5672 Y12.8796
G01 X38.5742 Y12.8657
G01 X38.5826 Y12.8526
G01 X38.5863 Y12.8476
G01 X38.5922 Y12.8404
G01 X38.6030 Y12.8292
G01 X38.6148 Y12.8191
G01 X38.6199 Y12.8154
G01 X38.6330 Y12.8070
G01 X38.6468 Y12.7999
G01 X38.6613 Y12.7943
G01 X38.6702 Y12.7916
G01 X38.6854 Y12.7882
G01 X38.7009 Y12.7864
G01 X38.7071 Y12.7861
G01 X45.7176 Y12.7861
G01 X45.7331 Y12.7873
G01 X45.7484 Y12.7900
G01 X45.7544 Y12.7916
G01 X45.7692 Y12.7964
G01 X45.7835 Y12.8026
G01 X45.7917 Y12.8070
G01 X45.8048 Y12.8154
G01 X45.8170 Y12.8250
G01 X45.8250 Y12.8324
G01 X45.9536 Y12.9612
G01 X45.9578 Y12.9658
G01 X45.9674 Y12.9780
G01 X45.9758 Y12.9911
G01 X45.9829 Y13.0050
G01 X45.9885 Y13.0194
G01 X45.9928 Y13.0344
G01 X45.9946 Y13.0436
G01 X45.9964 Y13.0590
G01 X45.9967 Y13.0652
G01 X45.9964 Y13.0808
G01 X45.9946 Y13.0962
G01 X45.9912 Y13.1114
G01 X45.9864 Y13.1262
G01 X45.9829 Y13.1348
G01 X45.9758 Y13.1487
G01 X45.9674 Y13.1618
G01 X45.9578 Y13.1740
G01 X45.9470 Y13.1852
G01 X45.9424 Y13.1894
G01 X45.9302 Y13.1990
G01 X45.9171 Y13.2074
G01 X45.9089 Y13.2118
G01 X45.8946 Y13.2180
G01 X45.8798 Y13.2228
G01 X45.8646 Y13.2262
G01 X45.8538 Y13.2277
G01 X45.7802 Y13.2349
G01 X45.5342 Y13.3095
G01 X45.3075 Y13.4307
G01 X45.1088 Y13.5938
G01 X45.0560 Y13.6581
G01 X45.0488 Y13.6662
G01 X45.0376 Y13.6770
G01 X45.0254 Y13.6866
G01 X45.0123 Y13.6950
G01 X44.9984 Y13.7021
G01 X44.9898 Y13.7056
G01 X44.9750 Y13.7104
G01 X44.9598 Y13.7138
G01 X44.9536 Y13.7147
G01 X44.9444 Y13.7156
G01 X44.9335 Y13.7160
G01 X43.6433 Y13.7160
G01 X43.6278 Y13.7153
G01 X43.5960 Y13.7121
G01 X43.4382 Y13.7277
G01 X43.2865 Y13.7737
G01 X43.1466 Y13.8485
G01 X43.0240 Y13.9490
G01 X43.0038 Y13.9737
G01 X42.9933 Y13.9853
G01 X40.5203 Y16.4583
G01 X40.5087 Y16.4688
G01 X40.4840 Y16.4890
G01 X40.4638 Y16.5137
G01 X40.4533 Y16.5253
G01 X39.9990 Y16.9796
G01 X39.9910 Y16.9870
G01 X39.9838 Y16.9929
G01 X39.9710 Y17.0018
G01 X39.9575 Y17.0094
G01 X39.9518 Y17.0121
G01 X39.9374 Y17.0177
G01 X39.9284 Y17.0204
G01 X39.9132 Y17.0238
G01 X39.8978 Y17.0256
G01 X39.8869 Y17.0260
G01 X39.6575 Y17.0260
G01 X39.4054 Y17.0762
G01 X39.1679 Y17.1746
G01 X38.9541 Y17.3174
G01 X38.7724 Y17.4991
G01 X38.6296 Y17.7129
G01 X38.5312 Y17.9504
G01 X38.4810 Y18.2025
G01 X38.4810 Y18.4595
G01 X38.5312 Y18.7116
G01 X38.6296 Y18.9491
G01 X38.6523 Y18.9834
G01 X38.6599 Y18.9969
G01 X38.6626 Y19.0026
G01 X38.6682 Y19.0171
G01 X38.6709 Y19.0260
G01 X38.6743 Y19.0412
G01 X38.6752 Y19.0473
G01 X38.6764 Y19.0628
G01 X38.6764 Y19.0722
G01 X38.6761 Y19.0784
G01 X38.6743 Y19.0938
G01 X38.6709 Y19.1090
G01 X38.6661 Y19.1238
G01 X38.6626 Y19.1324
G01 X38.6555 Y19.1463
G01 X38.6471 Y19.1594
G01 X38.6434 Y19.1644
G01 X38.6333 Y19.1762
G01 X38.6221 Y19.1870
G01 X38.6099 Y19.1966
G01 X38.6021 Y19.2018
G01 X38.5885 Y19.2094
G01 X38.5829 Y19.2121
G01 X38.5684 Y19.2177
G01 X38.5535 Y19.2220
G01 X38.5381 Y19.2247
G01 X38.5289 Y19.2256
G01 X38.5180 Y19.2260
G01 X36.9067 Y19.2260
G01 X36.8958 Y19.2256
G01 X36.8865 Y19.2247
G01 X36.8712 Y19.2220
G01 X36.8562 Y19.2177
G01 X36.8418 Y19.2121
G01 X36.8279 Y19.2050
G01 X36.8148 Y19.1966
G01 X36.8026 Y19.1870
G01 X36.7946 Y19.1796
G01 X35.5574 Y17.9424
G01 X35.5480 Y17.9321
G01 X35.5404 Y17.9222
G01 X35.5320 Y17.9091
G01 X35.5276 Y17.9009
G01 X35.5250 Y17.8952
G00 Z2.0000
G00 X38.8182 Y17.8190
G01 F50.00
G01 Z-0.2000
G01 F100.00
G01 X38.8226 Y17.8108
G01 X38.8730 Y17.7266
G01 X38.8782 Y17.7188
G01 X38.9367 Y17.6400
G01 X38.9426 Y17.6328
G01 X39.0085 Y17.5601
G01 X39.0151 Y17.5535
G01 X39.0878 Y17.4876
G01 X39.0950 Y17.4817
G01 X39.1738 Y17.4232
G01 X39.1816 Y17.4180
G01 X39.2658 Y17.3676
G01 X39.2740 Y17.3632
G01 X39.3627 Y17.3212
G01 X39.3713 Y17.3177
G01 X39.4637 Y17.2846
G01 X39.4726 Y17.2819
G01 X39.5678 Y17.2581
G01 X39.5770 Y17.2562
G01 X39.6740 Y17.2418
G01 X39.6833 Y17.2409
G01 X39.7813 Y17.2361
G01 X39.7907 Y17.2361
G01 X39.8887 Y17.2409
G01 X39.8980 Y17.2418
G01 X39.9950 Y17.2562
G01 X40.0145 Y17.2607
G01 X43.1751 Y14.1001
G01 X43.2148 Y14.0639
G01 X43.2221 Y14.0580
G01 X43.2615 Y14.0288
G01 X43.2692 Y14.0236
G01 X43.3113 Y13.9983
G01 X43.3196 Y13.9939
G01 X43.3639 Y13.9730
G01 X43.3726 Y13.9694
G01 X43.4188 Y13.9528
G01 X43.4277 Y13.9501
G01 X43.4753 Y13.9382
G01 X43.4845 Y13.9364
G01 X43.5330 Y13.9292
G01 X43.5423 Y13.9283
G01 X43.5913 Y13.9259
G01 X45.1176 Y13.9257
G01 X45.1282 Y13.9088
G01 X45.1867 Y13.8300
G01 X45.1926 Y13.8228
G01 X45.2585 Y13.7501
G01 X45.2651 Y13.7435
G01 X45.3378 Y13.6776
G01 X45.3450 Y13.6717
G01 X45.4238 Y13.6132
G01 X45.4316 Y13.6080
G01 X45.5158 Y13.5576
G01 X45.5240 Y13.5532
G01 X45.6127 Y13.5112
G01 X45.6213 Y13.5077
G01 X45.7137 Y13.4746
G01 X45.7226 Y13.4719
G01 X45.8178 Y13.4481
G01 X45.8270 Y13.4462
G01 X45.9240 Y13.4318
G01 X45.9333 Y13.4309
G01 X46.0360 Y13.4260
G01 X46.2407 Y13.4261
G01 X46.3387 Y13.4309
G01 X46.3480 Y13.4318
G01 X46.4450 Y13.4462
G01 X46.4542 Y13.4481
G01 X46.5494 Y13.4719
G01 X46.5583 Y13.4746
G01 X46.6507 Y13.5077
G01 X46.6593 Y13.5112
G01 X46.7480 Y13.5532
G01 X46.7562 Y13.5576
G01 X46.8404 Y13.6080
G01 X46.8482 Y13.6132
G01 X46.9270 Y13.6717
G01 X46.9342 Y13.6776
G01 X47.0069 Y13.7435
G01 X47.0135 Y13.7501
G01 X47.0794 Y13.8228
G01 X47.0853 Y13.8300
G01 X47.1438 Y13.9088
G01 X47.1490 Y13.9166
G01 X47.1994 Y14.0008
G01 X47.2035 Y14.0084
G01 X47.2458 Y14.0977
G01 X47.2493 Y14.1063
G01 X47.2824 Y14.1987
G01 X47.2851 Y14.2076
G01 X47.3089 Y14.3028
G01 X47.3108 Y14.3120
G01 X47.3252 Y14.4090
G01 X47.3261 Y14.4183
G01 X47.3309 Y14.5163
G01 X47.3309 Y14.5257
G01 X47.3261 Y14.6237
G01 X47.3252 Y14.6330
G01 X47.3108 Y14.7300
G01 X47.3089 Y14.7392
G01 X47.2851 Y14.8344
G01 X47.2824 Y14.8433
G01 X47.2493 Y14.9357
G01 X47.2458 Y14.9443
G01 X47.2038 Y15.0330
G01 X47.1994 Y15.0412
G01 X47.1490 Y15.1254
G01 X47.1438 Y15.1332
G01 X47.0853 Y15.2120
G01 X47.0794 Y15.2192
G01 X47.0135 Y15.2919
G01 X47.0069 Y15.2985
G01 X46.9342 Y15.3644
G01 X46.9270 Y15.3703
G01 X46.8482 Y15.4288
G01 X46.8404 Y15.4340
G01 X46.7562 Y15.4844
G01 X46.7480 Y15.4888
G01 X46.6593 Y15.5308
G01 X46.6507 Y15.5343
G01 X46.5583 Y15.5674
G01 X46.5494 Y15.5701
G01 X46.4542 Y15.5939
G01 X46.4450 Y15.5958
G01 X46.3480 Y15.6102
G01 X46.3387 Y15.6111
G01 X46.2360 Y15.6160
G01 X46.0360 Y15.6160
G01 X45.9333 Y15.6111
G01 X45.9240 Y15.6102
G01 X45.8270 Y15.5958
G01 X45.8178 Y15.5939
G01 X45.7226 Y15.5701
G01 X45.7137 Y15.5674
G01 X45.6213 Y15.5343
G01 X45.6127 Y15.5308
G01 X45.5240 Y15.4888
G01 X45.5158 Y15.4844
G01 X45.4316 Y15.4340
G01 X45.4238 Y15.4288
G01 X45.3450 Y15.3703
G01 X45.3378 Y15.3644
G01 X45.2651 Y15.2985
G01 X45.2585 Y15.2919
G01 X45.1926 Y15.2192
G01 X45.1867 Y15.2120
G01 X45.1282 Y15.1332
G01 X45.1176 Y15.1163
G01 X43.8426 Y15.1163
G01 X42.4931 Y16.4657
G01 X45.1176 Y16.4657
G01 X45.1282 Y16.4488
G01 X45.1867 Y16.3700
G01 X45.1926 Y16.3628
G01 X45.2585 Y16.2901
G01 X45.2651 Y16.2835
G01 X45.3378 Y16.2176
G01 X45.3450 Y16.2117
G01 X45.4238 Y16.1532
G01 X45.4316 Y16.1480
G01 X45.5158 Y16.0976
G01 X45.5240 Y16.0932
G01 X45.6127 Y16.0512
G01 X45.6213 Y16.0477
G01 X45.7137 Y16.0146
G01 X45.7226 Y16.0119
G01 X45.8178 Y15.9881
G01 X45.8270 Y15.9862
G01 X45.9240 Y15.9718
G01 X45.9333 Y15.9709
G01 X46.0360 Y15.9660
G01 X46.2407 Y15.9661
G01 X46.3387 Y15.9709
G01 X46.3480 Y15.9718
G01 X46.4450 Y15.9862
G01 X46.4542 Y15.9881
G01 X46.5494 Y16.0119
G01 X46.5583 Y16.0146
G01 X46.6507 Y16.0477
G01 X46.6593 Y16.0512
G01 X46.7480 Y16.0932
G01 X46.7562 Y16.0976
G01 X46.8404 Y16.1480
G01 X46.8482 Y16.1532
G01 X46.9270 Y16.2117
G01 X46.9342 Y16.2176
G01 X47.0069 Y16.2835
G01 X47.0135 Y16.2901
G01 X47.0794 Y16.3628
G01 X47.0853 Y16.3700
G01 X47.1438 Y16.4488
G01 X47.1490 Y16.4566
G01 X47.1994 Y16.5408
G01 X47.2038 Y16.5490
G01 X47.2458 Y16.6377
G01 X47.2493 Y16.6463
G01 X47.2824 Y16.7387
G01 X47.2851 Y16.7476
G01 X47.3089 Y16.8428
G01 X47.3108 Y16.8520
G01 X47.3252 Y16.9490
G01 X47.3261 Y16.9583
G01 X47.3309 Y17.0563
G01 X47.3309 Y17.0657
G01 X47.3261 Y17.1637
G01 X47.3252 Y17.1730
G01 X47.3108 Y17.2700
G01 X47.3089 Y17.2792
G01 X47.2851 Y17.3744
G01 X47.2824 Y17.3833
G01 X47.2493 Y17.4757
G01 X47.2458 Y17.4843
G01 X47.2038 Y17.5730
G01 X47.1994 Y17.5812
G01 X47.1490 Y17.6654
G01 X47.1438 Y17.6732
G01 X47.0853 Y17.7520
G01 X47.0794 Y17.7592
G01 X47.0135 Y17.8319
G01 X47.0069 Y17.8385
G01 X46.9342 Y17.9044
G01 X46.9270 Y17.9103
G01 X46.8482 Y17.9688
G01 X46.8404 Y17.9740
G01 X46.7562 Y18.0244
G01 X46.7480 Y18.0288
G01 X46.6593 Y18.0708
G01 X46.6507 Y18.0743
G01 X46.5583 Y18.1074
G01 X46.5494 Y18.1101
G01 X46.4542 Y18.1339
G01 X46.4450 Y18.1358
G01 X46.3480 Y18.1502
G01 X46.3387 Y18.1511
G01 X46.2407 Y18.1559
G01 X46.0360 Y18.1560
G01 X45.9333 Y18.1511
G01 X45.9240 Y18.1502
G01 X45.8270 Y18.1358
G01 X45.8178 Y18.1339
G01 X45.7226 Y18.1101
G01 X45.7137 Y18.1074
G01 X45.6213 Y18.0743
G01 X45.6127 Y18.0708
G01 X45.5240 Y18.0288
G01 X45.5158 Y18.0244
G01 X45.4316 Y17.9740
G01 X45.4238 Y17.9688
G01 X45.3450 Y17.9103
G01 X45.3378 Y17.9044
G01 X45.2651 Y17.8385
G01 X45.2585 Y17.8319
G01 X45.1926 Y17.7592
G01 X45.1867 Y17.7520
G01 X45.1282 Y17.6732
G01 X45.1176 Y17.6563
G01 X41.3026 Y17.6563
G01 X40.8563 Y18.1025
G01 X40.8608 Y18.1220
G01 X40.8752 Y18.2190
G01 X40.8761 Y18.2283
G01 X40.8809 Y18.3263
G01 X40.8809 Y18.3357
G01 X40.8761 Y18.4337
G01 X40.8752 Y18.4430
G01 X40.8608 Y18.5400
G01 X40.8589 Y18.5492
G01 X40.8351 Y18.6444
G01 X40.8324 Y18.6533
G01 X40.7993 Y18.7457
G01 X40.7958 Y18.7543
G01 X40.7538 Y18.8430
G01 X40.7494 Y18.8512
G01 X40.6990 Y18.9354
G01 X40.6938 Y18.9432
G01 X40.6353 Y19.0220
G01 X40.6294 Y19.0292
G01 X40.5635 Y19.1019
G01 X40.5569 Y19.1085
G01 X40.4842 Y19.1744
G01 X40.4770 Y19.1803
G01 X40.3982 Y19.2388
G01 X40.3904 Y19.2440
G01 X40.3062 Y19.2944
G01 X40.2980 Y19.2988
G01 X40.2093 Y19.3408
G01 X40.2007 Y19.3443
G01 X40.1083 Y19.3774
G01 X40.0994 Y19.3801
G01 X40.0042 Y19.4039
G01 X39.9950 Y19.4058
G01 X39.8980 Y19.4202
G01 X39.8887 Y19.4211
G01 X39.7907 Y19.4259
G01 X39.7813 Y19.4259
G01 X39.6833 Y19.4211
G01 X39.6740 Y19.4202
G01 X39.5770 Y19.4058
G01 X39.5678 Y19.4039
G01 X39.4726 Y19.3801
G01 X39.4637 Y19.3774
G01 X39.3713 Y19.3443
G01 X39.3627 Y19.3408
G01 X39.2740 Y19.2988
G01 X39.2658 Y19.2944
G01 X39.1816 Y19.2440
G01 X39.1738 Y19.2388
G01 X39.0950 Y19.1803
G01 X39.0878 Y19.1744
G01 X39.0151 Y19.1085
G01 X39.0085 Y19.1019
G01 X38.9426 Y19.0292
G01 X38.9367 Y19.0220
G01 X38.8782 Y18.9432
G01 X38.8730 Y18.9354
G01 X38.8226 Y18.8512
G01 X38.8182 Y18.8430
G01 X38.7762 Y18.7543
G01 X38.7727 Y18.7457
G01 X38.7396 Y18.6533
G01 X38.7369 Y18.6444
G01 X38.7131 Y18.5492
G01 X38.7112 Y18.5400
G01 X38.6968 Y18.4430
G01 X38.6959 Y18.4337
G01 X38.6911 Y18.3357
G01 X38.6911 Y18.3263
G01 X38.6959 Y18.2283
G01 X38.6968 Y18.2190
G01 X38.7112 Y18.1220
G01 X38.7131 Y18.1128
G01 X38.7369 Y18.0176
G01 X38.7396 Y18.0087
G01 X38.7727 Y17.9163
G01 X38.7762 Y17.9077
G01 X38.8182 Y17.8190
G00 Z2.0000
G00 X40.9121 Y18.9969
G01 F50.00
G01 Z-0.2000
G01 F100.00
G01 X40.9165 Y18.9887
G01 X40.9222 Y18.9794
G01 X40.9424 Y18.9491
G01 X41.0408 Y18.7116
G01 X41.0910 Y18.4595
G01 X41.0911 Y18.2254
G01 X41.0923 Y18.2099
G01 X41.0950 Y18.1946
G01 X41.0993 Y18.1796
G01 X41.1049 Y18.1652
G01 X41.1120 Y18.1513
G01 X41.1152 Y18.1460
G01 X41.1241 Y18.1332
G01 X41.1342 Y18.1214
G01 X41.3464 Y17.9092
G01 X41.3510 Y17.9050
G01 X41.3632 Y17.8954
G01 X41.3763 Y17.8870
G01 X41.3845 Y17.8826
G01 X41.3902 Y17.8799
G01 X41.4046 Y17.8743
G01 X41.4136 Y17.8716
G01 X41.4288 Y17.8682
G01 X41.4442 Y17.8664
G01 X41.4551 Y17.8660
G01 X44.9335 Y17.8660
G01 X44.9444 Y17.8664
G01 X44.9536 Y17.8673
G01 X44.9690 Y17.8700
G01 X44.9750 Y17.8716
G01 X44.9898 Y17.8764
G01 X44.9984 Y17.8799
G01 X45.0123 Y17.8870
G01 X45.0254 Y17.8954
G01 X45.0304 Y17.8991
G01 X45.0422 Y17.9092
G01 X45.0530 Y17.9204
G01 X45.1088 Y17.9882
G01 X45.3075 Y18.1513
G01 X45.3862 Y18.1935
G01 X45.3993 Y18.2019
G01 X45.4115 Y18.2115
G01 X45.4227 Y18.2223
G01 X45.4269 Y18.2269
G01 X45.4365 Y18.2391
G01 X45.4449 Y18.2522
G01 X45.4520 Y18.2661
G01 X45.4576 Y18.2806
G01 X45.4619 Y18.2955
G01 X45.4637 Y18.3047
G01 X45.4655 Y18.3201
G01 X45.4658 Y18.3357
G01 X45.4655 Y18.3419
G01 X45.4637 Y18.3573
G01 X45.4603 Y18.3725
G01 X45.4576 Y18.3814
G01 X45.4520 Y18.3959
G01 X45.4449 Y18.4098
G01 X45.4365 Y18.4229
G01 X45.4328 Y18.4279
G01 X45.4227 Y18.4397
G01 X45.4115 Y18.4505
G01 X45.3993 Y18.4601
G01 X45.3915 Y18.4653
G01 X45.3821 Y18.4708
G01 X45.3075 Y18.5107
G01 X45.1088 Y18.6738
G01 X45.0509 Y18.7442
G01 X45.0467 Y18.7488
G01 X45.0355 Y18.7596
G01 X45.0233 Y18.7692
G01 X45.0102 Y18.7776
G01 X45.0019 Y18.7820
G01 X44.9877 Y18.7882
G01 X44.9729 Y18.7930
G01 X44.9577 Y18.7963
G01 X44.9469 Y18.7978
G01 X44.8468 Y18.8077
G01 X44.6951 Y18.8537
G01 X44.5553 Y18.9285
G01 X44.4327 Y19.0290
G01 X44.4124 Y19.0537
G01 X44.4020 Y19.0653
G01 X44.2876 Y19.1796
G01 X44.2796 Y19.1870
G01 X44.2724 Y19.1929
G01 X44.2597 Y19.2018
G01 X44.2461 Y19.2094
G01 X44.2405 Y19.2121
G01 X44.2260 Y19.2177
G01 X44.2171 Y19.2204
G01 X44.2019 Y19.2238
G01 X44.1864 Y19.2256
G01 X44.1755 Y19.2260
G01 X41.0540 Y19.2260
G01 X41.0431 Y19.2256
G01 X41.0277 Y19.2238
G01 X41.0185 Y19.2220
G01 X41.0036 Y19.2177
G01 X40.9891 Y19.2121
G01 X40.9835 Y19.2094
G01 X40.9699 Y19.2018
G01 X40.9571 Y19.1929
G01 X40.9453 Y19.1828
G01 X40.9387 Y19.1762
G01 X40.9286 Y19.1644
G01 X40.9249 Y19.1594
G01 X40.9165 Y19.1463
G01 X40.9094 Y19.1324
G01 X40.9059 Y19.1238
G01 X40.9011 Y19.1090
G01 X40.8996 Y19.1030
G01 X40.8968 Y19.0877
G01 X40.8956 Y19.0722
G01 X40.8959 Y19.0566
G01 X40.8977 Y19.0412
G01 X40.8996 Y19.0320
G01 X40.9038 Y19.0171
G01 X40.9059 Y19.0112
G01 X40.9121 Y18.9969
G00 Z2.0000
G00 X43.2402 Y16.0269
G01 F50.00
G01 Z-0.2000
G01 F100.00
G01 X43.2446 Y16.0187
G01 X43.2530 Y16.0056
G01 X43.2626 Y15.9934
G01 X43.2700 Y15.9854
G01 X43.8830 Y15.3724
G01 X43.8910 Y15.3650
G01 X43.9032 Y15.3554
G01 X43.9163 Y15.3470
G01 X43.9245 Y15.3426
G01 X43.9388 Y15.3364
G01 X43.9536 Y15.3316
G01 X43.9596 Y15.3300
G01 X43.9749 Y15.3273
G01 X43.9842 Y15.3264
G01 X43.9951 Y15.3260
G01 X44.9335 Y15.3260
G01 X44.9444 Y15.3264
G01 X44.9536 Y15.3273
G01 X44.9598 Y15.3282
G01 X44.9750 Y15.3316
G01 X44.9898 Y15.3364
G01 X44.9984 Y15.3399
G01 X45.0123 Y15.3470
G01 X45.0254 Y15.3554
G01 X45.0376 Y15.3650
G01 X45.0488 Y15.3758
G01 X45.0560 Y15.3839
G01 X45.1088 Y15.4482
G01 X45.3075 Y15.6113
G01 X45.3862 Y15.6535
G01 X45.3993 Y15.6619
G01 X45.4115 Y15.6715
G01 X45.4227 Y15.6823
G01 X45.4269 Y15.6869
G01 X45.4365 Y15.6991
G01 X45.4449 Y15.7122
G01 X45.4520 Y15.7261
G01 X45.4576 Y15.7406
G01 X45.4619 Y15.7555
G01 X45.4646 Y15.7708
G01 X45.4658 Y15.7863
G01 X45.4658 Y15.7957
G01 X45.4646 Y15.8112
G01 X45.4619 Y15.8265
G01 X45.4603 Y15.8325
G01 X45.4555 Y15.8473
G01 X45.4493 Y15.8616
G01 X45.4417 Y15.8751
G01 X45.4365 Y15.8829
G01 X45.4269 Y15.8951
G01 X45.4161 Y15.9063
G01 X45.4115 Y15.9105
G01 X45.3993 Y15.9201
G01 X45.3862 Y15.9285
G01 X45.3075 Y15.9707
G01 X45.1088 Y16.1338
G01 X45.0530 Y16.2016
G01 X45.0422 Y16.2128
G01 X45.0304 Y16.2229
G01 X45.0176 Y16.2318
G01 X45.0040 Y16.2394
G01 X44.9984 Y16.2421
G01 X44.9898 Y16.2456
G01 X44.9750 Y16.2504
G01 X44.9598 Y16.2538
G01 X44.9536 Y16.2547
G01 X44.9444 Y16.2556
G01 X44.9335 Y16.2560
G01 X43.3821 Y16.2560
G01 X43.3712 Y16.2556
G01 X43.3619 Y16.2547
G01 X43.3466 Y16.2520
G01 X43.3406 Y16.2504
G01 X43.3258 Y16.2456
G01 X43.3115 Y16.2394
G01 X43.3033 Y16.2350
G01 X43.2902 Y16.2266
G01 X43.2780 Y16.2170
G01 X43.2668 Y16.2062
G01 X43.2626 Y16.2016
G01 X43.2567 Y16.1944
G01 X43.2478 Y16.1816
G01 X43.2402 Y16.1681
G01 X43.2375 Y16.1624
G01 X43.2319 Y16.1479
G01 X43.2276 Y16.1330
G01 X43.2258 Y16.1238
G01 X43.2240 Y16.1084
G01 X43.2237 Y16.0928
G01 X43.2249 Y16.0773
G01 X43.2258 Y16.0712
G01 X43.2291 Y16.0560
G01 X43.2340 Y16.0412
G01 X43.2402 Y16.0269
G00 Z2.0000
G00 X46.8227 Y15.7204
G01 F50.00
G01 Z-0.2000
G01 F100.00
G01 X46.8303 Y15.7069
G01 X46.8392 Y15.6941
G01 X46.8493 Y15.6823
G01 X46.8559 Y15.6757
G01 X46.8677 Y15.6656
G01 X46.8805 Y15.6567
G01 X46.8899 Y15.6512
G01 X46.9645 Y15.6113
G01 X47.1547 Y15.4552
G01 X47.1634 Y15.4486
G01 X47.1765 Y15.4402
G01 X47.1904 Y15.4332
G01 X47.1990 Y15.4296
G01 X47.2049 Y15.4275
G01 X47.2198 Y15.4233
G01 X47.2290 Y15.4214
G01 X47.2444 Y15.4196
G01 X47.2600 Y15.4193
G01 X47.2755 Y15.4205
G01 X47.2816 Y15.4214
G01 X47.2968 Y15.4248
G01 X47.3057 Y15.4275
G01 X47.3202 Y15.4332
G01 X47.3341 Y15.4402
G01 X47.3394 Y15.4434
G01 X47.3522 Y15.4523
G01 X47.3640 Y15.4624
G01 X47.3748 Y15.4736
G01 X47.3844 Y15.4858
G01 X47.3896 Y15.4936
G01 X47.3972 Y15.5072
G01 X47.3999 Y15.5128
G01 X47.4055 Y15.5273
G01 X47.4098 Y15.5423
G01 X47.4116 Y15.5514
G01 X47.4134 Y15.5668
G01 X47.4138 Y15.5777
G01 X47.4137 Y16.0089
G01 X47.4134 Y16.0152
G01 X47.4116 Y16.0306
G01 X47.4098 Y16.0397
G01 X47.4055 Y16.0547
G01 X47.3999 Y16.0692
G01 X47.3928 Y16.0831
G01 X47.3896 Y16.0884
G01 X47.3807 Y16.1012
G01 X47.3706 Y16.1130
G01 X47.3594 Y16.1238
G01 X47.3472 Y16.1334
G01 X47.3341 Y16.1418
G01 X47.3202 Y16.1488
G01 X47.3057 Y16.1545
G01 X47.2908 Y16.1587
G01 X47.2755 Y16.1615
G01 X47.2600 Y16.1627
G01 X47.2444 Y16.1624
G01 X47.2290 Y16.1606
G01 X47.2138 Y16.1572
G01 X47.1990 Y16.1524
G01 X47.1847 Y16.1462
G01 X47.1712 Y16.1386
G01 X47.1634 Y16.1334
G01 X47.1547 Y16.1268
G01 X46.9645 Y15.9707
G01 X46.8899 Y15.9308
G01 X46.8805 Y15.9253
G01 X46.8727 Y15.9201
G01 X46.8605 Y15.9105
G01 X46.8493 Y15.8997
G01 X46.8451 Y15.8951
G01 X46.8355 Y15.8829
G01 X46.8303 Y15.8751
G01 X46.8227 Y15.8616
G01 X46.8200 Y15.8559
G01 X46.8144 Y15.8414
G01 X46.8117 Y15.8325
G01 X46.8101 Y15.8265
G01 X46.8074 Y15.8112
G01 X46.8062 Y15.7957
G01 X46.8062 Y15.7863
G01 X46.8065 Y15.7801
G01 X46.8083 Y15.7647
G01 X46.8101 Y15.7555
G01 X46.8144 Y15.7406
G01 X46.8200 Y15.7261
G01 X46.8227 Y15.7204
G00 Z2.0000
G00 X46.8227 Y18.2604
G01 F50.00
G01 Z-0.2000
G01 F100.00
G01 X46.8303 Y18.2469
G01 X46.8392 Y18.2341
G01 X46.8493 Y18.2223
G01 X46.8559 Y18.2157
G01 X46.8677 Y18.2056
G01 X46.8805 Y18.1967
G01 X46.8899 Y18.1912
G01 X46.9645 Y18.1513
G01 X47.1547 Y17.9952
G01 X47.1634 Y17.9886
G01 X47.1765 Y17.9802
G01 X47.1904 Y17.9732
G01 X47.1990 Y17.9696
G01 X47.2049 Y17.9675
G01 X47.2198 Y17.9633
G01 X47.2290 Y17.9614
G01 X47.2444 Y17.9596
G01 X47.2600 Y17.9593
G01 X47.2755 Y17.9605
G01 X47.2816 Y17.9614
G01 X47.2968 Y17.9648
G01 X47.3057 Y17.9675
G01 X47.3202 Y17.9732
G01 X47.3341 Y17.9802
G01 X47.3394 Y17.9834
G01 X47.3522 Y17.9923
G01 X47.3640 Y18.0024
G01 X47.3748 Y18.0136
G01 X47.3844 Y18.0258
G01 X47.3896 Y18.0336
G01 X47.3972 Y18.0472
G01 X47.3999 Y18.0528
G01 X47.4055 Y18.0673
G01 X47.4098 Y18.0823
G01 X47.4116 Y18.0914
G01 X47.4134 Y18.1068
G01 X47.4138 Y18.1177
G01 X47.4137 Y18.5489
G01 X47.4134 Y18.5552
G01 X47.4116 Y18.5706
G01 X47.4098 Y18.5797
G01 X47.4055 Y18.5947
G01 X47.3999 Y18.6092
G01 X47.3928 Y18.6231
G01 X47.3896 Y18.6284
G01 X47.3807 Y18.6412
G01 X47.3706 Y18.6530
G01 X47.3594 Y18.6638
G01 X47.3472 Y18.6734
G01 X47.3341 Y18.6818
G01 X47.3202 Y18.6888
G01 X47.3057 Y18.6945
G01 X47.2908 Y18.6987
G01 X47.2755 Y18.7015
G01 X47.2600 Y18.7027
G01 X47.2444 Y18.7024
G01 X47.2290 Y18.7006
G01 X47.2138 Y18.6972
G01 X47.1990 Y18.6924
G01 X47.1847 Y18.6862
G01 X47.1712 Y18.6786
G01 X47.1634 Y18.6734
G01 X47.1547 Y18.6668
G01 X46.9645 Y18.5107
G01 X46.8899 Y18.4708
G01 X46.8805 Y18.4653
G01 X46.8727 Y18.4601
G01 X46.8605 Y18.4505
G01 X46.8493 Y18.4397
G01 X46.8451 Y18.4351
G01 X46.8355 Y18.4229
G01 X46.8303 Y18.4151
G01 X46.8227 Y18.4016
G01 X46.8200 Y18.3959
G01 X46.8144 Y18.3814
G01 X46.8117 Y18.3725
G01 X46.8101 Y18.3665
G01 X46.8074 Y18.3512
G01 X46.8062 Y18.3357
G01 X46.8062 Y18.3263
G01 X46.8065 Y18.3201
G01 X46.8083 Y18.3047
G01 X46.8101 Y18.2955
G01 X46.8144 Y18.2806
G01 X46.8200 Y18.2661
G01 X46.8227 Y18.2604
G00 Z2.0000
G00 X46.8227 Y20.8004
G01 F50.00
G01 Z-0.2000
G01 F100.00
G01 X46.8303 Y20.7869
G01 X46.8392 Y20.7741
G01 X46.8493 Y20.7623
G01 X46.8559 Y20.7557
G01 X46.8677 Y20.7456
G01 X46.8805 Y20.7367
G01 X46.8899 Y20.7312
G01 X46.9645 Y20.6913
G01 X47.1584 Y20.5323
G01 X47.1712 Y20.5234
G01 X47.1847 Y20.5158
G01 X47.1904 Y20.5132
G01 X47.2049 Y20.5075
G01 X47.2198 Y20.5033
G01 X47.2351 Y20.5005
G01 X47.2506 Y20.4993
G01 X47.2662 Y20.4996
G01 X47.2816 Y20.5014
G01 X47.2968 Y20.5048
G01 X47.3116 Y20.5096
G01 X47.3259 Y20.5158
G01 X47.3394 Y20.5234
G01 X47.3522 Y20.5323
G01 X47.3640 Y20.5424
G01 X47.3748 Y20.5536
G01 X47.3844 Y20.5658
G01 X47.3928 Y20.5789
G01 X47.3999 Y20.5928
G01 X47.4055 Y20.6073
G01 X47.4098 Y20.6223
G01 X47.4116 Y20.6314
G01 X47.4134 Y20.6468
G01 X47.4137 Y20.6531
G01 X47.4137 Y20.7951
G01 X47.4134 Y20.8014
G01 X47.4116 Y20.8168
G01 X47.4082 Y20.8320
G01 X47.4034 Y20.8468
G01 X47.3972 Y20.8610
G01 X47.3928 Y20.8693
G01 X47.3844 Y20.8824
G01 X47.3748 Y20.8946
G01 X47.3706 Y20.8992
G01 X47.2060 Y21.0639
G01 X47.1980 Y21.0713
G01 X47.1908 Y21.0773
G01 X47.1781 Y21.0862
G01 X47.1645 Y21.0938
G01 X47.1589 Y21.0964
G01 X47.1444 Y21.1021
G01 X47.1294 Y21.1063
G01 X47.1141 Y21.1090
G01 X47.0986 Y21.1103
G01 X47.0893 Y21.1103
G01 X47.0738 Y21.1090
G01 X47.0585 Y21.1063
G01 X47.0435 Y21.1021
G01 X47.0376 Y21.1000
G01 X47.0234 Y21.0938
G01 X47.0098 Y21.0862
G01 X47.0020 Y21.0810
G01 X46.9934 Y21.0744
G01 X46.9645 Y21.0507
G01 X46.8899 Y21.0108
G01 X46.8805 Y21.0053
G01 X46.8677 Y20.9964
G01 X46.8559 Y20.9863
G01 X46.8493 Y20.9797
G01 X46.8392 Y20.9679
G01 X46.8355 Y20.9629
G01 X46.8271 Y20.9498
G01 X46.8200 Y20.9359
G01 X46.8144 Y20.9214
G01 X46.8101 Y20.9065
G01 X46.8083 Y20.8973
G01 X46.8065 Y20.8819
G01 X46.8062 Y20.8757
G01 X46.8065 Y20.8601
G01 X46.8083 Y20.8447
G01 X46.8101 Y20.8355
G01 X46.8144 Y20.8206
G01 X46.8200 Y20.8061
G01 X46.8227 Y20.8004
G00 Z2.0000
G00 X46.8227 Y23.3404
G01 F50.00
G01 Z-0.2000
G01 F100.00
G01 X46.8303 Y23.3269
G01 X46.8355 Y23.3191
G01 X46.8451 Y23.3069
G01 X46.8559 Y23.2957
G01 X46.8605 Y23.2915
G01 X46.8727 Y23.2819
G01 X46.8805 Y23.2767
G01 X46.8899 Y23.2712
G01 X46.9645 Y23.2313
G01 X46.9895 Y23.2109
G01 X47.0022 Y23.2021
G01 X47.0158 Y23.1945
G01 X47.0301 Y23.1882
G01 X47.0359 Y23.1861
G01 X47.0509 Y23.1819
G01 X47.0662 Y23.1792
G01 X47.0817 Y23.1779
G01 X47.0910 Y23.1779
G01 X47.1065 Y23.1792
G01 X47.1218 Y23.1819
G01 X47.1279 Y23.1834
G01 X47.1427 Y23.1882
G01 X47.1513 Y23.1918
G01 X47.1652 Y23.1989
G01 X47.1783 Y23.2072
G01 X47.1905 Y23.2169
G01 X47.1985 Y23.2243
G01 X48.3846 Y24.4104
G01 X48.3920 Y24.4184
G01 X48.4016 Y24.4306
G01 X48.4100 Y24.4437
G01 X48.4144 Y24.4519
G01 X48.4171 Y24.4576
G01 X48.4228 Y24.4721
G01 X48.4270 Y24.4870
G01 X48.4297 Y24.5023
G01 X48.4306 Y24.5116
G01 X48.4310 Y24.5225
G01 X48.4310 Y25.7896
G01 X48.4303 Y25.8051
G01 X48.4272 Y25.8369
G01 X48.4427 Y25.9947
G01 X48.4887 Y26.1465
G01 X48.5144 Y26.1948
G01 X48.5207 Y26.2090
G01 X48.5228 Y26.2149
G01 X48.5270 Y26.2299
G01 X48.5288 Y26.2390
G01 X48.5306 Y26.2545
G01 X48.5311 Y26.2654
G01 X48.5311 Y26.4970
G01 X48.5306 Y26.5078
G01 X48.5297 Y26.5171
G01 X48.5270 Y26.5324
G01 X48.5228 Y26.5474
G01 X48.5171 Y26.5619
G01 X48.5100 Y26.5757
G01 X48.5068 Y26.5811
G01 X48.4979 Y26.5939
G01 X48.4878 Y26.6057
G01 X48.4812 Y26.6123
G01 X48.4694 Y26.6224
G01 X48.4567 Y26.6313
G01 X48.4431 Y26.6389
G01 X48.4375 Y26.6415
G01 X48.4230 Y26.6472
G01 X48.4080 Y26.6514
G01 X48.3927 Y26.6542
G01 X48.3772 Y26.6554
G01 X48.3616 Y26.6551
G01 X48.3462 Y26.6532
G01 X48.3310 Y26.6499
G01 X48.3162 Y26.6451
G01 X48.3076 Y26.6415
G01 X48.2937 Y26.6345
G01 X48.2806 Y26.6261
G01 X48.2719 Y26.6195
G01 X48.1854 Y26.5485
G01 X48.0455 Y26.4737
G01 X47.8938 Y26.4277
G01 X47.7360 Y26.4121
G01 X47.7042 Y26.4153
G01 X47.6887 Y26.4160
G01 X47.3385 Y26.4160
G01 X47.3276 Y26.4156
G01 X47.3122 Y26.4138
G01 X47.2970 Y26.4104
G01 X47.2822 Y26.4056
G01 X47.2680 Y26.3994
G01 X47.2544 Y26.3918
G01 X47.2466 Y26.3866
G01 X47.2344 Y26.3770
G01 X47.2232 Y26.3662
G01 X47.2160 Y26.3581
G01 X47.1632 Y26.2938
G01 X46.9645 Y26.1307
G01 X46.8858 Y26.0885
G01 X46.8727 Y26.0801
G01 X46.8605 Y26.0705
G01 X46.8493 Y26.0597
G01 X46.8392 Y26.0479
G01 X46.8303 Y26.0351
G01 X46.8227 Y26.0216
G01 X46.8200 Y26.0159
G01 X46.8144 Y26.0014
G01 X46.8101 Y25.9865
G01 X46.8083 Y25.9773
G01 X46.8065 Y25.9619
G01 X46.8062 Y25.9557
G01 X46.8062 Y25.9463
G01 X46.8074 Y25.9308
G01 X46.8101 Y25.9155
G01 X46.8117 Y25.9095
G01 X46.8144 Y25.9006
G01 X46.8200 Y25.8861
G01 X46.8271 Y25.8722
G01 X46.8303 Y25.8669
G01 X46.8355 Y25.8591
G01 X46.8451 Y25.8469
G01 X46.8493 Y25.8423
G01 X46.8605 Y25.8315
G01 X46.8727 Y25.8219
G01 X46.8805 Y25.8167
G01 X46.8899 Y25.8112
G01 X46.9645 Y25.7713
G01 X47.1632 Y25.6082
G01 X47.3263 Y25.4095
G01 X47.4475 Y25.1828
G01 X47.5221 Y24.9368
G01 X47.5473 Y24.6810
G01 X47.5221 Y24.4252
G01 X47.4475 Y24.1792
G01 X47.3263 Y23.9525
G01 X47.1632 Y23.7538
G01 X46.9645 Y23.5907
G01 X46.8899 Y23.5508
G01 X46.8805 Y23.5453
G01 X46.8727 Y23.5401
G01 X46.8605 Y23.5305
G01 X46.8493 Y23.5197
G01 X46.8451 Y23.5151
G01 X46.8355 Y23.5029
G01 X46.8303 Y23.4951
G01 X46.8227 Y23.4816
G01 X46.8200 Y23.4759
G01 X46.8144 Y23.4614
G01 X46.8117 Y23.4525
G01 X46.8101 Y23.4465
G01 X46.8074 Y23.4312
G01 X46.8062 Y23.4157
G01 X46.8062 Y23.4063
G01 X46.8065 Y23.4001
G01 X46.8083 Y23.3847
G01 X46.8101 Y23.3755
G01 X46.8144 Y23.3606
G01 X46.8200 Y23.3461
G01 X46.8227 Y23.3404
G00 Z2.0000
G00 X51.2597 Y24.6562
G01 F50.00
G01 Z-0.2000
G01 F100.00
G01 X51.2640 Y24.6479
G01 X51.2724 Y24.6348
G01 X51.2820 Y24.6226
G01 X51.2894 Y24.6146
G01 X52.6860 Y23.2181
G01 X52.6940 Y23.2107
G01 X52.7012 Y23.2047
G01 X52.7139 Y23.1958
G01 X52.7275 Y23.1882
G01 X52.7331 Y23.1856
G01 X52.7476 Y23.1799
G01 X52.7565 Y23.1772
G01 X52.7717 Y23.1739
G01 X52.7872 Y23.1720
G01 X52.7934 Y23.1717
G01 X52.8090 Y23.1720
G01 X52.8244 Y23.1739
G01 X52.8335 Y23.1757
G01 X52.8485 Y23.1799
G01 X52.8630 Y23.1856
G01 X52.8769 Y23.1926
G01 X52.8822 Y23.1958
G01 X52.8900 Y23.2010
G01 X52.8986 Y23.2076
G01 X52.9275 Y23.2313
G01 X53.0021 Y23.2712
G01 X53.0115 Y23.2767
G01 X53.0243 Y23.2856
G01 X53.0361 Y23.2957
G01 X53.0427 Y23.3023
G01 X53.0528 Y23.3141
G01 X53.0565 Y23.3191
G01 X53.0649 Y23.3322
G01 X53.0693 Y23.3404
G01 X53.0755 Y23.3547
G01 X53.0803 Y23.3695
G01 X53.0819 Y23.3755
G01 X53.0846 Y23.3908
G01 X53.0858 Y23.4063
G01 X53.0858 Y23.4157
G01 X53.0846 Y23.4312
G01 X53.0819 Y23.4465
G01 X53.0803 Y23.4525
G01 X53.0755 Y23.4673
G01 X53.0693 Y23.4816
G01 X53.0649 Y23.4898
G01 X53.0565 Y23.5029
G01 X53.0469 Y23.5151
G01 X53.0361 Y23.5263
G01 X53.0315 Y23.5305
G01 X53.0193 Y23.5401
G01 X53.0115 Y23.5453
G01 X53.0021 Y23.5508
G01 X52.9275 Y23.5907
G01 X52.7288 Y23.7538
G01 X52.5657 Y23.9525
G01 X52.4445 Y24.1792
G01 X52.3699 Y24.4252
G01 X52.3481 Y24.6471
G01 X52.3466 Y24.6579
G01 X52.3448 Y24.6670
G01 X52.3432 Y24.6731
G01 X52.3384 Y24.6879
G01 X52.3349 Y24.6965
G01 X52.3278 Y24.7103
G01 X52.3194 Y24.7234
G01 X52.3157 Y24.7285
G01 X52.3056 Y24.7403
G01 X52.2982 Y24.7476
G01 X52.1964 Y24.8716
G01 X52.1217 Y25.0115
G01 X52.0757 Y25.1632
G01 X52.0702 Y25.2174
G01 X52.0675 Y25.2327
G01 X52.0660 Y25.2387
G01 X52.0633 Y25.2477
G01 X52.0576 Y25.2621
G01 X52.0505 Y25.2760
G01 X52.0473 Y25.2813
G01 X52.0384 Y25.2941
G01 X52.0325 Y25.3013
G01 X52.0251 Y25.3093
G01 X51.5102 Y25.8240
G01 X51.5056 Y25.8282
G01 X51.4934 Y25.8378
G01 X51.4803 Y25.8462
G01 X51.4721 Y25.8506
G01 X51.4578 Y25.8569
G01 X51.4430 Y25.8617
G01 X51.4370 Y25.8632
G01 X51.4217 Y25.8659
G01 X51.4062 Y25.8671
G01 X51.3906 Y25.8668
G01 X51.3752 Y25.8650
G01 X51.3600 Y25.8617
G01 X51.3452 Y25.8569
G01 X51.3309 Y25.8506
G01 X51.3174 Y25.8430
G01 X51.3046 Y25.8341
G01 X51.2928 Y25.8240
G01 X51.2820 Y25.8128
G01 X51.2724 Y25.8006
G01 X51.2640 Y25.7875
G01 X51.2569 Y25.7736
G01 X51.2513 Y25.7592
G01 X51.2470 Y25.7442
G01 X51.2443 Y25.7289
G01 X51.2434 Y25.7196
G01 X51.2430 Y25.7087
G01 X51.2430 Y24.7267
G01 X51.2434 Y24.7158
G01 X51.2443 Y24.7065
G01 X51.2470 Y24.6912
G01 X51.2513 Y24.6763
G01 X51.2534 Y24.6704
G01 X51.2561 Y24.6637
G01 X51.2597 Y24.6562
G00 Z2.0000
G00 X51.4054 Y26.2519
G01 F50.00
G01 Z-0.2000
G01 F100.00
G01 X51.4098 Y26.2437
G01 X51.4249 Y26.2184
G01 X51.4301 Y26.2106
G01 X51.4477 Y26.1870
G01 X51.4536 Y26.1798
G01 X51.4766 Y26.1546
G01 X52.2753 Y25.3558
G01 X52.2739 Y25.3257
G01 X52.2739 Y25.3163
G01 X52.2763 Y25.2673
G01 X52.2772 Y25.2580
G01 X52.2844 Y25.2095
G01 X52.2862 Y25.2003
G01 X52.2981 Y25.1527
G01 X52.3008 Y25.1438
G01 X52.3174 Y25.0975
G01 X52.3209 Y25.0889
G01 X52.3419 Y25.0446
G01 X52.3463 Y25.0363
G01 X52.3716 Y24.9942
G01 X52.3767 Y24.9865
G01 X52.4060 Y24.9470
G01 X52.4119 Y24.9398
G01 X52.4449 Y24.9035
G01 X52.4515 Y24.8969
G01 X52.4878 Y24.8639
G01 X52.4950 Y24.8580
G01 X52.5345 Y24.8287
G01 X52.5422 Y24.8236
G01 X52.5690 Y24.8075
G01 X52.5668 Y24.7930
G01 X52.5659 Y24.7837
G01 X52.5611 Y24.6857
G01 X52.5611 Y24.6763
G01 X52.5659 Y24.5783
G01 X52.5668 Y24.5690
G01 X52.5812 Y24.4720
G01 X52.5831 Y24.4628
G01 X52.6069 Y24.3676
G01 X52.6096 Y24.3587
G01 X52.6427 Y24.2663
G01 X52.6462 Y24.2577
G01 X52.6882 Y24.1690
G01 X52.6926 Y24.1608
G01 X52.7430 Y24.0766
G01 X52.7482 Y24.0688
G01 X52.8067 Y23.9900
G01 X52.8126 Y23.9828
G01 X52.8785 Y23.9101
G01 X52.8851 Y23.9035
G01 X52.9578 Y23.8376
G01 X52.9650 Y23.8317
G01 X53.0438 Y23.7732
G01 X53.0516 Y23.7680
G01 X53.1358 Y23.7176
G01 X53.1440 Y23.7132
G01 X53.2327 Y23.6712
G01 X53.2413 Y23.6677
G01 X53.3337 Y23.6346
G01 X53.3426 Y23.6319
G01 X53.4378 Y23.6081
G01 X53.4470 Y23.6062
G01 X53.5440 Y23.5918
G01 X53.5533 Y23.5909
G01 X53.6560 Y23.5860
G01 X53.8560 Y23.5860
G01 X53.9587 Y23.5909
G01 X53.9680 Y23.5918
G01 X54.0650 Y23.6062
G01 X54.0742 Y23.6081
G01 X54.1694 Y23.6319
G01 X54.1783 Y23.6346
G01 X54.2707 Y23.6677
G01 X54.2793 Y23.6712
G01 X54.3680 Y23.7132
G01 X54.3762 Y23.7176
G01 X54.4604 Y23.7680
G01 X54.4682 Y23.7732
G01 X54.5470 Y23.8317
G01 X54.5542 Y23.8376
G01 X54.6269 Y23.9035
G01 X54.6335 Y23.9101
G01 X54.6994 Y23.9828
G01 X54.7053 Y23.9900
G01 X54.7638 Y24.0688
G01 X54.7690 Y24.0766
G01 X54.8194 Y24.1608
G01 X54.8238 Y24.1690
G01 X54.8658 Y24.2577
G01 X54.8693 Y24.2663
G01 X54.9024 Y24.3587
G01 X54.9051 Y24.3676
G01 X54.9289 Y24.4628
G01 X54.9308 Y24.4720
G01 X54.9452 Y24.5690
G01 X54.9461 Y24.5783
G01 X54.9509 Y24.6763
G01 X54.9509 Y24.6857
G01 X54.9461 Y24.7837
G01 X54.9452 Y24.7930
G01 X54.9308 Y24.8900
G01 X54.9289 Y24.8992
G01 X54.9051 Y24.9944
G01 X54.9024 Y25.0033
G01 X54.8693 Y25.0957
G01 X54.8658 Y25.1043
G01 X54.8238 Y25.1930
G01 X54.8194 Y25.2012
G01 X54.7690 Y25.2854
G01 X54.7638 Y25.2932
G01 X54.7053 Y25.3720
G01 X54.6994 Y25.3792
G01 X54.6335 Y25.4519
G01 X54.6269 Y25.4585
G01 X54.5542 Y25.5244
G01 X54.5470 Y25.5303
G01 X54.4682 Y25.5888
G01 X54.4604 Y25.5940
G01 X54.3762 Y25.6444
G01 X54.3680 Y25.6488
G01 X54.2793 Y25.6908
G01 X54.2707 Y25.6943
G01 X54.1783 Y25.7274
G01 X54.1694 Y25.7301
G01 X54.0742 Y25.7539
G01 X54.0650 Y25.7558
G01 X53.9680 Y25.7702
G01 X53.9587 Y25.7711
G01 X53.8560 Y25.7760
G01 X53.6560 Y25.7760
G01 X53.5533 Y25.7711
G01 X53.5440 Y25.7702
G01 X53.5113 Y25.7653
G01 X53.4972 Y25.7781
G01 X53.4900 Y25.7840
G01 X53.4505 Y25.8132
G01 X53.4428 Y25.8184
G01 X53.4007 Y25.8437
G01 X53.3924 Y25.8481
G01 X53.3481 Y25.8690
G01 X53.3395 Y25.8726
G01 X53.2932 Y25.8891
G01 X53.2843 Y25.8919
G01 X53.2367 Y25.9038
G01 X53.2275 Y25.9056
G01 X53.1790 Y25.9128
G01 X53.1697 Y25.9137
G01 X53.1207 Y25.9161
G01 X52.8690 Y25.9162
G01 X52.8342 Y25.9146
G01 X52.1511 Y26.5977
G01 X52.1511 Y35.2972
G01 X52.1761 Y35.3013
G01 X52.1852 Y35.3032
G01 X52.2327 Y35.3159
G01 X52.2416 Y35.3187
G01 X52.2875 Y35.3359
G01 X52.2961 Y35.3396
G01 X52.3402 Y35.3613
G01 X52.3483 Y35.3658
G01 X52.3901 Y35.3916
G01 X52.3977 Y35.3969
G01 X52.4367 Y35.4268
G01 X52.4438 Y35.4328
G01 X52.4797 Y35.4663
G01 X54.0077 Y37.0397
G01 X70.7512 Y37.0397
G01 X80.2289 Y27.5621
G01 X80.2686 Y27.5259
G01 X80.2758 Y27.5200
G01 X80.3152 Y27.4908
G01 X80.3230 Y27.4856
G01 X80.3651 Y27.4603
G01 X80.3733 Y27.4559
G01 X80.4177 Y27.4350
G01 X80.4263 Y27.4314
G01 X80.4725 Y27.4148
G01 X80.4815 Y27.4121
G01 X80.5291 Y27.4002
G01 X80.5382 Y27.3984
G01 X80.5868 Y27.3912
G01 X80.5961 Y27.3903
G01 X80.6498 Y27.3877
G01 X87.6356 Y27.3877
G01 X87.6462 Y27.3708
G01 X87.7047 Y27.2920
G01 X87.7106 Y27.2848
G01 X87.7765 Y27.2121
G01 X87.7831 Y27.2055
G01 X87.8558 Y27.1396
G01 X87.8630 Y27.1337
G01 X87.9418 Y27.0752
G01 X87.9496 Y27.0700
G01 X88.0338 Y27.0196
G01 X88.0420 Y27.0152
G01 X88.1307 Y26.9732
G01 X88.1393 Y26.9697
G01 X88.2317 Y26.9366
G01 X88.2406 Y26.9339
G01 X88.3358 Y26.9101
G01 X88.3450 Y26.9082
G01 X88.4420 Y26.8938
G01 X88.4513 Y26.8929
G01 X88.5493 Y26.8881
G01 X88.5587 Y26.8881
G01 X88.6567 Y26.8929
G01 X88.6660 Y26.8938
G01 X88.7630 Y26.9082
G01 X88.7722 Y26.9101
G01 X88.8674 Y26.9339
G01 X88.8763 Y26.9366
G01 X88.9687 Y26.9697
G01 X88.9773 Y26.9732
G01 X89.0660 Y27.0152
G01 X89.0742 Y27.0196
G01 X89.1584 Y27.0700
G01 X89.1662 Y27.0752
G01 X89.2450 Y27.1337
G01 X89.2522 Y27.1396
G01 X89.3249 Y27.2055
G01 X89.3315 Y27.2121
G01 X89.3974 Y27.2848
G01 X89.4033 Y27.2920
G01 X89.4618 Y27.3708
G01 X89.4670 Y27.3786
G01 X89.5174 Y27.4628
G01 X89.5218 Y27.4710
G01 X89.5638 Y27.5597
G01 X89.5673 Y27.5683
G01 X89.6004 Y27.6607
G01 X89.6031 Y27.6696
G01 X89.6269 Y27.7648
G01 X89.6288 Y27.7740
G01 X89.6432 Y27.8710
G01 X89.6441 Y27.8803
G01 X89.6489 Y27.9783
G01 X89.6489 Y27.9877
G01 X89.6441 Y28.0857
G01 X89.6432 Y28.0950
G01 X89.6288 Y28.1920
G01 X89.6269 Y28.2012
G01 X89.6031 Y28.2964
G01 X89.6004 Y28.3053
G01 X89.5673 Y28.3977
G01 X89.5638 Y28.4063
G01 X89.5218 Y28.4950
G01 X89.5174 Y28.5032
G01 X89.4670 Y28.5874
G01 X89.4618 Y28.5952
G01 X89.4033 Y28.6740
G01 X89.3974 Y28.6812
G01 X89.3315 Y28.7539
G01 X89.3249 Y28.7605
G01 X89.2522 Y28.8264
G01 X89.2450 Y28.8323
G01 X89.1662 Y28.8908
G01 X89.1584 Y28.8960
G01 X89.0742 Y28.9464
G01 X89.0660 Y28.9508
G01 X88.9773 Y28.9928
G01 X88.9687 Y28.9963
G01 X88.8763 Y29.0294
G01 X88.8674 Y29.0321
G01 X88.7722 Y29.0559
G01 X88.7630 Y29.0578
G01 X88.6660 Y29.0722
G01 X88.6567 Y29.0731
G01 X88.5587 Y29.0779
G01 X88.5493 Y29.0779
G01 X88.4513 Y29.0731
G01 X88.4420 Y29.0722
G01 X88.3450 Y29.0578
G01 X88.3358 Y29.0559
G01 X88.2406 Y29.0321
G01 X88.2317 Y29.0294
G01 X88.1393 Y28.9963
G01 X88.1307 Y28.9928
G01 X88.0420 Y28.9508
G01 X88.0338 Y28.9464
G01 X87.9496 Y28.8960
G01 X87.9418 Y28.8908
G01 X87.8630 Y28.8323
G01 X87.8558 Y28.8264
G01 X87.7831 Y28.7605
G01 X87.7765 Y28.7539
G01 X87.7106 Y28.6812
G01 X87.7047 Y28.6740
G01 X87.6462 Y28.5952
G01 X87.6356 Y28.5783
G01 X80.8963 Y28.5783
G01 X71.4187 Y38.0559
G01 X71.3789 Y38.0921
G01 X71.3717 Y38.0980
G01 X71.3323 Y38.1272
G01 X71.3245 Y38.1324
G01 X71.2824 Y38.1577
G01 X71.2742 Y38.1621
G01 X71.2298 Y38.1830
G01 X71.2212 Y38.1866
G01 X71.1750 Y38.2032
G01 X71.1661 Y38.2059
G01 X71.1184 Y38.2178
G01 X71.1093 Y38.2196
G01 X71.0607 Y38.2268
G01 X71.0515 Y38.2277
G01 X70.9978 Y38.2303
G01 X53.7426 Y38.2300
G01 X53.7023 Y38.2277
G01 X53.6930 Y38.2268
G01 X53.6843 Y38.2258
G01 X53.6445 Y38.2196
G01 X53.6359 Y38.2179
G01 X53.6268 Y38.2160
G01 X53.5877 Y38.2059
G01 X53.5793 Y38.2033
G01 X53.5704 Y38.2005
G01 X53.5326 Y38.1866
G01 X53.5159 Y38.1796
G01 X53.4796 Y38.1621
G01 X53.4637 Y38.1534
G01 X53.4292 Y38.1324
G01 X53.4143 Y38.1223
G01 X53.3821 Y38.0980
G01 X53.3682 Y38.0864
G01 X53.3385 Y38.0591
G01 X53.3289 Y38.0497
G01 X51.6289 Y36.2989
G01 X51.5934 Y36.2586
G01 X51.5875 Y36.2513
G01 X51.5589 Y36.2114
G01 X51.5538 Y36.2036
G01 X51.5292 Y36.1611
G01 X51.5249 Y36.1528
G01 X51.5046 Y36.1082
G01 X51.5012 Y36.0995
G01 X51.4853 Y36.0530
G01 X51.4827 Y36.0441
G01 X51.4715 Y35.9963
G01 X51.4698 Y35.9871
G01 X51.4633 Y35.9385
G01 X51.4625 Y35.9292
G01 X51.4615 Y35.8979
G01 X51.4536 Y35.8892
G01 X51.4477 Y35.8820
G01 X51.4301 Y35.8583
G01 X51.4249 Y35.8506
G01 X51.4098 Y35.8253
G01 X51.4054 Y35.8171
G01 X51.3928 Y35.7905
G01 X51.3892 Y35.7819
G01 X51.3793 Y35.7541
G01 X51.3766 Y35.7452
G01 X51.3695 Y35.7166
G01 X51.3676 Y35.7075
G01 X51.3633 Y35.6783
G01 X51.3624 Y35.6691
G01 X51.3608 Y35.6350
G01 X51.3608 Y26.4340
G01 X51.3624 Y26.3999
G01 X51.3633 Y26.3906
G01 X51.3676 Y26.3615
G01 X51.3695 Y26.3524
G01 X51.3766 Y26.3238
G01 X51.3793 Y26.3149
G01 X51.3892 Y26.2871
G01 X51.3928 Y26.2785
G01 X51.4054 Y26.2519
G00 Z2.0000
G00 X52.6882 Y26.7090
G01 F50.00
G01 Z-0.2000
G01 F100.00
G01 X52.6926 Y26.7008
G01 X52.7430 Y26.6166
G01 X52.7482 Y26.6088
G01 X52.8067 Y26.5300
G01 X52.8126 Y26.5228
G01 X52.8785 Y26.4501
G01 X52.8851 Y26.4435
G01 X52.9578 Y26.3776
G01 X52.9650 Y26.3717
G01 X53.0438 Y26.3132
G01 X53.0516 Y26.3080
G01 X53.1358 Y26.2576
G01 X53.1440 Y26.2532
G01 X53.2327 Y26.2112
G01 X53.2413 Y26.2077
G01 X53.3337 Y26.1746
G01 X53.3426 Y26.1719
G01 X53.4378 Y26.1481
G01 X53.4470 Y26.1462
G01 X53.5440 Y26.1318
G01 X53.5533 Y26.1309
G01 X53.6560 Y26.1260
G01 X53.8560 Y26.1260
G01 X53.9587 Y26.1309
G01 X53.9680 Y26.1318
G01 X54.0650 Y26.1462
G01 X54.0742 Y26.1481
G01 X54.1694 Y26.1719
G01 X54.1783 Y26.1746
G01 X54.2707 Y26.2077
G01 X54.2793 Y26.2112
G01 X54.3680 Y26.2532
G01 X54.3762 Y26.2576
G01 X54.4604 Y26.3080
G01 X54.4682 Y26.3132
G01 X54.5470 Y26.3717
G01 X54.5542 Y26.3776
G01 X54.6269 Y26.4435
G01 X54.6335 Y26.4501
G01 X54.6994 Y26.5228
G01 X54.7053 Y26.5300
G01 X54.7638 Y26.6088
G01 X54.7744 Y26.6257
G01 X58.8360 Y26.6257
G01 X58.8897 Y26.6283
G01 X58.8990 Y26.6292
G01 X58.9475 Y26.6364
G01 X58.9567 Y26.6382
G01 X59.0043 Y26.6501
G01 X59.0132 Y26.6528
G01 X59.0594 Y26.6694
G01 X59.0681 Y26.6730
G01 X59.1124 Y26.6939
G01 X59.1207 Y26.6983
G01 X59.1628 Y26.7236
G01 X59.1705 Y26.7288
G01 X59.2099 Y26.7580
G01 X59.2172 Y26.7639
G01 X59.2569 Y26.8001
G01 X59.8775 Y27.4207
G01 X59.8970 Y27.4162
G01 X59.9940 Y27.4018
G01 X60.0033 Y27.4009
G01 X60.1013 Y27.3961
G01 X60.1107 Y27.3961
G01 X60.2087 Y27.4009
G01 X60.2180 Y27.4018
G01 X60.3150 Y27.4162
G01 X60.3242 Y27.4181
G01 X60.4194 Y27.4419
G01 X60.4283 Y27.4446
G01 X60.5207 Y27.4777
G01 X60.5293 Y27.4812
G01 X60.6180 Y27.5232
G01 X60.6262 Y27.5276
G01 X60.7104 Y27.5780
G01 X60.7182 Y27.5832
G01 X60.7970 Y27.6417
G01 X60.8042 Y27.6476
G01 X60.8769 Y27.7135
G01 X60.8835 Y27.7201
G01 X60.9494 Y27.7928
G01 X60.9553 Y27.8000
G01 X61.0138 Y27.8788
G01 X61.0244 Y27.8957
G01 X64.0084 Y27.8957
G01 X67.1308 Y24.7734
G01 X67.1308 Y24.5060
G01 X66.7260 Y24.5060
G01 X66.7167 Y24.5055
G01 X66.7075 Y24.5042
G01 X66.6984 Y24.5019
G01 X66.6896 Y24.4988
G01 X66.6812 Y24.4948
G01 X66.6732 Y24.4900
G01 X66.6657 Y24.4844
G01 X66.6588 Y24.4782
G01 X66.6526 Y24.4713
G01 X66.6470 Y24.4638
G01 X66.6422 Y24.4558
G01 X66.6382 Y24.4474
G01 X66.6351 Y24.4386
G01 X66.6328 Y24.4295
G01 X66.6315 Y24.4203
G01 X66.6310 Y24.4110
G01 X66.6310 Y22.4110
G01 X66.6315 Y22.4017
G01 X66.6328 Y22.3925
G01 X66.6351 Y22.3834
G01 X66.6382 Y22.3746
G01 X66.6422 Y22.3662
G01 X66.6470 Y22.3582
G01 X66.6526 Y22.3507
G01 X66.6588 Y22.3438
G01 X66.6657 Y22.3376
G01 X66.6732 Y22.3320
G01 X66.6812 Y22.3272
G01 X66.6896 Y22.3232
G01 X66.6984 Y22.3201
G01 X66.7075 Y22.3178
G01 X66.7167 Y22.3165
G01 X66.7260 Y22.3160
G01 X68.7260 Y22.3160
G01 X68.7353 Y22.3165
G01 X68.7445 Y22.3178
G01 X68.7536 Y22.3201
G01 X68.7624 Y22.3232
G01 X68.7708 Y22.3272
G01 X68.7788 Y22.3320
G01 X68.7863 Y22.3376
G01 X68.7932 Y22.3438
G01 X68.7994 Y22.3507
G01 X68.8050 Y22.3582
G01 X68.8098 Y22.3662
G01 X68.8138 Y22.3746
G01 X68.8169 Y22.3834
G01 X68.8192 Y22.3925
G01 X68.8205 Y22.4017
G01 X68.8210 Y22.4110
G01 X68.8210 Y24.4110
G01 X68.8205 Y24.4203
G01 X68.8192 Y24.4295
G01 X68.8169 Y24.4386
G01 X68.8138 Y24.4474
G01 X68.8098 Y24.4558
G01 X68.8050 Y24.4638
G01 X68.7994 Y24.4713
G01 X68.7932 Y24.4782
G01 X68.7863 Y24.4844
G01 X68.7788 Y24.4900
G01 X68.7708 Y24.4948
G01 X68.7624 Y24.4988
G01 X68.7536 Y24.5019
G01 X68.7445 Y24.5042
G01 X68.7353 Y24.5055
G01 X68.7260 Y24.5060
G01 X68.3213 Y24.5060
G01 X68.3213 Y25.0200
G01 X68.3187 Y25.0737
G01 X68.3178 Y25.0830
G01 X68.3106 Y25.1315
G01 X68.3088 Y25.1407
G01 X68.2969 Y25.1883
G01 X68.2942 Y25.1972
G01 X68.2776 Y25.2434
G01 X68.2741 Y25.2521
G01 X68.2531 Y25.2964
G01 X68.2487 Y25.3047
G01 X68.2234 Y25.3468
G01 X68.2182 Y25.3545
G01 X68.1890 Y25.3939
G01 X68.1831 Y25.4012
G01 X68.1469 Y25.4409
G01 X64.6759 Y28.9119
G01 X64.6362 Y28.9481
G01 X64.6289 Y28.9540
G01 X64.5895 Y28.9832
G01 X64.5818 Y28.9884
G01 X64.5397 Y29.0137
G01 X64.5314 Y29.0181
G01 X64.4871 Y29.0390
G01 X64.4784 Y29.0426
G01 X64.4322 Y29.0592
G01 X64.4233 Y29.0619
G01 X64.3757 Y29.0738
G01 X64.3665 Y29.0756
G01 X64.3180 Y29.0828
G01 X64.3087 Y29.0837
G01 X64.2550 Y29.0863
G01 X61.0244 Y29.0863
G01 X61.0138 Y29.1032
G01 X60.9553 Y29.1820
G01 X60.9494 Y29.1892
G01 X60.8835 Y29.2619
G01 X60.8769 Y29.2685
G01 X60.8042 Y29.3344
G01 X60.7970 Y29.3403
G01 X60.7182 Y29.3988
G01 X60.7104 Y29.4040
G01 X60.6262 Y29.4544
G01 X60.6180 Y29.4588
G01 X60.5293 Y29.5008
G01 X60.5207 Y29.5043
G01 X60.4283 Y29.5374
G01 X60.4194 Y29.5401
G01 X60.3242 Y29.5639
G01 X60.3150 Y29.5658
G01 X60.2180 Y29.5802
G01 X60.2087 Y29.5811
G01 X60.1107 Y29.5859
G01 X60.1013 Y29.5859
G01 X60.0033 Y29.5811
G01 X59.9940 Y29.5802
G01 X59.8970 Y29.5658
G01 X59.8878 Y29.5639
G01 X59.7926 Y29.5401
G01 X59.7837 Y29.5374
G01 X59.6913 Y29.5043
G01 X59.6827 Y29.5008
G01 X59.5940 Y29.4588
G01 X59.5858 Y29.4544
G01 X59.5016 Y29.4040
G01 X59.4938 Y29.3988
G01 X59.4150 Y29.3403
G01 X59.4078 Y29.3344
G01 X59.3351 Y29.2685
G01 X59.3285 Y29.2619
G01 X59.2626 Y29.1892
G01 X59.2567 Y29.1820
G01 X59.1982 Y29.1032
G01 X59.1930 Y29.0954
G01 X59.1426 Y29.0112
G01 X59.1382 Y29.0030
G01 X59.0962 Y28.9143
G01 X59.0927 Y28.9057
G01 X59.0596 Y28.8133
G01 X59.0569 Y28.8044
G01 X59.0331 Y28.7092
G01 X59.0312 Y28.7000
G01 X59.0168 Y28.6030
G01 X59.0159 Y28.5937
G01 X59.0111 Y28.4957
G01 X59.0111 Y28.4863
G01 X59.0159 Y28.3883
G01 X59.0168 Y28.3790
G01 X59.0312 Y28.2820
G01 X59.0357 Y28.2625
G01 X58.5894 Y27.8163
G01 X54.7744 Y27.8163
G01 X54.7638 Y27.8332
G01 X54.7053 Y27.9120
G01 X54.6994 Y27.9192
G01 X54.6335 Y27.9919
G01 X54.6269 Y27.9985
G01 X54.5542 Y28.0644
G01 X54.5470 Y28.0703
G01 X54.4682 Y28.1288
G01 X54.4604 Y28.1340
G01 X54.3762 Y28.1844
G01 X54.3680 Y28.1888
G01 X54.2793 Y28.2308
G01 X54.2707 Y28.2343
G01 X54.1783 Y28.2674
G01 X54.1694 Y28.2701
G01 X54.0742 Y28.2939
G01 X54.0650 Y28.2958
G01 X53.9680 Y28.3102
G01 X53.9587 Y28.3111
G01 X53.8607 Y28.3159
G01 X53.6560 Y28.3160
G01 X53.5533 Y28.3111
G01 X53.5440 Y28.3102
G01 X53.4470 Y28.2958
G01 X53.4378 Y28.2939
G01 X53.3426 Y28.2701
G01 X53.3337 Y28.2674
G01 X53.2413 Y28.2343
G01 X53.2327 Y28.2308
G01 X53.1440 Y28.1888
G01 X53.1358 Y28.1844
G01 X53.0516 Y28.1340
G01 X53.0438 Y28.1288
G01 X52.9650 Y28.0703
G01 X52.9578 Y28.0644
G01 X52.8851 Y27.9985
G01 X52.8785 Y27.9919
G01 X52.8126 Y27.9192
G01 X52.8067 Y27.9120
G01 X52.7482 Y27.8332
G01 X52.7430 Y27.8254
G01 X52.6926 Y27.7412
G01 X52.6882 Y27.7330
G01 X52.6462 Y27.6443
G01 X52.6427 Y27.6357
G01 X52.6096 Y27.5433
G01 X52.6069 Y27.5344
G01 X52.5831 Y27.4392
G01 X52.5812 Y27.4300
G01 X52.5668 Y27.3330
G01 X52.5659 Y27.3237
G01 X52.5611 Y27.2257
G01 X52.5611 Y27.2163
G01 X52.5659 Y27.1183
G01 X52.5668 Y27.1090
G01 X52.5812 Y27.0120
G01 X52.5831 Y27.0028
G01 X52.6069 Y26.9076
G01 X52.6096 Y26.8987
G01 X52.6427 Y26.8063
G01 X52.6462 Y26.7977
G01 X52.6882 Y26.7090
G00 Z2.0000
G00 X52.3777 Y28.0726
G01 F50.00
G01 Z-0.2000
G01 F100.00
G01 X52.3795 Y28.0687
G01 X52.3872 Y28.0558
G01 X52.3974 Y28.0420
G01 X52.4060 Y28.0325
G01 X52.4108 Y28.0278
G01 X52.4226 Y28.0177
G01 X52.4313 Y28.0114
G01 X52.4407 Y28.0056
G01 X52.4546 Y27.9985
G01 X52.4632 Y27.9949
G01 X52.4737 Y27.9913
G01 X52.4890 Y27.9875
G01 X52.5041 Y27.9853
G01 X52.5148 Y27.9847
G01 X52.5242 Y27.9847
G01 X52.5346 Y27.9853
G01 X52.5458 Y27.9868
G01 X52.5610 Y27.9901
G01 X52.5699 Y27.9928
G01 X52.5791 Y27.9962
G01 X52.5938 Y28.0031
G01 X52.6068 Y28.0108
G01 X52.6206 Y28.0210
G01 X52.6301 Y28.0295
G01 X52.6420 Y28.0425
G01 X52.7288 Y28.1482
G01 X52.7727 Y28.1844
G01 X52.7839 Y28.1952
G01 X52.7881 Y28.1998
G01 X52.7940 Y28.2070
G01 X52.8029 Y28.2197
G01 X52.8105 Y28.2333
G01 X52.8131 Y28.2389
G01 X52.8188 Y28.2534
G01 X52.8230 Y28.2684
G01 X52.8248 Y28.2775
G01 X52.8267 Y28.2930
G01 X52.8270 Y28.2992
G01 X52.8270 Y28.3085
G01 X52.8258 Y28.3240
G01 X52.8230 Y28.3394
G01 X52.8215 Y28.3454
G01 X52.8167 Y28.3602
G01 X52.8131 Y28.3688
G01 X52.8061 Y28.3827
G01 X52.7977 Y28.3958
G01 X52.7940 Y28.4008
G01 X52.7839 Y28.4126
G01 X52.7726 Y28.4234
G01 X52.7654 Y28.4293
G01 X52.7527 Y28.4382
G01 X52.7391 Y28.4458
G01 X52.7335 Y28.4485
G01 X52.7190 Y28.4541
G01 X52.7101 Y28.4568
G01 X52.7015 Y28.4588
G01 X52.6387 Y28.4779
G01 X52.5942 Y28.5017
G01 X52.5844 Y28.5064
G01 X52.5699 Y28.5121
G01 X52.5550 Y28.5163
G01 X52.5397 Y28.5191
G01 X52.5304 Y28.5200
G01 X52.5148 Y28.5203
G01 X52.4993 Y28.5191
G01 X52.4840 Y28.5163
G01 X52.4690 Y28.5121
G01 X52.4546 Y28.5064
G01 X52.4407 Y28.4994
G01 X52.4276 Y28.4910
G01 X52.4226 Y28.4873
G01 X52.4108 Y28.4772
G01 X52.4000 Y28.4660
G01 X52.3904 Y28.4537
G01 X52.3820 Y28.4406
G01 X52.3749 Y28.4268
G01 X52.3692 Y28.4123
G01 X52.3650 Y28.3973
G01 X52.3623 Y28.3820
G01 X52.3614 Y28.3727
G01 X52.3610 Y28.3619
G01 X52.3610 Y28.1430
G01 X52.3614 Y28.1322
G01 X52.3632 Y28.1168
G01 X52.3665 Y28.1016
G01 X52.3692 Y28.0926
G01 X52.3726 Y28.0835
G01 X52.3777 Y28.0726
G00 Z2.0000
G00 X46.8227 Y28.4204
G01 F50.00
G01 Z-0.2000
G01 F100.00
G01 X46.8303 Y28.4069
G01 X46.8392 Y28.3941
G01 X46.8493 Y28.3823
G01 X46.8559 Y28.3757
G01 X46.8677 Y28.3656
G01 X46.8805 Y28.3567
G01 X46.8899 Y28.3512
G01 X46.9645 Y28.3113
G01 X47.0719 Y28.2231
G01 X47.0806 Y28.2165
G01 X47.0884 Y28.2114
G01 X47.1019 Y28.2038
G01 X47.1162 Y28.1975
G01 X47.1221 Y28.1954
G01 X47.1370 Y28.1912
G01 X47.1523 Y28.1885
G01 X47.1678 Y28.1873
G01 X47.1772 Y28.1873
G01 X47.1927 Y28.1885
G01 X47.1988 Y28.1894
G01 X47.2080 Y28.1912
G01 X47.2230 Y28.1954
G01 X47.2374 Y28.2011
G01 X47.2513 Y28.2082
G01 X47.2566 Y28.2114
G01 X47.2694 Y28.2203
G01 X47.2766 Y28.2262
G01 X47.2878 Y28.2370
G01 X47.2979 Y28.2488
G01 X47.3068 Y28.2615
G01 X47.3144 Y28.2751
G01 X47.3171 Y28.2807
G01 X47.3228 Y28.2952
G01 X47.3270 Y28.3102
G01 X47.3297 Y28.3255
G01 X47.3306 Y28.3348
G01 X47.3310 Y28.3457
G01 X47.3310 Y28.6363
G01 X47.3306 Y28.6472
G01 X47.3288 Y28.6627
G01 X47.3270 Y28.6718
G01 X47.3228 Y28.6868
G01 X47.3171 Y28.7013
G01 X47.3100 Y28.7151
G01 X47.3068 Y28.7205
G01 X47.2979 Y28.7332
G01 X47.2878 Y28.7450
G01 X47.2766 Y28.7558
G01 X47.2644 Y28.7655
G01 X47.2513 Y28.7738
G01 X47.2374 Y28.7809
G01 X47.2230 Y28.7866
G01 X47.2080 Y28.7908
G01 X47.1927 Y28.7935
G01 X47.1772 Y28.7947
G01 X47.1616 Y28.7944
G01 X47.1462 Y28.7926
G01 X47.1310 Y28.7893
G01 X47.1162 Y28.7845
G01 X47.1019 Y28.7782
G01 X47.0884 Y28.7706
G01 X47.0806 Y28.7655
G01 X47.0719 Y28.7589
G01 X46.9645 Y28.6707
G01 X46.8899 Y28.6308
G01 X46.8805 Y28.6253
G01 X46.8677 Y28.6164
G01 X46.8559 Y28.6063
G01 X46.8493 Y28.5997
G01 X46.8392 Y28.5879
G01 X46.8355 Y28.5829
G01 X46.8271 Y28.5698
G01 X46.8227 Y28.5616
G01 X46.8165 Y28.5473
G01 X46.8117 Y28.5325
G01 X46.8101 Y28.5265
G01 X46.8083 Y28.5173
G01 X46.8065 Y28.5019
G01 X46.8062 Y28.4957
G01 X46.8065 Y28.4801
G01 X46.8083 Y28.4647
G01 X46.8101 Y28.4555
G01 X46.8117 Y28.4495
G01 X46.8165 Y28.4347
G01 X46.8227 Y28.4204
G00 Z2.0000
G00 X43.2410 Y31.7800
G01 F50.00
G01 Z-0.2000
G01 F100.00
G01 X43.2750 Y31.7460
G01 X43.3143 Y31.7691
G01 X43.3978 Y31.9253
G01 X43.4662 Y32.1439
G01 X43.4905 Y32.3709
G01 X43.4701 Y32.5982
G01 X43.4058 Y32.8173
G01 X43.3137 Y32.9933
G01 X43.2750 Y33.0160
G01 X43.2410 Y32.9820
G01 X43.2894 Y32.9012
G01 X43.2938 Y32.8930
G01 X43.3358 Y32.8043
G01 X43.3393 Y32.7957
G01 X43.3724 Y32.7033
G01 X43.3751 Y32.6944
G01 X43.3989 Y32.5992
G01 X43.4008 Y32.5900
G01 X43.4152 Y32.4930
G01 X43.4161 Y32.4837
G01 X43.4209 Y32.3857
G01 X43.4209 Y32.3763
G01 X43.4161 Y32.2783
G01 X43.4152 Y32.2690
G01 X43.4008 Y32.1720
G01 X43.3989 Y32.1628
G01 X43.3751 Y32.0676
G01 X43.3724 Y32.0587
G01 X43.3393 Y31.9663
G01 X43.3358 Y31.9577
G01 X43.2938 Y31.8690
G01 X43.2894 Y31.8608
G01 X43.2410 Y31.7800
G00 Z2.0000
G00 X41.7250 Y31.4660
G01 F50.00
G01 Z-0.2000
G01 F100.00
G01 X41.6910 Y31.4320
G01 X41.7141 Y31.3927
G01 X41.8703 Y31.3092
G01 X42.0889 Y31.2408
G01 X42.3159 Y31.2165
G01 X42.5432 Y31.2369
G01 X42.7623 Y31.3012
G01 X42.9383 Y31.3933
G01 X42.9610 Y31.4320
G01 X42.9270 Y31.4660
G01 X42.8462 Y31.4176
G01 X42.8380 Y31.4132
G01 X42.7493 Y31.3712
G01 X42.7407 Y31.3677
G01 X42.6483 Y31.3346
G01 X42.6394 Y31.3319
G01 X42.5442 Y31.3081
G01 X42.5350 Y31.3062
G01 X42.4380 Y31.2918
G01 X42.4287 Y31.2909
G01 X42.3307 Y31.2861
G01 X42.3213 Y31.2861
G01 X42.2233 Y31.2909
G01 X42.2140 Y31.2918
G01 X42.1170 Y31.3062
G01 X42.1078 Y31.3081
G01 X42.0126 Y31.3319
G01 X42.0037 Y31.3346
G01 X41.9113 Y31.3677
G01 X41.9027 Y31.3712
G01 X41.8140 Y31.4132
G01 X41.8058 Y31.4176
G01 X41.7250 Y31.4660
G00 Z2.0000
G00 X41.4076 Y31.7857
G01 F50.00
G01 Z-0.2000
G01 F100.00
G01 X41.3294 Y31.7857
G01 X41.3383 Y31.7687
G01 X41.3770 Y31.7460
G01 X41.4110 Y31.7800
G01 X41.4076 Y31.7857
G00 Z2.0000
G00 X41.4110 Y32.9820
G01 F50.00
G01 Z-0.2000
G01 F100.00
G01 X41.3770 Y33.0160
G01 X41.3377 Y32.9929
G01 X41.3288 Y32.9763
G01 X41.4076 Y32.9763
G01 X41.4110 Y32.9820
G00 Z2.0000
G00 X41.7250 Y33.2960
G01 F50.00
G01 Z-0.2000
G01 F100.00
G01 X41.8058 Y33.3444
G01 X41.8140 Y33.3488
G01 X41.9027 Y33.3908
G01 X41.9113 Y33.3943
G01 X42.0037 Y33.4274
G01 X42.0126 Y33.4301
G01 X42.1078 Y33.4539
G01 X42.1170 Y33.4558
G01 X42.2140 Y33.4702
G01 X42.2233 Y33.4711
G01 X42.3213 Y33.4759
G01 X42.3307 Y33.4759
G01 X42.4287 Y33.4711
G01 X42.4380 Y33.4702
G01 X42.5350 Y33.4558
G01 X42.5442 Y33.4539
G01 X42.6394 Y33.4301
G01 X42.6483 Y33.4274
G01 X42.7407 Y33.3943
G01 X42.7493 Y33.3908
G01 X42.8380 Y33.3488
G01 X42.8462 Y33.3444
G01 X42.9270 Y33.2960
G01 X42.9610 Y33.3300
G01 X42.9379 Y33.3693
G01 X42.7817 Y33.4528
G01 X42.5631 Y33.5212
G01 X42.3361 Y33.5455
G01 X42.1088 Y33.5251
G01 X41.8897 Y33.4608
G01 X41.7137 Y33.3687
G01 X41.6910 Y33.3300
G01 X41.7250 Y33.2960
G00 Z2.0000
G00 X38.3410 Y33.3490
G01 F50.00
G01 Z-0.2000
G01 F100.00
G01 X38.3410 Y33.3178
G01 X38.4053 Y33.2535
G01 X38.4051 Y33.3490
G01 X38.3410 Y33.3490
G00 Z2.0000
G00 X37.4680 Y32.4119
G01 F50.00
G01 Z-0.2000
G01 F100.00
G01 X37.5635 Y32.4117
G01 X37.4992 Y32.4760
G01 X37.4680 Y32.4760
G01 X37.4680 Y32.4119
G00 Z2.0000
G00 X36.0862 Y32.9757
G01 F50.00
G01 Z-0.2000
G01 F100.00
G01 X36.0855 Y32.5786
G01 X36.0893 Y32.5398
G01 X36.0984 Y32.5099
G01 X36.1132 Y32.4823
G01 X36.1330 Y32.4580
G01 X36.1573 Y32.4382
G01 X36.1849 Y32.4234
G01 X36.2148 Y32.4143
G01 X36.2536 Y32.4105
G01 X37.0240 Y32.4119
G01 X37.0240 Y32.4760
G01 X36.2460 Y32.4760
G01 X36.2367 Y32.4765
G01 X36.2275 Y32.4778
G01 X36.2184 Y32.4801
G01 X36.2096 Y32.4832
G01 X36.2012 Y32.4872
G01 X36.1932 Y32.4920
G01 X36.1857 Y32.4976
G01 X36.1788 Y32.5038
G01 X36.1726 Y32.5107
G01 X36.1670 Y32.5182
G01 X36.1622 Y32.5262
G01 X36.1582 Y32.5346
G01 X36.1551 Y32.5434
G01 X36.1528 Y32.5525
G01 X36.1515 Y32.5617
G01 X36.1510 Y32.5710
G01 X36.1510 Y32.9757
G01 X36.0862 Y32.9757
G00 Z2.0000
G00 X38.8182 Y25.8200
G01 F50.00
G01 Z-0.2000
G01 F100.00
G01 X38.8226 Y25.8118
G01 X38.8730 Y25.7276
G01 X38.8782 Y25.7198
G01 X38.9367 Y25.6410
G01 X38.9426 Y25.6338
G01 X39.0085 Y25.5611
G01 X39.0151 Y25.5545
G01 X39.0878 Y25.4886
G01 X39.0950 Y25.4827
G01 X39.1738 Y25.4242
G01 X39.1816 Y25.4190
G01 X39.2658 Y25.3686
G01 X39.2740 Y25.3642
G01 X39.3627 Y25.3222
G01 X39.3713 Y25.3187
G01 X39.4637 Y25.2856
G01 X39.4726 Y25.2829
G01 X39.5678 Y25.2591
G01 X39.5770 Y25.2572
G01 X39.6740 Y25.2428
G01 X39.6833 Y25.2419
G01 X39.7813 Y25.2371
G01 X39.7907 Y25.2371
G01 X39.8887 Y25.2419
G01 X39.8980 Y25.2428
G01 X39.9950 Y25.2572
G01 X40.0042 Y25.2591
G01 X40.0994 Y25.2829
G01 X40.1083 Y25.2856
G01 X40.2007 Y25.3187
G01 X40.2093 Y25.3222
G01 X40.2980 Y25.3642
G01 X40.3062 Y25.3686
G01 X40.3904 Y25.4190
G01 X40.3982 Y25.4242
G01 X40.4770 Y25.4827
G01 X40.4842 Y25.4886
G01 X40.5569 Y25.5545
G01 X40.5635 Y25.5611
G01 X40.6294 Y25.6338
G01 X40.6353 Y25.6410
G01 X40.6938 Y25.7198
G01 X40.6990 Y25.7276
G01 X40.7494 Y25.8118
G01 X40.7538 Y25.8200
G01 X40.7958 Y25.9087
G01 X40.7993 Y25.9173
G01 X40.8324 Y26.0097
G01 X40.8351 Y26.0186
G01 X40.8589 Y26.1138
G01 X40.8608 Y26.1230
G01 X40.8752 Y26.2200
G01 X40.8761 Y26.2293
G01 X40.8809 Y26.3273
G01 X40.8809 Y26.3367
G01 X40.8761 Y26.4347
G01 X40.8752 Y26.4440
G01 X40.8608 Y26.5410
G01 X40.8563 Y26.5605
G01 X40.9216 Y26.6257
G01 X45.1176 Y26.6257
G01 X45.1282 Y26.6088
G01 X45.1867 Y26.5300
G01 X45.1926 Y26.5228
G01 X45.2585 Y26.4501
G01 X45.2651 Y26.4435
G01 X45.3378 Y26.3776
G01 X45.3450 Y26.3717
G01 X45.4238 Y26.3132
G01 X45.4316 Y26.3080
G01 X45.5158 Y26.2576
G01 X45.5240 Y26.2532
G01 X45.6127 Y26.2112
G01 X45.6213 Y26.2077
G01 X45.7137 Y26.1746
G01 X45.7226 Y26.1719
G01 X45.8178 Y26.1481
G01 X45.8270 Y26.1462
G01 X45.9240 Y26.1318
G01 X45.9333 Y26.1309
G01 X46.0360 Y26.1260
G01 X46.2360 Y26.1260
G01 X46.3387 Y26.1309
G01 X46.3480 Y26.1318
G01 X46.4450 Y26.1462
G01 X46.4542 Y26.1481
G01 X46.5494 Y26.1719
G01 X46.5583 Y26.1746
G01 X46.6507 Y26.2077
G01 X46.6593 Y26.2112
G01 X46.7480 Y26.2532
G01 X46.7562 Y26.2576
G01 X46.8404 Y26.3080
G01 X46.8482 Y26.3132
G01 X46.9270 Y26.3717
G01 X46.9342 Y26.3776
G01 X47.0069 Y26.4435
G01 X47.0135 Y26.4501
G01 X47.0794 Y26.5228
G01 X47.0853 Y26.5300
G01 X47.1438 Y26.6088
G01 X47.1544 Y26.6257
G01 X47.7360 Y26.6257
G01 X47.7897 Y26.6283
G01 X47.7990 Y26.6292
G01 X47.8475 Y26.6364
G01 X47.8567 Y26.6382
G01 X47.9043 Y26.6501
G01 X47.9132 Y26.6528
G01 X47.9594 Y26.6694
G01 X47.9681 Y26.6730
G01 X48.0124 Y26.6939
G01 X48.0207 Y26.6983
G01 X48.0628 Y26.7236
G01 X48.0705 Y26.7288
G01 X48.1099 Y26.7580
G01 X48.1172 Y26.7639
G01 X48.1535 Y26.7969
G01 X48.5569 Y27.2001
G01 X48.5931 Y27.2399
G01 X48.5990 Y27.2471
G01 X48.6283 Y27.2865
G01 X48.6334 Y27.2942
G01 X48.6587 Y27.3364
G01 X48.6631 Y27.3446
G01 X48.6841 Y27.3890
G01 X48.6876 Y27.3976
G01 X48.7042 Y27.4438
G01 X48.7069 Y27.4527
G01 X48.7188 Y27.5003
G01 X48.7206 Y27.5095
G01 X48.7278 Y27.5580
G01 X48.7287 Y27.5673
G01 X48.7313 Y27.6210
G01 X48.7313 Y32.8410
G01 X48.7287 Y32.8947
G01 X48.7278 Y32.9040
G01 X48.7206 Y32.9525
G01 X48.7188 Y32.9617
G01 X48.7069 Y33.0093
G01 X48.7042 Y33.0182
G01 X48.6876 Y33.0644
G01 X48.6841 Y33.0730
G01 X48.6631 Y33.1174
G01 X48.6587 Y33.1256
G01 X48.6334 Y33.1678
G01 X48.6283 Y33.1755
G01 X48.5990 Y33.2149
G01 X48.5931 Y33.2221
G01 X48.5601 Y33.2585
G01 X47.5569 Y34.2619
G01 X47.5172 Y34.2981
G01 X47.5099 Y34.3040
G01 X47.4705 Y34.3332
G01 X47.4628 Y34.3384
G01 X47.4207 Y34.3637
G01 X47.4124 Y34.3681
G01 X47.3779 Y34.3844
G01 X47.3616 Y34.4189
G01 X47.3572 Y34.4272
G01 X47.3319 Y34.4693
G01 X47.3267 Y34.4770
G01 X47.2975 Y34.5164
G01 X47.2916 Y34.5237
G01 X47.2586 Y34.5600
G01 X47.2063 Y34.6125
G01 X47.2108 Y34.6320
G01 X47.2252 Y34.7290
G01 X47.2261 Y34.7383
G01 X47.2309 Y34.8363
G01 X47.2309 Y34.8457
G01 X47.2261 Y34.9437
G01 X47.2252 Y34.9530
G01 X47.2108 Y35.0500
G01 X47.2089 Y35.0592
G01 X47.1851 Y35.1544
G01 X47.1824 Y35.1633
G01 X47.1493 Y35.2557
G01 X47.1458 Y35.2643
G01 X47.1038 Y35.3530
G01 X47.0994 Y35.3612
G01 X47.0490 Y35.4454
G01 X47.0438 Y35.4532
G01 X46.9853 Y35.5320
G01 X46.9794 Y35.5392
G01 X46.9135 Y35.6119
G01 X46.9069 Y35.6185
G01 X46.8342 Y35.6844
G01 X46.8270 Y35.6903
G01 X46.7482 Y35.7488
G01 X46.7404 Y35.7540
G01 X46.6562 Y35.8044
G01 X46.6480 Y35.8088
G01 X46.5593 Y35.8508
G01 X46.5507 Y35.8543
G01 X46.4583 Y35.8874
G01 X46.4494 Y35.8901
G01 X46.3542 Y35.9139
G01 X46.3450 Y35.9158
G01 X46.2480 Y35.9302
G01 X46.2387 Y35.9311
G01 X46.1407 Y35.9359
G01 X46.1313 Y35.9359
G01 X46.0333 Y35.9311
G01 X46.0240 Y35.9302
G01 X45.9270 Y35.9158
G01 X45.9178 Y35.9139
G01 X45.8226 Y35.8901
G01 X45.8137 Y35.8874
G01 X45.7213 Y35.8543
G01 X45.7127 Y35.8508
G01 X45.6240 Y35.8088
G01 X45.6158 Y35.8044
G01 X45.5316 Y35.7540
G01 X45.5238 Y35.7488
G01 X45.4450 Y35.6903
G01 X45.4378 Y35.6844
G01 X45.3651 Y35.6185
G01 X45.3585 Y35.6119
G01 X45.2926 Y35.5392
G01 X45.2867 Y35.5320
G01 X45.2282 Y35.4532
G01 X45.2230 Y35.4454
G01 X45.1726 Y35.3612
G01 X45.1682 Y35.3530
G01 X45.1262 Y35.2643
G01 X45.1227 Y35.2557
G01 X45.0896 Y35.1633
G01 X45.0869 Y35.1544
G01 X45.0631 Y35.0592
G01 X45.0612 Y35.0500
G01 X45.0468 Y34.9530
G01 X45.0459 Y34.9437
G01 X45.0411 Y34.8457
G01 X45.0411 Y34.8363
G01 X45.0459 Y34.7383
G01 X45.0468 Y34.7290
G01 X45.0612 Y34.6320
G01 X45.0631 Y34.6228
G01 X45.0869 Y34.5276
G01 X45.0896 Y34.5187
G01 X45.1227 Y34.4263
G01 X45.1262 Y34.4177
G01 X45.1682 Y34.3290
G01 X45.1726 Y34.3208
G01 X45.2230 Y34.2366
G01 X45.2282 Y34.2288
G01 X45.2867 Y34.1500
G01 X45.2926 Y34.1428
G01 X45.3585 Y34.0701
G01 X45.3651 Y34.0635
G01 X45.4378 Y33.9976
G01 X45.4450 Y33.9917
G01 X45.5238 Y33.9332
G01 X45.5316 Y33.9280
G01 X45.6158 Y33.8776
G01 X45.6240 Y33.8732
G01 X45.7127 Y33.8312
G01 X45.7213 Y33.8277
G01 X45.8137 Y33.7946
G01 X45.8226 Y33.7919
G01 X45.9178 Y33.7681
G01 X45.9270 Y33.7662
G01 X46.0240 Y33.7518
G01 X46.0333 Y33.7509
G01 X46.1313 Y33.7461
G01 X46.1407 Y33.7461
G01 X46.2387 Y33.7509
G01 X46.2480 Y33.7518
G01 X46.3450 Y33.7662
G01 X46.3645 Y33.7707
G01 X46.4170 Y33.7184
G01 X46.4533 Y33.6854
G01 X46.4606 Y33.6795
G01 X46.5000 Y33.6503
G01 X46.5077 Y33.6451
G01 X46.5498 Y33.6198
G01 X46.5581 Y33.6154
G01 X46.5926 Y33.5991
G01 X46.6089 Y33.5646
G01 X46.6133 Y33.5563
G01 X46.6386 Y33.5142
G01 X46.6438 Y33.5065
G01 X46.6730 Y33.4671
G01 X46.6789 Y33.4598
G01 X46.7119 Y33.4235
G01 X47.5408 Y32.5944
G01 X47.5408 Y27.8676
G01 X47.4894 Y27.8163
G01 X47.1544 Y27.8163
G01 X47.1438 Y27.8332
G01 X47.0853 Y27.9120
G01 X47.0794 Y27.9192
G01 X47.0135 Y27.9919
G01 X47.0069 Y27.9985
G01 X46.9342 Y28.0644
G01 X46.9270 Y28.0703
G01 X46.8482 Y28.1288
G01 X46.8404 Y28.1340
G01 X46.7562 Y28.1844
G01 X46.7480 Y28.1888
G01 X46.6593 Y28.2308
G01 X46.6507 Y28.2343
G01 X46.5583 Y28.2674
G01 X46.5494 Y28.2701
G01 X46.4542 Y28.2939
G01 X46.4450 Y28.2958
G01 X46.3480 Y28.3102
G01 X46.3387 Y28.3111
G01 X46.2360 Y28.3160
G01 X46.0360 Y28.3160
G01 X45.9333 Y28.3111
G01 X45.9240 Y28.3102
G01 X45.8270 Y28.2958
G01 X45.8178 Y28.2939
G01 X45.7226 Y28.2701
G01 X45.7137 Y28.2674
G01 X45.6213 Y28.2343
G01 X45.6127 Y28.2308
G01 X45.5240 Y28.1888
G01 X45.5158 Y28.1844
G01 X45.4316 Y28.1340
G01 X45.4238 Y28.1288
G01 X45.3450 Y28.0703
G01 X45.3378 Y28.0644
G01 X45.2651 Y27.9985
G01 X45.2585 Y27.9919
G01 X45.1926 Y27.9192
G01 X45.1867 Y27.9120
G01 X45.1282 Y27.8332
G01 X45.1176 Y27.8163
G01 X40.6750 Y27.8163
G01 X40.6213 Y27.8137
G01 X40.6120 Y27.8128
G01 X40.5635 Y27.8056
G01 X40.5543 Y27.8038
G01 X40.5067 Y27.7919
G01 X40.4978 Y27.7892
G01 X40.4516 Y27.7726
G01 X40.4429 Y27.7690
G01 X40.3986 Y27.7481
G01 X40.3903 Y27.7437
G01 X40.3482 Y27.7184
G01 X40.3405 Y27.7132
G01 X40.3011 Y27.6840
G01 X40.2938 Y27.6781
G01 X40.2541 Y27.6419
G01 X40.0145 Y27.4023
G01 X39.9950 Y27.4068
G01 X39.8980 Y27.4212
G01 X39.8887 Y27.4221
G01 X39.7907 Y27.4269
G01 X39.7813 Y27.4269
G01 X39.6833 Y27.4221
G01 X39.6740 Y27.4212
G01 X39.5770 Y27.4068
G01 X39.5678 Y27.4049
G01 X39.4726 Y27.3811
G01 X39.4637 Y27.3784
G01 X39.3713 Y27.3453
G01 X39.3627 Y27.3418
G01 X39.2740 Y27.2998
G01 X39.2658 Y27.2954
G01 X39.1816 Y27.2450
G01 X39.1738 Y27.2398
G01 X39.0950 Y27.1813
G01 X39.0878 Y27.1754
G01 X39.0151 Y27.1095
G01 X39.0085 Y27.1029
G01 X38.9426 Y27.0302
G01 X38.9367 Y27.0230
G01 X38.8782 Y26.9442
G01 X38.8730 Y26.9364
G01 X38.8226 Y26.8522
G01 X38.8182 Y26.8440
G01 X38.7762 Y26.7553
G01 X38.7727 Y26.7467
G01 X38.7396 Y26.6543
G01 X38.7369 Y26.6454
G01 X38.7131 Y26.5502
G01 X38.7112 Y26.5410
G01 X38.6968 Y26.4440
G01 X38.6959 Y26.4347
G01 X38.6911 Y26.3367
G01 X38.6911 Y26.3273
G01 X38.6959 Y26.2293
G01 X38.6968 Y26.2200
G01 X38.7112 Y26.1230
G01 X38.7131 Y26.1138
G01 X38.7369 Y26.0186
G01 X38.7396 Y26.0097
G01 X38.7727 Y25.9173
G01 X38.7762 Y25.9087
G01 X38.8182 Y25.8200
G00 Z2.0000
G00 X28.6582 Y25.8200
G01 F50.00
G01 Z-0.2000
G01 F100.00
G01 X28.6626 Y25.8118
G01 X28.7130 Y25.7276
G01 X28.7182 Y25.7198
G01 X28.7767 Y25.6410
G01 X28.7826 Y25.6338
G01 X28.8485 Y25.5611
G01 X28.8551 Y25.5545
G01 X28.9278 Y25.4886
G01 X28.9350 Y25.4827
G01 X29.0138 Y25.4242
G01 X29.0216 Y25.4190
G01 X29.1058 Y25.3686
G01 X29.1140 Y25.3642
G01 X29.2027 Y25.3222
G01 X29.2113 Y25.3187
G01 X29.3037 Y25.2856
G01 X29.3126 Y25.2829
G01 X29.4078 Y25.2591
G01 X29.4170 Y25.2572
G01 X29.5140 Y25.2428
G01 X29.5233 Y25.2419
G01 X29.6213 Y25.2371
G01 X29.6307 Y25.2371
G01 X29.7287 Y25.2419
G01 X29.7380 Y25.2428
G01 X29.8350 Y25.2572
G01 X29.8442 Y25.2591
G01 X29.9394 Y25.2829
G01 X29.9483 Y25.2856
G01 X30.0407 Y25.3187
G01 X30.0493 Y25.3222
G01 X30.1380 Y25.3642
G01 X30.1462 Y25.3686
G01 X30.2304 Y25.4190
G01 X30.2382 Y25.4242
G01 X30.3170 Y25.4827
G01 X30.3242 Y25.4886
G01 X30.3969 Y25.5545
G01 X30.4035 Y25.5611
G01 X30.4694 Y25.6338
G01 X30.4753 Y25.6410
G01 X30.5338 Y25.7198
G01 X30.5390 Y25.7276
G01 X30.5894 Y25.8118
G01 X30.5938 Y25.8200
G01 X30.6358 Y25.9087
G01 X30.6393 Y25.9173
G01 X30.6724 Y26.0097
G01 X30.6751 Y26.0186
G01 X30.6989 Y26.1138
G01 X30.7008 Y26.1230
G01 X30.7152 Y26.2200
G01 X30.7161 Y26.2293
G01 X30.7209 Y26.3273
G01 X30.7209 Y26.3367
G01 X30.7161 Y26.4347
G01 X30.7152 Y26.4440
G01 X30.7008 Y26.5410
G01 X30.6989 Y26.5502
G01 X30.6751 Y26.6454
G01 X30.6724 Y26.6543
G01 X30.6393 Y26.7467
G01 X30.6358 Y26.7553
G01 X30.5938 Y26.8440
G01 X30.5894 Y26.8522
G01 X30.5390 Y26.9364
G01 X30.5338 Y26.9442
G01 X30.4753 Y27.0230
G01 X30.4694 Y27.0302
G01 X30.4035 Y27.1029
G01 X30.3969 Y27.1095
G01 X30.3242 Y27.1754
G01 X30.3170 Y27.1813
G01 X30.2382 Y27.2398
G01 X30.2213 Y27.2504
G01 X30.2213 Y27.4824
G01 X30.8391 Y28.1003
G01 X30.9123 Y28.0820
G01 X30.9215 Y28.0802
G01 X31.0282 Y28.0643
G01 X31.0375 Y28.0634
G01 X31.1453 Y28.0581
G01 X31.1547 Y28.0581
G01 X31.2625 Y28.0634
G01 X31.2718 Y28.0643
G01 X31.3785 Y28.0802
G01 X31.3877 Y28.0820
G01 X31.4924 Y28.1082
G01 X31.5013 Y28.1109
G01 X31.6030 Y28.1473
G01 X31.6116 Y28.1509
G01 X31.7092 Y28.1970
G01 X31.7174 Y28.2014
G01 X31.8100 Y28.2569
G01 X31.8177 Y28.2621
G01 X31.9044 Y28.3264
G01 X31.9116 Y28.3323
G01 X31.9916 Y28.4048
G01 X31.9982 Y28.4114
G01 X32.0707 Y28.4914
G01 X32.0766 Y28.4986
G01 X32.1409 Y28.5853
G01 X32.1461 Y28.5930
G01 X32.2016 Y28.6856
G01 X32.2060 Y28.6938
G01 X32.2521 Y28.7914
G01 X32.2557 Y28.8000
G01 X32.2921 Y28.9017
G01 X32.2948 Y28.9106
G01 X32.3210 Y29.0153
G01 X32.3228 Y29.0245
G01 X32.3387 Y29.1312
G01 X32.3396 Y29.1405
G01 X32.3408 Y29.1657
G01 X45.1176 Y29.1657
G01 X45.1282 Y29.1488
G01 X45.1867 Y29.0700
G01 X45.1926 Y29.0628
G01 X45.2585 Y28.9901
G01 X45.2651 Y28.9835
G01 X45.3378 Y28.9176
G01 X45.3450 Y28.9117
G01 X45.4238 Y28.8532
G01 X45.4316 Y28.8480
G01 X45.5158 Y28.7976
G01 X45.5240 Y28.7932
G01 X45.6127 Y28.7512
G01 X45.6213 Y28.7477
G01 X45.7137 Y28.7146
G01 X45.7226 Y28.7119
G01 X45.8178 Y28.6881
G01 X45.8270 Y28.6862
G01 X45.9240 Y28.6718
G01 X45.9333 Y28.6709
G01 X46.0360 Y28.6660
G01 X46.2360 Y28.6660
G01 X46.3387 Y28.6709
G01 X46.3480 Y28.6718
G01 X46.4450 Y28.6862
G01 X46.4542 Y28.6881
G01 X46.5494 Y28.7119
G01 X46.5583 Y28.7146
G01 X46.6507 Y28.7477
G01 X46.6593 Y28.7512
G01 X46.7480 Y28.7932
G01 X46.7562 Y28.7976
G01 X46.8404 Y28.8480
G01 X46.8482 Y28.8532
G01 X46.9270 Y28.9117
G01 X46.9342 Y28.9176
G01 X47.0069 Y28.9835
G01 X47.0135 Y28.9901
G01 X47.0794 Y29.0628
G01 X47.0853 Y29.0700
G01 X47.1438 Y29.1488
G01 X47.1490 Y29.1566
G01 X47.1994 Y29.2408
G01 X47.2038 Y29.2490
G01 X47.2458 Y29.3377
G01 X47.2493 Y29.3463
G01 X47.2824 Y29.4387
G01 X47.2851 Y29.4476
G01 X47.3089 Y29.5428
G01 X47.3108 Y29.5520
G01 X47.3252 Y29.6490
G01 X47.3261 Y29.6583
G01 X47.3309 Y29.7563
G01 X47.3309 Y29.7657
G01 X47.3261 Y29.8637
G01 X47.3252 Y29.8730
G01 X47.3108 Y29.9700
G01 X47.3089 Y29.9792
G01 X47.2851 Y30.0744
G01 X47.2824 Y30.0833
G01 X47.2493 Y30.1757
G01 X47.2458 Y30.1843
G01 X47.2038 Y30.2730
G01 X47.1994 Y30.2812
G01 X47.1490 Y30.3654
G01 X47.1438 Y30.3732
G01 X47.0853 Y30.4520
G01 X47.0794 Y30.4592
G01 X47.0135 Y30.5319
G01 X47.0069 Y30.5385
G01 X46.9342 Y30.6044
G01 X46.9270 Y30.6103
G01 X46.8482 Y30.6688
G01 X46.8404 Y30.6740
G01 X46.7562 Y30.7244
G01 X46.7480 Y30.7288
G01 X46.6593 Y30.7708
G01 X46.6507 Y30.7743
G01 X46.5583 Y30.8074
G01 X46.5494 Y30.8101
G01 X46.4542 Y30.8339
G01 X46.4450 Y30.8358
G01 X46.3480 Y30.8502
G01 X46.3387 Y30.8511
G01 X46.2407 Y30.8559
G01 X46.0360 Y30.8560
G01 X45.9333 Y30.8511
G01 X45.9240 Y30.8502
G01 X45.8270 Y30.8358
G01 X45.8178 Y30.8339
G01 X45.7226 Y30.8101
G01 X45.7137 Y30.8074
G01 X45.6213 Y30.7743
G01 X45.6127 Y30.7708
G01 X45.5240 Y30.7288
G01 X45.5158 Y30.7244
G01 X45.4316 Y30.6740
G01 X45.4238 Y30.6688
G01 X45.3450 Y30.6103
G01 X45.3378 Y30.6044
G01 X45.2651 Y30.5385
G01 X45.2585 Y30.5319
G01 X45.1926 Y30.4592
G01 X45.1867 Y30.4520
G01 X45.1282 Y30.3732
G01 X45.1176 Y30.3563
G01 X31.6580 Y30.3563
G01 X31.6136 Y30.3542
G01 X31.6030 Y30.3587
G01 X31.5013 Y30.3951
G01 X31.4924 Y30.3978
G01 X31.3877 Y30.4240
G01 X31.3785 Y30.4258
G01 X31.2718 Y30.4417
G01 X31.2625 Y30.4426
G01 X31.1547 Y30.4479
G01 X31.1453 Y30.4479
G01 X31.0375 Y30.4426
G01 X31.0282 Y30.4417
G01 X30.9215 Y30.4258
G01 X30.9123 Y30.4240
G01 X30.8076 Y30.3978
G01 X30.7987 Y30.3951
G01 X30.6970 Y30.3587
G01 X30.6884 Y30.3551
G01 X30.5908 Y30.3090
G01 X30.5826 Y30.3046
G01 X30.4900 Y30.2491
G01 X30.4823 Y30.2439
G01 X30.3956 Y30.1796
G01 X30.3884 Y30.1737
G01 X30.3084 Y30.1012
G01 X30.3018 Y30.0946
G01 X30.2293 Y30.0146
G01 X30.2234 Y30.0074
G01 X30.1591 Y29.9207
G01 X30.1539 Y29.9130
G01 X30.0984 Y29.8204
G01 X30.0940 Y29.8122
G01 X30.0479 Y29.7146
G01 X30.0443 Y29.7060
G01 X30.0079 Y29.6043
G01 X30.0052 Y29.5954
G01 X29.9790 Y29.4907
G01 X29.9772 Y29.4815
G01 X29.9613 Y29.3748
G01 X29.9604 Y29.3655
G01 X29.9551 Y29.2577
G01 X29.9551 Y29.2483
G01 X29.9604 Y29.1405
G01 X29.9613 Y29.1312
G01 X29.9772 Y29.0245
G01 X29.9790 Y29.0153
G01 X29.9973 Y28.9421
G01 X29.2051 Y28.1499
G01 X29.1689 Y28.1102
G01 X29.1630 Y28.1029
G01 X29.1338 Y28.0635
G01 X29.1286 Y28.0558
G01 X29.1033 Y28.0137
G01 X29.0989 Y28.0054
G01 X29.0780 Y27.9611
G01 X29.0744 Y27.9524
G01 X29.0578 Y27.9062
G01 X29.0551 Y27.8973
G01 X29.0432 Y27.8497
G01 X29.0414 Y27.8405
G01 X29.0342 Y27.7920
G01 X29.0333 Y27.7827
G01 X29.0308 Y27.7290
G01 X29.0308 Y27.2504
G01 X29.0138 Y27.2398
G01 X28.9350 Y27.1813
G01 X28.9278 Y27.1754
G01 X28.8551 Y27.1095
G01 X28.8485 Y27.1029
G01 X28.7826 Y27.0302
G01 X28.7767 Y27.0230
G01 X28.7182 Y26.9442
G01 X28.7130 Y26.9364
G01 X28.6626 Y26.8522
G01 X28.6582 Y26.8440
G01 X28.6162 Y26.7553
G01 X28.6127 Y26.7467
G01 X28.5796 Y26.6543
G01 X28.5769 Y26.6454
G01 X28.5531 Y26.5502
G01 X28.5512 Y26.5410
G01 X28.5368 Y26.4440
G01 X28.5359 Y26.4347
G01 X28.5311 Y26.3367
G01 X28.5311 Y26.3273
G01 X28.5359 Y26.2293
G01 X28.5368 Y26.2200
G01 X28.5512 Y26.1230
G01 X28.5531 Y26.1138
G01 X28.5769 Y26.0186
G01 X28.5796 Y26.0097
G01 X28.6127 Y25.9173
G01 X28.6162 Y25.9087
G01 X28.6582 Y25.8200
G00 Z2.0000
G00 X28.6582 Y17.8190
G01 F50.00
G01 Z-0.2000
G01 F100.00
G01 X28.6626 Y17.8108
G01 X28.7130 Y17.7266
G01 X28.7182 Y17.7188
G01 X28.7767 Y17.6400
G01 X28.7826 Y17.6328
G01 X28.8485 Y17.5601
G01 X28.8551 Y17.5535
G01 X28.9278 Y17.4876
G01 X28.9350 Y17.4817
G01 X29.0138 Y17.4232
G01 X29.0216 Y17.4180
G01 X29.1058 Y17.3676
G01 X29.1140 Y17.3632
G01 X29.2027 Y17.3212
G01 X29.2113 Y17.3177
G01 X29.3037 Y17.2846
G01 X29.3126 Y17.2819
G01 X29.4078 Y17.2581
G01 X29.4170 Y17.2562
G01 X29.5140 Y17.2418
G01 X29.5233 Y17.2409
G01 X29.6213 Y17.2361
G01 X29.6307 Y17.2361
G01 X29.7287 Y17.2409
G01 X29.7380 Y17.2418
G01 X29.8350 Y17.2562
G01 X29.8442 Y17.2581
G01 X29.9394 Y17.2819
G01 X29.9483 Y17.2846
G01 X30.0407 Y17.3177
G01 X30.0493 Y17.3212
G01 X30.1380 Y17.3632
G01 X30.1462 Y17.3676
G01 X30.2304 Y17.4180
G01 X30.2382 Y17.4232
G01 X30.3170 Y17.4817
G01 X30.3242 Y17.4876
G01 X30.3969 Y17.5535
G01 X30.4035 Y17.5601
G01 X30.4694 Y17.6328
G01 X30.4753 Y17.6400
G01 X30.5338 Y17.7188
G01 X30.5390 Y17.7266
G01 X30.5894 Y17.8108
G01 X30.5938 Y17.8190
G01 X30.6358 Y17.9077
G01 X30.6393 Y17.9163
G01 X30.6724 Y18.0087
G01 X30.6751 Y18.0176
G01 X30.6989 Y18.1128
G01 X30.7008 Y18.1220
G01 X30.7152 Y18.2190
G01 X30.7161 Y18.2283
G01 X30.7209 Y18.3263
G01 X30.7209 Y18.3357
G01 X30.7161 Y18.4337
G01 X30.7152 Y18.4430
G01 X30.7008 Y18.5400
G01 X30.6963 Y18.5595
G01 X34.0636 Y21.9267
G01 X38.7406 Y21.9267
G01 X38.7512 Y21.9098
G01 X38.8097 Y21.8310
G01 X38.8156 Y21.8238
G01 X38.8815 Y21.7511
G01 X38.8881 Y21.7445
G01 X38.9608 Y21.6786
G01 X38.9680 Y21.6727
G01 X39.0468 Y21.6142
G01 X39.0546 Y21.6090
G01 X39.1388 Y21.5586
G01 X39.1470 Y21.5542
G01 X39.2357 Y21.5122
G01 X39.2443 Y21.5087
G01 X39.3367 Y21.4756
G01 X39.3456 Y21.4729
G01 X39.4408 Y21.4491
G01 X39.4500 Y21.4472
G01 X39.5470 Y21.4328
G01 X39.5563 Y21.4319
G01 X39.6543 Y21.4271
G01 X39.6637 Y21.4271
G01 X39.7617 Y21.4319
G01 X39.7710 Y21.4328
G01 X39.8680 Y21.4472
G01 X39.8772 Y21.4491
G01 X39.9724 Y21.4729
G01 X39.9813 Y21.4756
G01 X40.0737 Y21.5087
G01 X40.0823 Y21.5122
G01 X40.1710 Y21.5542
G01 X40.1792 Y21.5586
G01 X40.2634 Y21.6090
G01 X40.2712 Y21.6142
G01 X40.3500 Y21.6727
G01 X40.3572 Y21.6786
G01 X40.4299 Y21.7445
G01 X40.4365 Y21.7511
G01 X40.5024 Y21.8238
G01 X40.5083 Y21.8310
G01 X40.5668 Y21.9098
G01 X40.5720 Y21.9176
G01 X40.6224 Y22.0018
G01 X40.6268 Y22.0100
G01 X40.6688 Y22.0987
G01 X40.6723 Y22.1073
G01 X40.7054 Y22.1997
G01 X40.7081 Y22.2086
G01 X40.7319 Y22.3038
G01 X40.7338 Y22.3130
G01 X40.7482 Y22.4100
G01 X40.7491 Y22.4193
G01 X40.7539 Y22.5173
G01 X40.7539 Y22.5267
G01 X40.7491 Y22.6247
G01 X40.7482 Y22.6340
G01 X40.7338 Y22.7310
G01 X40.7293 Y22.7505
G01 X42.0646 Y24.0857
G01 X45.1176 Y24.0857
G01 X45.1282 Y24.0688
G01 X45.1867 Y23.9900
G01 X45.1926 Y23.9828
G01 X45.2585 Y23.9101
G01 X45.2651 Y23.9035
G01 X45.3378 Y23.8376
G01 X45.3450 Y23.8317
G01 X45.4238 Y23.7732
G01 X45.4316 Y23.7680
G01 X45.5158 Y23.7176
G01 X45.5240 Y23.7132
G01 X45.6127 Y23.6712
G01 X45.6213 Y23.6677
G01 X45.7137 Y23.6346
G01 X45.7226 Y23.6319
G01 X45.8178 Y23.6081
G01 X45.8270 Y23.6062
G01 X45.9240 Y23.5918
G01 X45.9333 Y23.5909
G01 X46.0360 Y23.5860
G01 X46.2407 Y23.5861
G01 X46.3387 Y23.5909
G01 X46.3480 Y23.5918
G01 X46.4450 Y23.6062
G01 X46.4542 Y23.6081
G01 X46.5494 Y23.6319
G01 X46.5583 Y23.6346
G01 X46.6507 Y23.6677
G01 X46.6593 Y23.6712
G01 X46.7480 Y23.7132
G01 X46.7562 Y23.7176
G01 X46.8404 Y23.7680
G01 X46.8482 Y23.7732
G01 X46.9270 Y23.8317
G01 X46.9342 Y23.8376
G01 X47.0069 Y23.9035
G01 X47.0135 Y23.9101
G01 X47.0794 Y23.9828
G01 X47.0853 Y23.9900
G01 X47.1438 Y24.0688
G01 X47.1490 Y24.0766
G01 X47.1994 Y24.1608
G01 X47.2038 Y24.1690
G01 X47.2458 Y24.2577
G01 X47.2493 Y24.2663
G01 X47.2824 Y24.3587
G01 X47.2851 Y24.3676
G01 X47.3089 Y24.4628
G01 X47.3108 Y24.4720
G01 X47.3252 Y24.5690
G01 X47.3261 Y24.5783
G01 X47.3309 Y24.6763
G01 X47.3309 Y24.6857
G01 X47.3261 Y24.7837
G01 X47.3252 Y24.7930
G01 X47.3108 Y24.8900
G01 X47.3089 Y24.8992
G01 X47.2851 Y24.9944
G01 X47.2824 Y25.0033
G01 X47.2493 Y25.0957
G01 X47.2458 Y25.1043
G01 X47.2038 Y25.1930
G01 X47.1994 Y25.2012
G01 X47.1490 Y25.2854
G01 X47.1438 Y25.2932
G01 X47.0853 Y25.3720
G01 X47.0794 Y25.3792
G01 X47.0135 Y25.4519
G01 X47.0069 Y25.4585
G01 X46.9342 Y25.5244
G01 X46.9270 Y25.5303
G01 X46.8482 Y25.5888
G01 X46.8404 Y25.5940
G01 X46.7562 Y25.6444
G01 X46.7480 Y25.6488
G01 X46.6593 Y25.6908
G01 X46.6507 Y25.6943
G01 X46.5583 Y25.7274
G01 X46.5494 Y25.7301
G01 X46.4542 Y25.7539
G01 X46.4450 Y25.7558
G01 X46.3480 Y25.7702
G01 X46.3387 Y25.7711
G01 X46.2407 Y25.7759
G01 X46.0360 Y25.7760
G01 X45.9333 Y25.7711
G01 X45.9240 Y25.7702
G01 X45.8270 Y25.7558
G01 X45.8178 Y25.7539
G01 X45.7226 Y25.7301
G01 X45.7137 Y25.7274
G01 X45.6213 Y25.6943
G01 X45.6127 Y25.6908
G01 X45.5240 Y25.6488
G01 X45.5158 Y25.6444
G01 X45.4316 Y25.5940
G01 X45.4238 Y25.5888
G01 X45.3450 Y25.5303
G01 X45.3378 Y25.5244
G01 X45.2651 Y25.4585
G01 X45.2585 Y25.4519
G01 X45.1926 Y25.3792
G01 X45.1867 Y25.3720
G01 X45.1282 Y25.2932
G01 X45.1176 Y25.2763
G01 X41.8180 Y25.2763
G01 X41.7643 Y25.2737
G01 X41.7550 Y25.2728
G01 X41.7065 Y25.2656
G01 X41.6973 Y25.2638
G01 X41.6497 Y25.2519
G01 X41.6408 Y25.2492
G01 X41.5946 Y25.2326
G01 X41.5859 Y25.2290
G01 X41.5416 Y25.2081
G01 X41.5333 Y25.2037
G01 X41.4912 Y25.1784
G01 X41.4835 Y25.1732
G01 X41.4441 Y25.1440
G01 X41.4368 Y25.1381
G01 X41.3971 Y25.1019
G01 X39.8875 Y23.5923
G01 X39.8680 Y23.5968
G01 X39.7710 Y23.6112
G01 X39.7617 Y23.6121
G01 X39.6637 Y23.6169
G01 X39.6543 Y23.6169
G01 X39.5563 Y23.6121
G01 X39.5470 Y23.6112
G01 X39.4500 Y23.5968
G01 X39.4408 Y23.5949
G01 X39.3456 Y23.5711
G01 X39.3367 Y23.5684
G01 X39.2443 Y23.5353
G01 X39.2357 Y23.5318
G01 X39.1470 Y23.4898
G01 X39.1388 Y23.4854
G01 X39.0546 Y23.4350
G01 X39.0468 Y23.4298
G01 X38.9680 Y23.3713
G01 X38.9608 Y23.3654
G01 X38.8881 Y23.2995
G01 X38.8815 Y23.2929
G01 X38.8156 Y23.2202
G01 X38.8097 Y23.2130
G01 X38.7512 Y23.1342
G01 X38.7406 Y23.1173
G01 X33.8170 Y23.1173
G01 X33.7633 Y23.1147
G01 X33.7540 Y23.1138
G01 X33.7055 Y23.1066
G01 X33.6963 Y23.1048
G01 X33.6487 Y23.0929
G01 X33.6398 Y23.0902
G01 X33.5936 Y23.0736
G01 X33.5849 Y23.0700
G01 X33.5406 Y23.0491
G01 X33.5323 Y23.0447
G01 X33.4902 Y23.0194
G01 X33.4825 Y23.0142
G01 X33.4431 Y22.9850
G01 X33.4358 Y22.9791
G01 X33.3961 Y22.9429
G01 X29.8545 Y19.4013
G01 X29.8350 Y19.4058
G01 X29.7380 Y19.4202
G01 X29.7287 Y19.4211
G01 X29.6307 Y19.4259
G01 X29.6213 Y19.4259
G01 X29.5233 Y19.4211
G01 X29.5140 Y19.4202
G01 X29.4170 Y19.4058
G01 X29.4078 Y19.4039
G01 X29.3126 Y19.3801
G01 X29.3037 Y19.3774
G01 X29.2113 Y19.3443
G01 X29.2027 Y19.3408
G01 X29.1140 Y19.2988
G01 X29.1058 Y19.2944
G01 X29.0216 Y19.2440
G01 X29.0138 Y19.2388
G01 X28.9350 Y19.1803
G01 X28.9278 Y19.1744
G01 X28.8551 Y19.1085
G01 X28.8485 Y19.1019
G01 X28.7826 Y19.0292
G01 X28.7767 Y19.0220
G01 X28.7182 Y18.9432
G01 X28.7130 Y18.9354
G01 X28.6626 Y18.8512
G01 X28.6582 Y18.8430
G01 X28.6162 Y18.7543
G01 X28.6127 Y18.7457
G01 X28.5796 Y18.6533
G01 X28.5769 Y18.6444
G01 X28.5531 Y18.5492
G01 X28.5512 Y18.5400
G01 X28.5368 Y18.4430
G01 X28.5359 Y18.4337
G01 X28.5311 Y18.3357
G01 X28.5311 Y18.3263
G01 X28.5359 Y18.2283
G01 X28.5368 Y18.2190
G01 X28.5512 Y18.1220
G01 X28.5531 Y18.1128
G01 X28.5769 Y18.0176
G01 X28.5796 Y18.0087
G01 X28.6127 Y17.9163
G01 X28.6162 Y17.9077
G01 X28.6582 Y17.8190
G00 Z2.0000
G00 X50.2318 Y13.5842
G01 F50.00
G01 Z-0.2000
G01 F100.00
G01 X50.2361 Y13.5759
G01 X50.2614 Y13.5338
G01 X50.2666 Y13.5261
G01 X50.2958 Y13.4867
G01 X50.3017 Y13.4794
G01 X50.3379 Y13.4397
G01 X52.3265 Y11.4511
G01 X52.3662 Y11.4149
G01 X52.3734 Y11.4090
G01 X52.4129 Y11.3798
G01 X52.4206 Y11.3746
G01 X52.4627 Y11.3493
G01 X52.4710 Y11.3449
G01 X52.5153 Y11.3240
G01 X52.5240 Y11.3204
G01 X52.5702 Y11.3039
G01 X52.5791 Y11.3011
G01 X52.6267 Y11.2892
G01 X52.6359 Y11.2874
G01 X52.6844 Y11.2802
G01 X52.6937 Y11.2793
G01 X52.7474 Y11.2768
G01 X62.9434 Y11.2768
G01 X62.9971 Y11.2793
G01 X63.0064 Y11.2802
G01 X63.0549 Y11.2874
G01 X63.0641 Y11.2892
G01 X63.1117 Y11.3011
G01 X63.1206 Y11.3039
G01 X63.1669 Y11.3204
G01 X63.1755 Y11.3240
G01 X63.2198 Y11.3449
G01 X63.2281 Y11.3493
G01 X63.2702 Y11.3746
G01 X63.2779 Y11.3798
G01 X63.3174 Y11.4090
G01 X63.3246 Y11.4149
G01 X63.3609 Y11.4479
G01 X67.0074 Y15.0941
G01 X77.2764 Y15.0941
G01 X77.3301 Y15.0967
G01 X77.3394 Y15.0976
G01 X77.3879 Y15.1048
G01 X77.3971 Y15.1066
G01 X77.4447 Y15.1185
G01 X77.4536 Y15.1212
G01 X77.4998 Y15.1378
G01 X77.5085 Y15.1414
G01 X77.5528 Y15.1623
G01 X77.5611 Y15.1667
G01 X77.6032 Y15.1920
G01 X77.6109 Y15.1972
G01 X77.6503 Y15.2264
G01 X77.6576 Y15.2323
G01 X77.6973 Y15.2685
G01 X83.8949 Y21.4661
G01 X83.9311 Y21.5058
G01 X83.9370 Y21.5131
G01 X83.9662 Y21.5525
G01 X83.9714 Y21.5602
G01 X83.9967 Y21.6023
G01 X84.0011 Y21.6106
G01 X84.0221 Y21.6549
G01 X84.0256 Y21.6636
G01 X84.0422 Y21.7098
G01 X84.0449 Y21.7187
G01 X84.0568 Y21.7663
G01 X84.0586 Y21.7755
G01 X84.0658 Y21.8240
G01 X84.0667 Y21.8333
G01 X84.0693 Y21.8870
G01 X84.0693 Y23.3921
G01 X84.1340 Y23.4309
G01 X84.1417 Y23.4361
G01 X84.2284 Y23.5004
G01 X84.2356 Y23.5063
G01 X84.3156 Y23.5788
G01 X84.3222 Y23.5854
G01 X84.3947 Y23.6654
G01 X84.4006 Y23.6726
G01 X84.4649 Y23.7593
G01 X84.4701 Y23.7670
G01 X84.5256 Y23.8596
G01 X84.5297 Y23.8673
G01 X84.5761 Y23.9654
G01 X84.5797 Y23.9740
G01 X84.6161 Y24.0757
G01 X84.6188 Y24.0846
G01 X84.6450 Y24.1893
G01 X84.6468 Y24.1985
G01 X84.6627 Y24.3052
G01 X84.6636 Y24.3145
G01 X84.6689 Y24.4223
G01 X84.6689 Y24.4317
G01 X84.6636 Y24.5395
G01 X84.6627 Y24.5488
G01 X84.6468 Y24.6555
G01 X84.6450 Y24.6647
G01 X84.6188 Y24.7694
G01 X84.6161 Y24.7783
G01 X84.5797 Y24.8800
G01 X84.5761 Y24.8886
G01 X84.5300 Y24.9862
G01 X84.5256 Y24.9944
G01 X84.4701 Y25.0870
G01 X84.4649 Y25.0947
G01 X84.4006 Y25.1814
G01 X84.3947 Y25.1886
G01 X84.3222 Y25.2686
G01 X84.3156 Y25.2752
G01 X84.2356 Y25.3477
G01 X84.2284 Y25.3536
G01 X84.1417 Y25.4179
G01 X84.1340 Y25.4231
G01 X84.0414 Y25.4786
G01 X84.0332 Y25.4830
G01 X83.9356 Y25.5291
G01 X83.9270 Y25.5327
G01 X83.8253 Y25.5691
G01 X83.8164 Y25.5718
G01 X83.7117 Y25.5980
G01 X83.7025 Y25.5998
G01 X83.5958 Y25.6157
G01 X83.5865 Y25.6166
G01 X83.4787 Y25.6219
G01 X83.4693 Y25.6219
G01 X83.3615 Y25.6166
G01 X83.3522 Y25.6157
G01 X83.2455 Y25.5998
G01 X83.2363 Y25.5980
G01 X83.1316 Y25.5718
G01 X83.1227 Y25.5691
G01 X83.0210 Y25.5327
G01 X83.0124 Y25.5291
G01 X82.9148 Y25.4830
G01 X82.9066 Y25.4786
G01 X82.8140 Y25.4231
G01 X82.8063 Y25.4179
G01 X82.7196 Y25.3536
G01 X82.7124 Y25.3477
G01 X82.6324 Y25.2752
G01 X82.6258 Y25.2686
G01 X82.5533 Y25.1886
G01 X82.5474 Y25.1814
G01 X82.4831 Y25.0947
G01 X82.4779 Y25.0870
G01 X82.4224 Y24.9944
G01 X82.4180 Y24.9862
G01 X82.3719 Y24.8886
G01 X82.3683 Y24.8800
G01 X82.3319 Y24.7783
G01 X82.3292 Y24.7694
G01 X82.3030 Y24.6647
G01 X82.3012 Y24.6555
G01 X82.2853 Y24.5488
G01 X82.2844 Y24.5395
G01 X82.2791 Y24.4317
G01 X82.2791 Y24.4223
G01 X82.2844 Y24.3145
G01 X82.2853 Y24.3052
G01 X82.3012 Y24.1985
G01 X82.3030 Y24.1893
G01 X82.3292 Y24.0846
G01 X82.3319 Y24.0757
G01 X82.3683 Y23.9740
G01 X82.3719 Y23.9654
G01 X82.4180 Y23.8678
G01 X82.4224 Y23.8596
G01 X82.4779 Y23.7670
G01 X82.4831 Y23.7593
G01 X82.5474 Y23.6726
G01 X82.5533 Y23.6654
G01 X82.6258 Y23.5854
G01 X82.6324 Y23.5788
G01 X82.7124 Y23.5063
G01 X82.7196 Y23.5004
G01 X82.8063 Y23.4361
G01 X82.8140 Y23.4309
G01 X82.8788 Y23.3921
G01 X82.8788 Y22.1336
G01 X77.0298 Y16.2847
G01 X66.7608 Y16.2847
G01 X66.7071 Y16.2821
G01 X66.6978 Y16.2812
G01 X66.6493 Y16.2740
G01 X66.6401 Y16.2722
G01 X66.5925 Y16.2603
G01 X66.5836 Y16.2576
G01 X66.5374 Y16.2410
G01 X66.5287 Y16.2374
G01 X66.4844 Y16.2165
G01 X66.4761 Y16.2121
G01 X66.4340 Y16.1868
G01 X66.4263 Y16.1816
G01 X66.3869 Y16.1524
G01 X66.3796 Y16.1465
G01 X66.3399 Y16.1103
G01 X62.6968 Y12.4673
G01 X52.9940 Y12.4673
G01 X51.3541 Y14.1072
G01 X51.3541 Y17.4886
G01 X52.7934 Y18.9279
G01 X52.8067 Y18.9100
G01 X52.8126 Y18.9028
G01 X52.8785 Y18.8301
G01 X52.8851 Y18.8235
G01 X52.9578 Y18.7576
G01 X52.9650 Y18.7517
G01 X53.0438 Y18.6932
G01 X53.0516 Y18.6880
G01 X53.1358 Y18.6376
G01 X53.1440 Y18.6332
G01 X53.2327 Y18.5912
G01 X53.2413 Y18.5877
G01 X53.3337 Y18.5546
G01 X53.3426 Y18.5519
G01 X53.4378 Y18.5281
G01 X53.4470 Y18.5262
G01 X53.5440 Y18.5118
G01 X53.5533 Y18.5109
G01 X53.6560 Y18.5060
G01 X53.8607 Y18.5061
G01 X53.9587 Y18.5109
G01 X53.9680 Y18.5118
G01 X54.0650 Y18.5262
G01 X54.0742 Y18.5281
G01 X54.1694 Y18.5519
G01 X54.1783 Y18.5546
G01 X54.2707 Y18.5877
G01 X54.2793 Y18.5912
G01 X54.3680 Y18.6332
G01 X54.3762 Y18.6376
G01 X54.4604 Y18.6880
G01 X54.4682 Y18.6932
G01 X54.5470 Y18.7517
G01 X54.5542 Y18.7576
G01 X54.6269 Y18.8235
G01 X54.6335 Y18.8301
G01 X54.6994 Y18.9028
G01 X54.7053 Y18.9100
G01 X54.7638 Y18.9888
G01 X54.7690 Y18.9966
G01 X54.8194 Y19.0808
G01 X54.8238 Y19.0890
G01 X54.8658 Y19.1777
G01 X54.8693 Y19.1863
G01 X54.9024 Y19.2787
G01 X54.9051 Y19.2876
G01 X54.9289 Y19.3828
G01 X54.9308 Y19.3920
G01 X54.9452 Y19.4890
G01 X54.9461 Y19.4983
G01 X54.9509 Y19.5963
G01 X54.9509 Y19.6057
G01 X54.9461 Y19.7037
G01 X54.9452 Y19.7130
G01 X54.9308 Y19.8100
G01 X54.9289 Y19.8192
G01 X54.9051 Y19.9144
G01 X54.9024 Y19.9233
G01 X54.8693 Y20.0157
G01 X54.8658 Y20.0243
G01 X54.8238 Y20.1130
G01 X54.8194 Y20.1212
G01 X54.7690 Y20.2054
G01 X54.7638 Y20.2132
G01 X54.7053 Y20.2920
G01 X54.6994 Y20.2992
G01 X54.6335 Y20.3719
G01 X54.6269 Y20.3785
G01 X54.5542 Y20.4444
G01 X54.5470 Y20.4503
G01 X54.4682 Y20.5088
G01 X54.4604 Y20.5140
G01 X54.3762 Y20.5644
G01 X54.3680 Y20.5688
G01 X54.2793 Y20.6108
G01 X54.2707 Y20.6143
G01 X54.1783 Y20.6474
G01 X54.1694 Y20.6501
G01 X54.0742 Y20.6739
G01 X54.0650 Y20.6758
G01 X53.9680 Y20.6902
G01 X53.9587 Y20.6911
G01 X53.8560 Y20.6960
G01 X53.6560 Y20.6960
G01 X53.5533 Y20.6911
G01 X53.5440 Y20.6902
G01 X53.4470 Y20.6758
G01 X53.4378 Y20.6739
G01 X53.3426 Y20.6501
G01 X53.3337 Y20.6474
G01 X53.2413 Y20.6143
G01 X53.2327 Y20.6108
G01 X53.1440 Y20.5688
G01 X53.1358 Y20.5644
G01 X53.0516 Y20.5140
G01 X53.0438 Y20.5088
G01 X52.9650 Y20.4503
G01 X52.9578 Y20.4444
G01 X52.8851 Y20.3785
G01 X52.8785 Y20.3719
G01 X52.8126 Y20.2992
G01 X52.8067 Y20.2920
G01 X52.7482 Y20.2132
G01 X52.7376 Y20.1963
G01 X52.6246 Y20.1963
G01 X52.5709 Y20.1937
G01 X52.5617 Y20.1928
G01 X52.5131 Y20.1856
G01 X52.5040 Y20.1838
G01 X52.4563 Y20.1719
G01 X52.4474 Y20.1692
G01 X52.4012 Y20.1526
G01 X52.3926 Y20.1490
G01 X52.3482 Y20.1281
G01 X52.3400 Y20.1237
G01 X52.2979 Y20.0984
G01 X52.2901 Y20.0932
G01 X52.2507 Y20.0640
G01 X52.2435 Y20.0581
G01 X52.2037 Y20.0219
G01 X50.3379 Y18.1561
G01 X50.3017 Y18.1163
G01 X50.2958 Y18.1091
G01 X50.2666 Y18.0697
G01 X50.2614 Y18.0619
G01 X50.2361 Y18.0198
G01 X50.2317 Y18.0116
G01 X50.2108 Y17.9672
G01 X50.2072 Y17.9586
G01 X50.1906 Y17.9124
G01 X50.1879 Y17.9035
G01 X50.1760 Y17.8558
G01 X50.1742 Y17.8467
G01 X50.1670 Y17.7981
G01 X50.1661 Y17.7889
G01 X50.1636 Y17.7352
G01 X50.1636 Y13.8606
G01 X50.1661 Y13.8069
G01 X50.1670 Y13.7976
G01 X50.1742 Y13.7491
G01 X50.1760 Y13.7399
G01 X50.1879 Y13.6923
G01 X50.1906 Y13.6834
G01 X50.2072 Y13.6372
