(G-CODE GENERATED BY FLATCAM v8.991 - www.flatcam.org - Version Date: 2019/12/27)

(Name: GcodeV2)
(Type: G-code from Geometry)
(Units: MM)

(Created on Tuesday, 25 August 2020 at 11:32)

(TOOL DIAMETER: 0.3 mm)
(Feedrate: 120.0 mm/min)
(Feedrate_Z: 60.0 mm/min)
(Feedrate rapids 1500.0 mm/min)

(Z_Cut: -0.2 mm)
(Z_Move: 2.0 mm)
(Z Toolchange: 15.0 mm)
(X,Y Toolchange: 0.0000, 0.0000 mm)
(Z Start: None mm)
(Z End: 15.0 mm)
(Steps per circle: 64)
(Preprocessor Geometry: default)

(X range:    0.6779 ...  100.1921  mm)
(Y range:    0.0679 ...  183.4021  mm)

(Spindle Speed: None RPM)
G21
G90
G94




G01 F120.00
G00 Z2.0000

M03
G00 X8.1715 Y8.8679
G01 F60.00
G01 Z-0.2000
G01 F120.00
G01 X7.6085 Y8.8679
G01 X7.0564 Y8.7581
G01 X6.5363 Y8.5427
G01 X6.0682 Y8.2299
G01 X5.6701 Y7.8318
G01 X5.3573 Y7.3637
G01 X5.1419 Y6.8436
G01 X5.0321 Y6.2915
G01 X5.0321 Y5.7285
G01 X5.1419 Y5.1764
G01 X5.3573 Y4.6563
G01 X5.6701 Y4.1882
G01 X6.0682 Y3.7901
G01 X6.5363 Y3.4773
G01 X7.0564 Y3.2619
G01 X7.6085 Y3.1521
G01 X8.1715 Y3.1521
G01 X8.7236 Y3.2619
G01 X9.2437 Y3.4773
G01 X9.7118 Y3.7901
G01 X10.1099 Y4.1882
G01 X10.4227 Y4.6563
G01 X10.6381 Y5.1764
G01 X10.7479 Y5.7285
G01 X10.7479 Y6.2915
G01 X10.6381 Y6.8436
G01 X10.4227 Y7.3637
G01 X10.1099 Y7.8318
G01 X9.7118 Y8.2299
G01 X9.2437 Y8.5427
G01 X8.7236 Y8.7581
G01 X8.1715 Y8.8679
G00 Z2.0000
G00 X0.8898 Y20.2810
G01 F60.00
G01 Z-0.2000
G01 F120.00
G01 X0.8898 Y17.4400
G01 X0.8923 Y17.3836
G01 X0.8938 Y17.3690
G01 X0.9010 Y17.3204
G01 X0.9039 Y17.3060
G01 X0.9158 Y17.2583
G01 X0.9201 Y17.2443
G01 X0.9366 Y17.1980
G01 X0.9422 Y17.1844
G01 X0.9632 Y17.1401
G01 X0.9702 Y17.1271
G01 X0.9954 Y17.0850
G01 X1.0036 Y17.0727
G01 X1.0328 Y17.0333
G01 X1.0422 Y17.0219
G01 X1.0802 Y16.9802
G01 X3.6202 Y14.4402
G01 X3.6619 Y14.4022
G01 X3.6733 Y14.3928
G01 X3.7127 Y14.3636
G01 X3.7250 Y14.3554
G01 X3.7671 Y14.3302
G01 X3.7801 Y14.3232
G01 X3.8244 Y14.3022
G01 X3.8380 Y14.2966
G01 X3.8843 Y14.2801
G01 X3.8983 Y14.2758
G01 X3.9460 Y14.2639
G01 X3.9604 Y14.2610
G01 X4.0090 Y14.2538
G01 X4.0236 Y14.2523
G01 X4.0800 Y14.2498
G01 X11.7000 Y14.2498
G01 X11.7564 Y14.2523
G01 X11.7710 Y14.2538
G01 X11.8196 Y14.2610
G01 X11.8340 Y14.2639
G01 X11.8817 Y14.2758
G01 X11.8958 Y14.2801
G01 X11.9420 Y14.2966
G01 X11.9556 Y14.3022
G01 X12.0000 Y14.3232
G01 X12.0129 Y14.3302
G01 X12.0550 Y14.3554
G01 X12.0673 Y14.3636
G01 X12.1067 Y14.3928
G01 X12.1181 Y14.4022
G01 X12.1598 Y14.4402
G01 X12.5534 Y14.8338
G01 X12.5707 Y14.8283
G01 X12.6897 Y14.7985
G01 X12.7041 Y14.7956
G01 X12.8255 Y14.7776
G01 X12.8401 Y14.7762
G01 X12.9626 Y14.7702
G01 X12.9774 Y14.7702
G01 X13.0999 Y14.7762
G01 X13.1145 Y14.7776
G01 X13.2359 Y14.7956
G01 X13.2503 Y14.7985
G01 X13.3693 Y14.8283
G01 X13.3834 Y14.8326
G01 X13.4989 Y14.8739
G01 X13.5125 Y14.8796
G01 X13.6234 Y14.9320
G01 X13.6364 Y14.9389
G01 X13.7416 Y15.0020
G01 X13.7538 Y15.0102
G01 X13.8523 Y15.0833
G01 X13.8637 Y15.0926
G01 X13.9546 Y15.1750
G01 X13.9650 Y15.1854
G01 X14.0474 Y15.2763
G01 X14.0567 Y15.2877
G01 X14.1298 Y15.3862
G01 X14.1380 Y15.3984
G01 X14.2011 Y15.5036
G01 X14.2080 Y15.5166
G01 X14.2604 Y15.6275
G01 X14.2661 Y15.6411
G01 X14.3074 Y15.7566
G01 X14.3117 Y15.7707
G01 X14.3415 Y15.8897
G01 X14.3444 Y15.9041
G01 X14.3624 Y16.0255
G01 X14.3638 Y16.0401
G01 X14.3698 Y16.1626
G01 X14.3698 Y16.1774
G01 X14.3638 Y16.2999
G01 X14.3624 Y16.3145
G01 X14.3444 Y16.4359
G01 X14.3415 Y16.4503
G01 X14.3117 Y16.5693
G01 X14.3074 Y16.5834
G01 X14.2661 Y16.6989
G01 X14.2604 Y16.7125
G01 X14.2080 Y16.8234
G01 X14.2011 Y16.8364
G01 X14.1380 Y16.9416
G01 X14.1298 Y16.9538
G01 X14.0567 Y17.0523
G01 X14.0474 Y17.0637
G01 X13.9650 Y17.1546
G01 X13.9546 Y17.1650
G01 X13.8637 Y17.2474
G01 X13.8523 Y17.2567
G01 X13.7538 Y17.3298
G01 X13.7416 Y17.3380
G01 X13.6364 Y17.4011
G01 X13.6234 Y17.4080
G01 X13.5125 Y17.4604
G01 X13.4989 Y17.4661
G01 X13.3834 Y17.5074
G01 X13.3693 Y17.5117
G01 X13.2503 Y17.5415
G01 X13.2359 Y17.5444
G01 X13.1145 Y17.5624
G01 X13.0999 Y17.5638
G01 X12.9774 Y17.5698
G01 X12.9626 Y17.5698
G01 X12.8401 Y17.5638
G01 X12.8255 Y17.5624
G01 X12.7041 Y17.5444
G01 X12.6897 Y17.5415
G01 X12.5707 Y17.5117
G01 X12.5566 Y17.5074
G01 X12.4411 Y17.4661
G01 X12.4275 Y17.4604
G01 X12.3166 Y17.4080
G01 X12.3036 Y17.4011
G01 X12.1984 Y17.3380
G01 X12.1862 Y17.3298
G01 X12.0877 Y17.2567
G01 X12.0763 Y17.2474
G01 X11.9854 Y17.1650
G01 X11.9750 Y17.1546
G01 X11.8926 Y17.0637
G01 X11.8833 Y17.0523
G01 X11.8102 Y16.9538
G01 X11.8020 Y16.9416
G01 X11.7389 Y16.8364
G01 X11.7320 Y16.8234
G01 X11.6796 Y16.7125
G01 X11.6739 Y16.6989
G01 X11.6326 Y16.5834
G01 X11.6283 Y16.5693
G01 X11.5985 Y16.4503
G01 X11.5956 Y16.4359
G01 X11.5776 Y16.3145
G01 X11.5762 Y16.2999
G01 X11.5702 Y16.1774
G01 X11.5702 Y16.1626
G01 X11.5762 Y16.0401
G01 X11.5776 Y16.0255
G01 X11.5956 Y15.9041
G01 X11.5985 Y15.8897
G01 X11.6283 Y15.7707
G01 X11.6338 Y15.7534
G01 X11.4307 Y15.5503
G01 X4.3493 Y15.5503
G01 X2.1903 Y17.7093
G01 X2.1901 Y20.5474
G01 X2.1877 Y20.5965
G01 X2.1862 Y20.6111
G01 X2.1790 Y20.6597
G01 X2.1761 Y20.6741
G01 X2.1642 Y20.7217
G01 X2.1599 Y20.7358
G01 X2.1434 Y20.7821
G01 X2.1378 Y20.7957
G01 X2.1168 Y20.8400
G01 X2.1098 Y20.8530
G01 X2.0846 Y20.8951
G01 X2.0764 Y20.9074
G01 X2.0602 Y20.9292
G01 X2.0602 Y37.6207
G01 X2.6800 Y38.2404
G01 X3.6255 Y37.2951
G01 X3.6619 Y37.2622
G01 X3.6733 Y37.2528
G01 X3.7127 Y37.2236
G01 X3.7250 Y37.2154
G01 X3.7671 Y37.1902
G01 X3.7801 Y37.1832
G01 X3.8244 Y37.1622
G01 X3.8380 Y37.1566
G01 X3.8843 Y37.1401
G01 X3.8983 Y37.1358
G01 X3.9460 Y37.1239
G01 X3.9604 Y37.1210
G01 X4.0090 Y37.1138
G01 X4.0236 Y37.1123
G01 X4.0800 Y37.1098
G01 X5.8263 Y37.1098
G01 X5.8826 Y37.1123
G01 X5.8973 Y37.1138
G01 X5.9459 Y37.1210
G01 X5.9603 Y37.1239
G01 X6.0079 Y37.1358
G01 X6.0220 Y37.1401
G01 X6.0682 Y37.1566
G01 X6.0818 Y37.1622
G01 X6.1262 Y37.1832
G01 X6.1392 Y37.1902
G01 X6.1813 Y37.2154
G01 X6.1935 Y37.2236
G01 X6.2330 Y37.2528
G01 X6.2443 Y37.2622
G01 X6.2807 Y37.2951
G01 X7.8382 Y38.8524
G01 X7.9287 Y38.8389
G01 X7.9434 Y38.8375
G01 X8.0414 Y38.8327
G01 X8.0561 Y38.8327
G01 X8.1541 Y38.8375
G01 X8.1688 Y38.8389
G01 X8.2659 Y38.8533
G01 X8.2803 Y38.8562
G01 X8.3755 Y38.8801
G01 X8.3896 Y38.8843
G01 X8.4820 Y38.9174
G01 X8.4956 Y38.9230
G01 X8.5843 Y38.9650
G01 X8.5973 Y38.9719
G01 X8.6814 Y39.0224
G01 X8.6937 Y39.0306
G01 X8.7725 Y39.0890
G01 X8.7839 Y39.0983
G01 X8.8566 Y39.1643
G01 X8.8670 Y39.1747
G01 X8.9329 Y39.2474
G01 X8.9422 Y39.2588
G01 X9.0007 Y39.3376
G01 X9.0089 Y39.3498
G01 X9.0593 Y39.4340
G01 X9.0663 Y39.4470
G01 X9.1082 Y39.5357
G01 X9.1139 Y39.5493
G01 X9.1469 Y39.6417
G01 X9.1512 Y39.6558
G01 X9.1750 Y39.7510
G01 X9.1779 Y39.7654
G01 X9.1923 Y39.8625
G01 X9.1938 Y39.8771
G01 X9.1986 Y39.9751
G01 X9.1986 Y39.9899
G01 X9.1938 Y40.0879
G01 X9.1923 Y40.1025
G01 X9.1779 Y40.1996
G01 X9.1750 Y40.2140
G01 X9.1512 Y40.3092
G01 X9.1469 Y40.3233
G01 X9.1139 Y40.4157
G01 X9.1082 Y40.4293
G01 X9.0663 Y40.5180
G01 X9.0593 Y40.5310
G01 X9.0089 Y40.6152
G01 X9.0007 Y40.6274
G01 X8.9422 Y40.7062
G01 X8.9329 Y40.7176
G01 X8.8670 Y40.7903
G01 X8.8566 Y40.8008
G01 X8.7839 Y40.8667
G01 X8.7725 Y40.8760
G01 X8.6937 Y40.9345
G01 X8.6814 Y40.9426
G01 X8.5973 Y40.9931
G01 X8.5843 Y41.0000
G01 X8.4956 Y41.0420
G01 X8.4820 Y41.0476
G01 X8.3896 Y41.0807
G01 X8.3755 Y41.0849
G01 X8.2803 Y41.1088
G01 X8.2659 Y41.1117
G01 X8.1688 Y41.1261
G01 X8.1541 Y41.1275
G01 X8.0561 Y41.1323
G01 X8.0414 Y41.1323
G01 X7.9434 Y41.1275
G01 X7.9287 Y41.1261
G01 X7.8317 Y41.1117
G01 X7.8172 Y41.1088
G01 X7.7220 Y41.0849
G01 X7.7079 Y41.0807
G01 X7.6155 Y41.0476
G01 X7.6019 Y41.0420
G01 X7.5132 Y41.0000
G01 X7.5002 Y40.9931
G01 X7.4161 Y40.9426
G01 X7.4038 Y40.9345
G01 X7.3250 Y40.8760
G01 X7.3136 Y40.8667
G01 X7.2409 Y40.8008
G01 X7.2305 Y40.7903
G01 X7.1646 Y40.7176
G01 X7.1553 Y40.7062
G01 X7.0968 Y40.6274
G01 X7.0886 Y40.6152
G01 X7.0382 Y40.5310
G01 X7.0312 Y40.5180
G01 X6.9893 Y40.4293
G01 X6.9836 Y40.4157
G01 X6.9506 Y40.3233
G01 X6.9463 Y40.3092
G01 X6.9225 Y40.2140
G01 X6.9196 Y40.1996
G01 X6.9052 Y40.1025
G01 X6.9037 Y40.0879
G01 X6.8989 Y39.9899
G01 X6.8989 Y39.9751
G01 X6.9037 Y39.8771
G01 X6.9052 Y39.8625
G01 X6.9186 Y39.7720
G01 X5.5569 Y38.4103
G01 X4.3493 Y38.4103
G01 X3.3302 Y39.4294
G01 X3.3302 Y66.0106
G01 X5.4919 Y68.1723
G01 X7.2025 Y68.1723
G01 X7.2589 Y68.1749
G01 X7.2736 Y68.1763
G01 X7.3221 Y68.1835
G01 X7.3366 Y68.1864
G01 X7.3842 Y68.1983
G01 X7.3983 Y68.2026
G01 X7.4445 Y68.2191
G01 X7.4581 Y68.2247
G01 X7.5025 Y68.2457
G01 X7.5154 Y68.2527
G01 X7.5575 Y68.2779
G01 X7.5698 Y68.2861
G01 X7.6092 Y68.3153
G01 X7.6206 Y68.3247
G01 X7.6570 Y68.3576
G01 X7.7071 Y68.4075
G01 X8.8900 Y68.4075
G01 X8.9047 Y68.4082
G01 X8.9193 Y68.4104
G01 X8.9335 Y68.4140
G01 X8.9474 Y68.4189
G01 X8.9607 Y68.4252
G01 X8.9733 Y68.4328
G01 X8.9852 Y68.4415
G01 X8.9961 Y68.4514
G01 X9.0060 Y68.4623
G01 X9.0147 Y68.4742
G01 X9.0223 Y68.4868
G01 X9.0286 Y68.5001
G01 X9.0335 Y68.5140
G01 X9.0371 Y68.5282
G01 X9.0393 Y68.5428
G01 X9.0400 Y68.5575
G01 X9.0400 Y70.4625
G01 X9.0393 Y70.4772
G01 X9.0371 Y70.4918
G01 X9.0335 Y70.5060
G01 X9.0286 Y70.5199
G01 X9.0223 Y70.5332
G01 X9.0147 Y70.5458
G01 X9.0060 Y70.5577
G01 X8.9961 Y70.5686
G01 X8.9852 Y70.5785
G01 X8.9733 Y70.5872
G01 X8.9607 Y70.5948
G01 X8.9474 Y70.6011
G01 X8.9335 Y70.6060
G01 X8.9193 Y70.6096
G01 X8.9047 Y70.6118
G01 X8.8900 Y70.6125
G01 X8.5403 Y70.6125
G01 X8.5403 Y71.7807
G01 X10.6993 Y73.9398
G01 X12.0220 Y73.9398
G01 X12.0765 Y73.8663
G01 X12.0858 Y73.8549
G01 X12.1518 Y73.7822
G01 X12.1622 Y73.7718
G01 X12.2349 Y73.7058
G01 X12.2463 Y73.6965
G01 X12.3251 Y73.6381
G01 X12.3373 Y73.6299
G01 X12.4215 Y73.5794
G01 X12.4345 Y73.5725
G01 X12.5232 Y73.5305
G01 X12.5368 Y73.5249
G01 X12.6292 Y73.4918
G01 X12.6433 Y73.4876
G01 X12.7385 Y73.4637
G01 X12.7529 Y73.4608
G01 X12.8500 Y73.4464
G01 X12.8646 Y73.4450
G01 X12.9626 Y73.4402
G01 X12.9774 Y73.4402
G01 X13.0754 Y73.4450
G01 X13.0900 Y73.4464
G01 X13.1871 Y73.4608
G01 X13.2015 Y73.4637
G01 X13.2967 Y73.4876
G01 X13.3108 Y73.4918
G01 X13.4032 Y73.5249
G01 X13.4168 Y73.5305
G01 X13.5055 Y73.5725
G01 X13.5185 Y73.5794
G01 X13.6027 Y73.6299
G01 X13.6149 Y73.6381
G01 X13.6937 Y73.6965
G01 X13.7051 Y73.7058
G01 X13.7778 Y73.7718
G01 X13.7883 Y73.7822
G01 X13.8542 Y73.8549
G01 X13.8635 Y73.8663
G01 X13.9180 Y73.9398
G01 X16.5107 Y73.9398
G01 X16.9000 Y73.5504
G01 X16.9000 Y72.3200
G01 X16.9007 Y72.3053
G01 X16.9029 Y72.2907
G01 X16.9065 Y72.2765
G01 X16.9114 Y72.2626
G01 X16.9177 Y72.2493
G01 X16.9253 Y72.2367
G01 X16.9340 Y72.2248
G01 X16.9439 Y72.2139
G01 X16.9548 Y72.2040
G01 X16.9667 Y72.1953
G01 X16.9793 Y72.1877
G01 X16.9926 Y72.1814
G01 X17.0065 Y72.1765
G01 X17.0207 Y72.1729
G01 X17.0353 Y72.1707
G01 X17.0500 Y72.1700
G01 X19.0500 Y72.1700
G01 X19.0647 Y72.1707
G01 X19.0793 Y72.1729
G01 X19.0935 Y72.1765
G01 X19.1074 Y72.1814
G01 X19.1207 Y72.1877
G01 X19.1333 Y72.1953
G01 X19.1452 Y72.2040
G01 X19.1561 Y72.2139
G01 X19.1660 Y72.2248
G01 X19.1747 Y72.2367
G01 X19.1823 Y72.2493
G01 X19.1886 Y72.2626
G01 X19.1935 Y72.2765
G01 X19.1971 Y72.2907
G01 X19.1993 Y72.3053
G01 X19.2000 Y72.3200
G01 X19.2000 Y74.3200
G01 X19.1993 Y74.3347
G01 X19.1971 Y74.3493
G01 X19.1935 Y74.3635
G01 X19.1886 Y74.3774
G01 X19.1823 Y74.3907
G01 X19.1747 Y74.4033
G01 X19.1660 Y74.4152
G01 X19.1561 Y74.4261
G01 X19.1452 Y74.4360
G01 X19.1333 Y74.4447
G01 X19.1207 Y74.4523
G01 X19.1074 Y74.4586
G01 X19.0935 Y74.4635
G01 X19.0793 Y74.4671
G01 X19.0647 Y74.4693
G01 X19.0500 Y74.4700
G01 X17.8196 Y74.4700
G01 X17.4303 Y74.8593
G01 X17.4303 Y81.9407
G01 X19.7194 Y84.2298
G01 X36.7006 Y84.2298
G01 X37.7802 Y83.1502
G01 X37.8219 Y83.1122
G01 X37.8333 Y83.1028
G01 X37.8727 Y83.0736
G01 X37.8850 Y83.0654
G01 X37.9271 Y83.0402
G01 X37.9400 Y83.0332
G01 X37.9844 Y83.0122
G01 X37.9980 Y83.0066
G01 X38.0442 Y82.9901
G01 X38.0583 Y82.9858
G01 X38.1060 Y82.9739
G01 X38.1204 Y82.9710
G01 X38.1689 Y82.9638
G01 X38.1836 Y82.9624
G01 X38.2400 Y82.9598
G01 X44.8500 Y82.9598
G01 X44.9064 Y82.9624
G01 X44.9211 Y82.9638
G01 X44.9696 Y82.9710
G01 X44.9841 Y82.9739
G01 X45.0317 Y82.9858
G01 X45.0458 Y82.9901
G01 X45.0920 Y83.0066
G01 X45.1056 Y83.0122
G01 X45.1500 Y83.0332
G01 X45.1629 Y83.0402
G01 X45.2050 Y83.0654
G01 X45.2173 Y83.0736
G01 X45.2567 Y83.1028
G01 X45.2681 Y83.1122
G01 X45.3098 Y83.1502
G01 X45.5734 Y83.4138
G01 X45.5907 Y83.4083
G01 X45.7097 Y83.3785
G01 X45.7241 Y83.3756
G01 X45.8455 Y83.3576
G01 X45.8601 Y83.3562
G01 X45.9826 Y83.3502
G01 X45.9974 Y83.3502
G01 X46.1199 Y83.3562
G01 X46.1345 Y83.3576
G01 X46.2559 Y83.3756
G01 X46.2703 Y83.3785
G01 X46.3893 Y83.4083
G01 X46.4034 Y83.4126
G01 X46.5189 Y83.4539
G01 X46.5325 Y83.4596
G01 X46.6434 Y83.5120
G01 X46.6564 Y83.5189
G01 X46.7616 Y83.5820
G01 X46.7738 Y83.5902
G01 X46.8723 Y83.6633
G01 X46.8837 Y83.6726
G01 X46.9746 Y83.7550
G01 X46.9850 Y83.7654
G01 X47.0674 Y83.8563
G01 X47.0767 Y83.8677
G01 X47.1498 Y83.9662
G01 X47.1580 Y83.9784
G01 X47.2211 Y84.0836
G01 X47.2280 Y84.0966
G01 X47.2804 Y84.2075
G01 X47.2861 Y84.2211
G01 X47.3274 Y84.3366
G01 X47.3317 Y84.3507
G01 X47.3615 Y84.4697
G01 X47.3644 Y84.4841
G01 X47.3824 Y84.6055
G01 X47.3838 Y84.6201
G01 X47.3898 Y84.7426
G01 X47.3898 Y84.7574
G01 X47.3838 Y84.8799
G01 X47.3824 Y84.8945
G01 X47.3644 Y85.0159
G01 X47.3615 Y85.0303
G01 X47.3317 Y85.1493
G01 X47.3274 Y85.1634
G01 X47.2861 Y85.2789
G01 X47.2804 Y85.2925
G01 X47.2280 Y85.4034
G01 X47.2211 Y85.4164
G01 X47.1580 Y85.5216
G01 X47.1498 Y85.5338
G01 X47.0767 Y85.6323
G01 X47.0674 Y85.6437
G01 X46.9850 Y85.7346
G01 X46.9746 Y85.7450
G01 X46.8837 Y85.8274
G01 X46.8723 Y85.8367
G01 X46.7738 Y85.9098
G01 X46.7616 Y85.9180
G01 X46.6564 Y85.9811
G01 X46.6434 Y85.9880
G01 X46.5325 Y86.0404
G01 X46.5189 Y86.0461
G01 X46.4034 Y86.0874
G01 X46.3893 Y86.0917
G01 X46.2703 Y86.1215
G01 X46.2559 Y86.1244
G01 X46.1345 Y86.1424
G01 X46.1199 Y86.1438
G01 X45.9974 Y86.1498
G01 X45.9826 Y86.1498
G01 X45.8601 Y86.1438
G01 X45.8455 Y86.1424
G01 X45.7241 Y86.1244
G01 X45.7097 Y86.1215
G01 X45.5907 Y86.0917
G01 X45.5766 Y86.0874
G01 X45.4611 Y86.0461
G01 X45.4475 Y86.0404
G01 X45.3366 Y85.9880
G01 X45.3236 Y85.9811
G01 X45.2184 Y85.9180
G01 X45.2062 Y85.9098
G01 X45.1077 Y85.8367
G01 X45.0963 Y85.8274
G01 X45.0054 Y85.7450
G01 X44.9950 Y85.7346
G01 X44.9126 Y85.6437
G01 X44.9033 Y85.6323
G01 X44.8302 Y85.5338
G01 X44.8220 Y85.5216
G01 X44.7589 Y85.4164
G01 X44.7520 Y85.4034
G01 X44.6996 Y85.2925
G01 X44.6939 Y85.2789
G01 X44.6526 Y85.1634
G01 X44.6483 Y85.1493
G01 X44.6185 Y85.0303
G01 X44.6156 Y85.0159
G01 X44.5976 Y84.8945
G01 X44.5962 Y84.8799
G01 X44.5902 Y84.7574
G01 X44.5902 Y84.7426
G01 X44.5962 Y84.6201
G01 X44.5976 Y84.6055
G01 X44.6156 Y84.4841
G01 X44.6185 Y84.4697
G01 X44.6483 Y84.3507
G01 X44.6538 Y84.3334
G01 X44.5807 Y84.2603
G01 X38.5093 Y84.2603
G01 X37.4298 Y85.3398
G01 X37.3881 Y85.3779
G01 X37.3767 Y85.3872
G01 X37.3373 Y85.4164
G01 X37.3250 Y85.4246
G01 X37.2829 Y85.4499
G01 X37.2699 Y85.4568
G01 X37.2256 Y85.4778
G01 X37.2120 Y85.4834
G01 X37.1657 Y85.5000
G01 X37.1517 Y85.5042
G01 X37.1040 Y85.5162
G01 X37.0896 Y85.5190
G01 X37.0410 Y85.5262
G01 X37.0264 Y85.5277
G01 X36.9774 Y85.5301
G01 X19.4500 Y85.5303
G01 X19.3936 Y85.5277
G01 X19.3790 Y85.5262
G01 X19.3304 Y85.5190
G01 X19.3160 Y85.5162
G01 X19.2683 Y85.5042
G01 X19.2543 Y85.5000
G01 X19.2080 Y85.4834
G01 X19.1944 Y85.4778
G01 X19.1501 Y85.4568
G01 X19.1371 Y85.4499
G01 X19.0950 Y85.4246
G01 X19.0827 Y85.4164
G01 X19.0433 Y85.3872
G01 X19.0319 Y85.3779
G01 X18.9902 Y85.3398
G01 X16.3202 Y82.6698
G01 X16.2822 Y82.6281
G01 X16.2728 Y82.6167
G01 X16.2436 Y82.5773
G01 X16.2354 Y82.5650
G01 X16.2102 Y82.5229
G01 X16.2032 Y82.5100
G01 X16.1822 Y82.4656
G01 X16.1766 Y82.4520
G01 X16.1601 Y82.4058
G01 X16.1558 Y82.3917
G01 X16.1439 Y82.3440
G01 X16.1410 Y82.3296
G01 X16.1338 Y82.2810
G01 X16.1323 Y82.2664
G01 X16.1298 Y82.2100
G01 X16.1298 Y75.2403
G01 X13.9180 Y75.2403
G01 X13.8635 Y75.3137
G01 X13.8542 Y75.3251
G01 X13.7883 Y75.3978
G01 X13.7778 Y75.4083
G01 X13.7051 Y75.4742
G01 X13.6937 Y75.4835
G01 X13.6149 Y75.5420
G01 X13.6027 Y75.5501
G01 X13.5185 Y75.6006
G01 X13.5055 Y75.6075
G01 X13.4168 Y75.6495
G01 X13.4032 Y75.6551
G01 X13.3108 Y75.6882
G01 X13.2967 Y75.6924
G01 X13.2015 Y75.7163
G01 X13.1871 Y75.7192
G01 X13.0900 Y75.7336
G01 X13.0754 Y75.7350
G01 X12.9774 Y75.7398
G01 X12.9626 Y75.7398
G01 X12.8646 Y75.7350
G01 X12.8500 Y75.7336
G01 X12.7529 Y75.7192
G01 X12.7385 Y75.7163
G01 X12.6433 Y75.6924
G01 X12.6292 Y75.6882
G01 X12.5368 Y75.6551
G01 X12.5232 Y75.6495
G01 X12.4345 Y75.6075
G01 X12.4215 Y75.6006
G01 X12.3373 Y75.5501
G01 X12.3251 Y75.5420
G01 X12.2463 Y75.4835
G01 X12.2349 Y75.4742
G01 X12.1622 Y75.4083
G01 X12.1518 Y75.3978
G01 X12.0858 Y75.3251
G01 X12.0765 Y75.3137
G01 X12.0220 Y75.2403
G01 X10.4300 Y75.2403
G01 X10.3736 Y75.2377
G01 X10.3590 Y75.2362
G01 X10.3104 Y75.2290
G01 X10.2960 Y75.2261
G01 X10.2483 Y75.2142
G01 X10.2343 Y75.2099
G01 X10.1880 Y75.1934
G01 X10.1744 Y75.1878
G01 X10.1301 Y75.1668
G01 X10.1171 Y75.1598
G01 X10.0750 Y75.1346
G01 X10.0627 Y75.1264
G01 X10.0233 Y75.0972
G01 X10.0119 Y75.0878
G01 X9.9702 Y75.0498
G01 X7.4302 Y72.5098
G01 X7.3922 Y72.4681
G01 X7.3828 Y72.4567
G01 X7.3536 Y72.4173
G01 X7.3454 Y72.4050
G01 X7.3202 Y72.3629
G01 X7.3132 Y72.3500
G01 X7.2922 Y72.3056
G01 X7.2866 Y72.2920
G01 X7.2701 Y72.2458
G01 X7.2658 Y72.2317
G01 X7.2539 Y72.1840
G01 X7.2510 Y72.1696
G01 X7.2438 Y72.1210
G01 X7.2423 Y72.1064
G01 X7.2399 Y72.0574
G01 X7.2398 Y70.6125
G01 X6.8900 Y70.6125
G01 X6.8753 Y70.6118
G01 X6.8607 Y70.6096
G01 X6.8465 Y70.6060
G01 X6.8326 Y70.6011
G01 X6.8193 Y70.5948
G01 X6.8067 Y70.5872
G01 X6.7948 Y70.5785
G01 X6.7839 Y70.5686
G01 X6.7740 Y70.5577
G01 X6.7653 Y70.5458
G01 X6.7577 Y70.5332
G01 X6.7514 Y70.5199
G01 X6.7465 Y70.5060
G01 X6.7429 Y70.4918
G01 X6.7407 Y70.4772
G01 X6.7400 Y70.4625
G01 X6.7400 Y69.4728
G01 X5.2226 Y69.4728
G01 X5.1662 Y69.4702
G01 X5.1516 Y69.4687
G01 X5.1030 Y69.4615
G01 X5.0886 Y69.4587
G01 X5.0409 Y69.4467
G01 X5.0268 Y69.4425
G01 X4.9806 Y69.4259
G01 X4.9670 Y69.4203
G01 X4.9226 Y69.3993
G01 X4.9097 Y69.3924
G01 X4.8676 Y69.3671
G01 X4.8553 Y69.3589
G01 X4.8159 Y69.3297
G01 X4.8045 Y69.3204
G01 X4.7628 Y69.2823
G01 X2.2202 Y66.7397
G01 X2.1821 Y66.6980
G01 X2.1728 Y66.6866
G01 X2.1436 Y66.6472
G01 X2.1354 Y66.6349
G01 X2.1101 Y66.5928
G01 X2.1032 Y66.5799
G01 X2.0822 Y66.5355
G01 X2.0766 Y66.5219
G01 X2.0600 Y66.4757
G01 X2.0558 Y66.4616
G01 X2.0438 Y66.4139
G01 X2.0410 Y66.3995
G01 X2.0338 Y66.3509
G01 X2.0323 Y66.3363
G01 X2.0297 Y66.2799
G01 X2.0297 Y39.4294
G01 X0.9502 Y38.3498
G01 X0.9121 Y38.3081
G01 X0.9028 Y38.2967
G01 X0.8736 Y38.2573
G01 X0.8654 Y38.2450
G01 X0.8401 Y38.2029
G01 X0.8332 Y38.1900
G01 X0.8122 Y38.1456
G01 X0.8066 Y38.1320
G01 X0.7900 Y38.0858
G01 X0.7858 Y38.0717
G01 X0.7738 Y38.0241
G01 X0.7710 Y38.0096
G01 X0.7638 Y37.9611
G01 X0.7623 Y37.9464
G01 X0.7597 Y37.8900
G01 X0.7597 Y20.6701
G01 X0.7623 Y20.6137
G01 X0.7638 Y20.5991
G01 X0.7710 Y20.5505
G01 X0.7738 Y20.5361
G01 X0.7858 Y20.4884
G01 X0.7900 Y20.4743
G01 X0.8066 Y20.4281
G01 X0.8122 Y20.4145
G01 X0.8332 Y20.3701
G01 X0.8401 Y20.3572
G01 X0.8654 Y20.3151
G01 X0.8736 Y20.3028
G01 X0.8898 Y20.2810
G00 Z2.0000
G00 X6.2980 Y23.1398
G01 F60.00
G01 Z-0.2000
G01 F120.00
G01 X6.9420 Y23.1398
G01 X6.9965 Y23.0663
G01 X7.0058 Y23.0549
G01 X7.0718 Y22.9822
G01 X7.0822 Y22.9718
G01 X7.1549 Y22.9058
G01 X7.1663 Y22.8965
G01 X7.2451 Y22.8381
G01 X7.2573 Y22.8299
G01 X7.3415 Y22.7794
G01 X7.3545 Y22.7725
G01 X7.4432 Y22.7305
G01 X7.4568 Y22.7249
G01 X7.5492 Y22.6918
G01 X7.5633 Y22.6876
G01 X7.6585 Y22.6637
G01 X7.6729 Y22.6608
G01 X7.7700 Y22.6464
G01 X7.7846 Y22.6450
G01 X7.8826 Y22.6402
G01 X7.8974 Y22.6402
G01 X7.9954 Y22.6450
G01 X8.0100 Y22.6464
G01 X8.1071 Y22.6608
G01 X8.1215 Y22.6637
G01 X8.2167 Y22.6876
G01 X8.2308 Y22.6918
G01 X8.3232 Y22.7249
G01 X8.3368 Y22.7305
G01 X8.4255 Y22.7725
G01 X8.4385 Y22.7794
G01 X8.5227 Y22.8299
G01 X8.5349 Y22.8381
G01 X8.6137 Y22.8965
G01 X8.6251 Y22.9058
G01 X8.6978 Y22.9718
G01 X8.7083 Y22.9822
G01 X8.7742 Y23.0549
G01 X8.7835 Y23.0663
G01 X8.8380 Y23.1398
G01 X11.1399 Y23.1398
G01 X11.1963 Y23.1423
G01 X11.2110 Y23.1438
G01 X11.2595 Y23.1510
G01 X11.2740 Y23.1539
G01 X11.3216 Y23.1658
G01 X11.3357 Y23.1701
G01 X11.3819 Y23.1866
G01 X11.3955 Y23.1922
G01 X11.4399 Y23.2132
G01 X11.4528 Y23.2202
G01 X11.4950 Y23.2454
G01 X11.5072 Y23.2536
G01 X11.5466 Y23.2828
G01 X11.5580 Y23.2922
G01 X11.5997 Y23.3302
G01 X13.9493 Y25.6798
G01 X35.8300 Y25.6798
G01 X35.8864 Y25.6823
G01 X35.9010 Y25.6838
G01 X35.9496 Y25.6910
G01 X35.9640 Y25.6939
G01 X36.0117 Y25.7058
G01 X36.0258 Y25.7101
G01 X36.0720 Y25.7266
G01 X36.0856 Y25.7322
G01 X36.1300 Y25.7532
G01 X36.1429 Y25.7602
G01 X36.1850 Y25.7854
G01 X36.1973 Y25.7936
G01 X36.2367 Y25.8228
G01 X36.2481 Y25.8322
G01 X36.2898 Y25.8702
G01 X38.2934 Y27.8741
G01 X38.3264 Y27.9105
G01 X38.3357 Y27.9218
G01 X38.3650 Y27.9613
G01 X38.3732 Y27.9735
G01 X38.3984 Y28.0156
G01 X38.4053 Y28.0286
G01 X38.4263 Y28.0730
G01 X38.4320 Y28.0866
G01 X38.4485 Y28.1328
G01 X38.4528 Y28.1469
G01 X38.4647 Y28.1945
G01 X38.4676 Y28.2089
G01 X38.4748 Y28.2575
G01 X38.4762 Y28.2722
G01 X38.4788 Y28.3286
G01 X38.4788 Y36.3891
G01 X39.9698 Y37.8801
G01 X40.0078 Y37.9218
G01 X40.0172 Y37.9332
G01 X40.0464 Y37.9726
G01 X40.0546 Y37.9849
G01 X40.0798 Y38.0270
G01 X40.0868 Y38.0400
G01 X40.1078 Y38.0843
G01 X40.1134 Y38.0979
G01 X40.1299 Y38.1442
G01 X40.1342 Y38.1582
G01 X40.1461 Y38.2059
G01 X40.1490 Y38.2203
G01 X40.1562 Y38.2689
G01 X40.1577 Y38.2835
G01 X40.1602 Y38.3399
G01 X40.1602 Y47.3401
G01 X40.1577 Y47.3965
G01 X40.1562 Y47.4111
G01 X40.1490 Y47.4597
G01 X40.1461 Y47.4741
G01 X40.1342 Y47.5218
G01 X40.1299 Y47.5358
G01 X40.1134 Y47.5821
G01 X40.1078 Y47.5957
G01 X40.0868 Y47.6400
G01 X40.0798 Y47.6530
G01 X40.0546 Y47.6951
G01 X40.0464 Y47.7074
G01 X40.0172 Y47.7468
G01 X40.0078 Y47.7582
G01 X39.9698 Y47.7999
G01 X37.1099 Y50.6598
G01 X37.0682 Y50.6978
G01 X37.0568 Y50.7072
G01 X37.0174 Y50.7364
G01 X37.0051 Y50.7446
G01 X36.9630 Y50.7698
G01 X36.9501 Y50.7768
G01 X36.9057 Y50.7977
G01 X36.8921 Y50.8034
G01 X36.8459 Y50.8199
G01 X36.8318 Y50.8242
G01 X36.7841 Y50.8361
G01 X36.7697 Y50.8390
G01 X36.7212 Y50.8462
G01 X36.7065 Y50.8476
G01 X36.6501 Y50.8502
G01 X34.3000 Y50.8502
G01 X34.2436 Y50.8476
G01 X34.2289 Y50.8462
G01 X34.1804 Y50.8390
G01 X34.1659 Y50.8361
G01 X34.1183 Y50.8242
G01 X34.1042 Y50.8199
G01 X34.0580 Y50.8034
G01 X34.0444 Y50.7977
G01 X34.0000 Y50.7768
G01 X33.9871 Y50.7698
G01 X33.9449 Y50.7446
G01 X33.9327 Y50.7364
G01 X33.8933 Y50.7072
G01 X33.8819 Y50.6978
G01 X33.8455 Y50.6649
G01 X32.8251 Y49.6445
G01 X32.7922 Y49.6081
G01 X32.7828 Y49.5967
G01 X32.7536 Y49.5573
G01 X32.7454 Y49.5450
G01 X32.7202 Y49.5029
G01 X32.7132 Y49.4900
G01 X32.6922 Y49.4456
G01 X32.6866 Y49.4320
G01 X32.6701 Y49.3858
G01 X32.6658 Y49.3717
G01 X32.6539 Y49.3240
G01 X32.6510 Y49.3096
G01 X32.6438 Y49.2610
G01 X32.6423 Y49.2464
G01 X32.6398 Y49.1900
G01 X32.6398 Y46.9193
G01 X29.2107 Y43.4903
G01 X20.1931 Y43.4903
G01 X20.1670 Y43.5256
G01 X20.1576 Y43.5369
G01 X20.0957 Y43.6053
G01 X20.0853 Y43.6157
G01 X20.0169 Y43.6776
G01 X20.0056 Y43.6870
G01 X19.9315 Y43.7419
G01 X19.9192 Y43.7501
G01 X19.8401 Y43.7975
G01 X19.8272 Y43.8044
G01 X19.7438 Y43.8439
G01 X19.7302 Y43.8495
G01 X19.6433 Y43.8806
G01 X19.6293 Y43.8848
G01 X19.5398 Y43.9072
G01 X19.5254 Y43.9101
G01 X19.4341 Y43.9237
G01 X19.4195 Y43.9251
G01 X19.3274 Y43.9296
G01 X19.3126 Y43.9296
G01 X19.2205 Y43.9251
G01 X19.2059 Y43.9237
G01 X19.1146 Y43.9101
G01 X19.1002 Y43.9072
G01 X19.0107 Y43.8848
G01 X18.9967 Y43.8806
G01 X18.9098 Y43.8495
G01 X18.8962 Y43.8439
G01 X18.8128 Y43.8044
G01 X18.7999 Y43.7975
G01 X18.7208 Y43.7501
G01 X18.7085 Y43.7419
G01 X18.6344 Y43.6870
G01 X18.6231 Y43.6776
G01 X18.5547 Y43.6157
G01 X18.5443 Y43.6053
G01 X18.4824 Y43.5369
G01 X18.4730 Y43.5256
G01 X18.4181 Y43.4515
G01 X18.4099 Y43.4392
G01 X18.3625 Y43.3601
G01 X18.3556 Y43.3472
G01 X18.3161 Y43.2638
G01 X18.3105 Y43.2502
G01 X18.2794 Y43.1633
G01 X18.2752 Y43.1493
G01 X18.2528 Y43.0598
G01 X18.2499 Y43.0454
G01 X18.2363 Y42.9541
G01 X18.2349 Y42.9395
G01 X18.2304 Y42.8474
G01 X18.2304 Y42.8326
G01 X18.2349 Y42.7405
G01 X18.2363 Y42.7259
G01 X18.2499 Y42.6346
G01 X18.2528 Y42.6202
G01 X18.2752 Y42.5307
G01 X18.2794 Y42.5167
G01 X18.3105 Y42.4298
G01 X18.3161 Y42.4162
G01 X18.3556 Y42.3328
G01 X18.3625 Y42.3199
G01 X18.4099 Y42.2408
G01 X18.4181 Y42.2285
G01 X18.4730 Y42.1544
G01 X18.4824 Y42.1431
G01 X18.5443 Y42.0747
G01 X18.5547 Y42.0643
G01 X18.6231 Y42.0024
G01 X18.6344 Y41.9930
G01 X18.7085 Y41.9381
G01 X18.7208 Y41.9299
G01 X18.7999 Y41.8825
G01 X18.8128 Y41.8756
G01 X18.8962 Y41.8361
G01 X18.9098 Y41.8305
G01 X18.9967 Y41.7994
G01 X19.0107 Y41.7952
G01 X19.1002 Y41.7728
G01 X19.1146 Y41.7699
G01 X19.2059 Y41.7563
G01 X19.2205 Y41.7549
G01 X19.3126 Y41.7504
G01 X19.3274 Y41.7504
G01 X19.4195 Y41.7549
G01 X19.4341 Y41.7563
G01 X19.5254 Y41.7699
G01 X19.5398 Y41.7728
G01 X19.6293 Y41.7952
G01 X19.6433 Y41.7994
G01 X19.7302 Y41.8305
G01 X19.7438 Y41.8361
G01 X19.8272 Y41.8756
G01 X19.8401 Y41.8825
G01 X19.9192 Y41.9299
G01 X19.9315 Y41.9381
G01 X20.0056 Y41.9930
G01 X20.0169 Y42.0024
G01 X20.0853 Y42.0643
G01 X20.0957 Y42.0747
G01 X20.1576 Y42.1431
G01 X20.1670 Y42.1544
G01 X20.1931 Y42.1898
G01 X29.4800 Y42.1898
G01 X29.5364 Y42.1923
G01 X29.5510 Y42.1938
G01 X29.5996 Y42.2010
G01 X29.6140 Y42.2039
G01 X29.6617 Y42.2158
G01 X29.6758 Y42.2201
G01 X29.7220 Y42.2366
G01 X29.7356 Y42.2422
G01 X29.7800 Y42.2632
G01 X29.7929 Y42.2702
G01 X29.8350 Y42.2954
G01 X29.8473 Y42.3036
G01 X29.8867 Y42.3328
G01 X29.8981 Y42.3422
G01 X29.9398 Y42.3802
G01 X33.7498 Y46.1902
G01 X33.7878 Y46.2319
G01 X33.7972 Y46.2433
G01 X33.8264 Y46.2827
G01 X33.8346 Y46.2950
G01 X33.8598 Y46.3371
G01 X33.8668 Y46.3501
G01 X33.8878 Y46.3944
G01 X33.8934 Y46.4080
G01 X33.9099 Y46.4543
G01 X33.9142 Y46.4683
G01 X33.9261 Y46.5160
G01 X33.9290 Y46.5304
G01 X33.9362 Y46.5790
G01 X33.9377 Y46.5936
G01 X33.9401 Y46.6426
G01 X33.9403 Y48.9207
G01 X34.5693 Y49.5497
G01 X36.3808 Y49.5497
G01 X38.8597 Y47.0708
G01 X38.8597 Y38.6092
G01 X37.3637 Y37.1129
G01 X37.3307 Y37.0766
G01 X37.3214 Y37.0652
G01 X37.2921 Y37.0257
G01 X37.2839 Y37.0135
G01 X37.2587 Y36.9714
G01 X37.2518 Y36.9584
G01 X37.2308 Y36.9140
G01 X37.2251 Y36.9004
G01 X37.2086 Y36.8542
G01 X37.2043 Y36.8401
G01 X37.1924 Y36.7925
G01 X37.1895 Y36.7781
G01 X37.1823 Y36.7295
G01 X37.1809 Y36.7149
G01 X37.1783 Y36.6585
G01 X37.1783 Y28.5979
G01 X35.5607 Y26.9803
G01 X13.6799 Y26.9803
G01 X13.6235 Y26.9777
G01 X13.6089 Y26.9762
G01 X13.5603 Y26.9690
G01 X13.5459 Y26.9661
G01 X13.4983 Y26.9542
G01 X13.4842 Y26.9499
G01 X13.4379 Y26.9334
G01 X13.4243 Y26.9278
G01 X13.3800 Y26.9068
G01 X13.3670 Y26.8998
G01 X13.3249 Y26.8746
G01 X13.3126 Y26.8664
G01 X13.2732 Y26.8372
G01 X13.2618 Y26.8278
G01 X13.2254 Y26.7949
G01 X10.8706 Y24.4403
G01 X8.8380 Y24.4403
G01 X8.7835 Y24.5137
G01 X8.7742 Y24.5251
G01 X8.7083 Y24.5978
G01 X8.6978 Y24.6083
G01 X8.6251 Y24.6742
G01 X8.6137 Y24.6835
G01 X8.5349 Y24.7420
G01 X8.5227 Y24.7501
G01 X8.4385 Y24.8006
G01 X8.4255 Y24.8075
G01 X8.3368 Y24.8495
G01 X8.3232 Y24.8551
G01 X8.2308 Y24.8882
G01 X8.2167 Y24.8924
G01 X8.1215 Y24.9163
G01 X8.1071 Y24.9192
G01 X8.0100 Y24.9336
G01 X7.9954 Y24.9350
G01 X7.8974 Y24.9398
G01 X7.8826 Y24.9398
G01 X7.7846 Y24.9350
G01 X7.7700 Y24.9336
G01 X7.6729 Y24.9192
G01 X7.6585 Y24.9163
G01 X7.5633 Y24.8924
G01 X7.5492 Y24.8882
G01 X7.4568 Y24.8551
G01 X7.4432 Y24.8495
G01 X7.3545 Y24.8075
G01 X7.3415 Y24.8006
G01 X7.2573 Y24.7501
G01 X7.2451 Y24.7420
G01 X7.1663 Y24.6835
G01 X7.1549 Y24.6742
G01 X7.0822 Y24.6083
G01 X7.0718 Y24.5978
G01 X7.0058 Y24.5251
G01 X6.9965 Y24.5137
G01 X6.9420 Y24.4403
G01 X6.2980 Y24.4403
G01 X6.2435 Y24.5137
G01 X6.2342 Y24.5251
G01 X6.1683 Y24.5978
G01 X6.1578 Y24.6083
G01 X6.0851 Y24.6742
G01 X6.0737 Y24.6835
G01 X5.9949 Y24.7420
G01 X5.9827 Y24.7501
G01 X5.8985 Y24.8006
G01 X5.8855 Y24.8075
G01 X5.7968 Y24.8495
G01 X5.7832 Y24.8551
G01 X5.6908 Y24.8882
G01 X5.6767 Y24.8924
G01 X5.5815 Y24.9163
G01 X5.5671 Y24.9192
G01 X5.4700 Y24.9336
G01 X5.4554 Y24.9350
G01 X5.3574 Y24.9398
G01 X5.3426 Y24.9398
G01 X5.2446 Y24.9350
G01 X5.2300 Y24.9336
G01 X5.1329 Y24.9192
G01 X5.1185 Y24.9163
G01 X5.0233 Y24.8924
G01 X5.0092 Y24.8882
G01 X4.9168 Y24.8551
G01 X4.9032 Y24.8495
G01 X4.8145 Y24.8075
G01 X4.8015 Y24.8006
G01 X4.7173 Y24.7501
G01 X4.7051 Y24.7420
G01 X4.6263 Y24.6835
G01 X4.6149 Y24.6742
G01 X4.5422 Y24.6083
G01 X4.5318 Y24.5978
G01 X4.4658 Y24.5251
G01 X4.4565 Y24.5137
G01 X4.3981 Y24.4349
G01 X4.3899 Y24.4227
G01 X4.3394 Y24.3385
G01 X4.3325 Y24.3255
G01 X4.2905 Y24.2368
G01 X4.2849 Y24.2232
G01 X4.2518 Y24.1308
G01 X4.2476 Y24.1167
G01 X4.2237 Y24.0215
G01 X4.2208 Y24.0071
G01 X4.2064 Y23.9100
G01 X4.2050 Y23.8954
G01 X4.2002 Y23.7974
G01 X4.2002 Y23.7826
G01 X4.2050 Y23.6846
G01 X4.2064 Y23.6700
G01 X4.2208 Y23.5729
G01 X4.2237 Y23.5585
G01 X4.2476 Y23.4633
G01 X4.2518 Y23.4492
G01 X4.2849 Y23.3568
G01 X4.2905 Y23.3432
G01 X4.3325 Y23.2545
G01 X4.3394 Y23.2415
G01 X4.3899 Y23.1573
G01 X4.3981 Y23.1451
G01 X4.4565 Y23.0663
G01 X4.4658 Y23.0549
G01 X4.5318 Y22.9822
G01 X4.5422 Y22.9718
G01 X4.6149 Y22.9058
G01 X4.6263 Y22.8965
G01 X4.7051 Y22.8381
G01 X4.7173 Y22.8299
G01 X4.8015 Y22.7794
G01 X4.8145 Y22.7725
G01 X4.9032 Y22.7305
G01 X4.9168 Y22.7249
G01 X5.0092 Y22.6918
G01 X5.0233 Y22.6876
G01 X5.1185 Y22.6637
G01 X5.1329 Y22.6608
G01 X5.2300 Y22.6464
G01 X5.2446 Y22.6450
G01 X5.3426 Y22.6402
G01 X5.3574 Y22.6402
G01 X5.4554 Y22.6450
G01 X5.4700 Y22.6464
G01 X5.5671 Y22.6608
G01 X5.5815 Y22.6637
G01 X5.6767 Y22.6876
G01 X5.6908 Y22.6918
G01 X5.7832 Y22.7249
G01 X5.7968 Y22.7305
G01 X5.8855 Y22.7725
G01 X5.8985 Y22.7794
G01 X5.9827 Y22.8299
G01 X5.9949 Y22.8381
G01 X6.0737 Y22.8965
G01 X6.0851 Y22.9058
G01 X6.1578 Y22.9718
G01 X6.1683 Y22.9822
G01 X6.2342 Y23.0549
G01 X6.2435 Y23.0663
G01 X6.2980 Y23.1398
G00 Z2.0000
G00 X6.1953 Y25.2547
G01 F60.00
G01 Z-0.2000
G01 F120.00
G01 X6.1793 Y25.2373
G01 X6.1640 Y25.2169
G01 X6.1570 Y25.2062
G01 X6.1501 Y25.1946
G01 X6.1439 Y25.1827
G01 X6.1384 Y25.1708
G01 X6.1332 Y25.1581
G01 X6.1291 Y25.1465
G01 X6.1249 Y25.1325
G01 X6.1220 Y25.1206
G01 X6.1191 Y25.1063
G01 X6.1174 Y25.0941
G01 X6.1159 Y25.0796
G01 X6.1153 Y25.0673
G01 X6.1153 Y25.0527
G01 X6.1159 Y25.0404
G01 X6.1174 Y25.0259
G01 X6.1191 Y25.0137
G01 X6.1220 Y24.9994
G01 X6.1249 Y24.9875
G01 X6.1285 Y24.9752
G01 X6.1372 Y24.9517
G01 X6.1485 Y24.9284
G01 X6.1570 Y24.9138
G01 X6.1625 Y24.9052
G01 X6.1723 Y24.8917
G01 X6.1829 Y24.8787
G01 X6.1955 Y24.8649
G01 X6.3313 Y24.7291
G01 X6.3459 Y24.7156
G01 X6.3573 Y24.7063
G01 X6.3673 Y24.6989
G01 X6.3795 Y24.6907
G01 X6.3902 Y24.6843
G01 X6.4032 Y24.6773
G01 X6.4145 Y24.6720
G01 X6.4281 Y24.6664
G01 X6.4398 Y24.6622
G01 X6.4539 Y24.6579
G01 X6.4660 Y24.6549
G01 X6.4804 Y24.6520
G01 X6.4928 Y24.6502
G01 X6.5074 Y24.6487
G01 X6.5272 Y24.6479
G01 X6.7201 Y24.6481
G01 X6.7326 Y24.6487
G01 X6.7472 Y24.6502
G01 X6.7596 Y24.6520
G01 X6.7740 Y24.6549
G01 X6.7861 Y24.6579
G01 X6.8002 Y24.6622
G01 X6.8119 Y24.6664
G01 X6.8255 Y24.6720
G01 X6.8368 Y24.6773
G01 X6.8498 Y24.6843
G01 X6.8605 Y24.6907
G01 X6.8727 Y24.6989
G01 X6.8827 Y24.7063
G01 X6.8941 Y24.7156
G01 X6.9087 Y24.7291
G01 X7.0447 Y24.8651
G01 X7.0588 Y24.8806
G01 X7.0680 Y24.8920
G01 X7.0753 Y24.9020
G01 X7.0833 Y24.9143
G01 X7.0896 Y24.9249
G01 X7.0964 Y24.9379
G01 X7.1016 Y24.9491
G01 X7.1071 Y24.9627
G01 X7.1112 Y24.9744
G01 X7.1153 Y24.9884
G01 X7.1183 Y25.0005
G01 X7.1210 Y25.0148
G01 X7.1228 Y25.0271
G01 X7.1241 Y25.0417
G01 X7.1247 Y25.0540
G01 X7.1246 Y25.0687
G01 X7.1239 Y25.0810
G01 X7.1225 Y25.0956
G01 X7.1206 Y25.1078
G01 X7.1177 Y25.1222
G01 X7.1146 Y25.1342
G01 X7.1103 Y25.1482
G01 X7.1061 Y25.1598
G01 X7.1005 Y25.1733
G01 X7.0952 Y25.1845
G01 X7.0883 Y25.1974
G01 X7.0819 Y25.2080
G01 X7.0737 Y25.2202
G01 X7.0663 Y25.2301
G01 X7.0570 Y25.2414
G01 X7.0437 Y25.2559
G01 X6.9087 Y25.3909
G01 X6.8941 Y25.4044
G01 X6.8827 Y25.4137
G01 X6.8727 Y25.4211
G01 X6.8605 Y25.4293
G01 X6.8498 Y25.4357
G01 X6.8368 Y25.4427
G01 X6.8255 Y25.4480
G01 X6.8119 Y25.4536
G01 X6.8002 Y25.4578
G01 X6.7861 Y25.4621
G01 X6.7740 Y25.4651
G01 X6.7596 Y25.4680
G01 X6.7472 Y25.4698
G01 X6.7326 Y25.4713
G01 X6.7128 Y25.4721
G01 X6.5272 Y25.4721
G01 X6.5074 Y25.4713
G01 X6.4928 Y25.4698
G01 X6.4804 Y25.4680
G01 X6.4660 Y25.4651
G01 X6.4539 Y25.4621
G01 X6.4398 Y25.4578
G01 X6.4281 Y25.4536
G01 X6.4145 Y25.4480
G01 X6.4032 Y25.4427
G01 X6.3902 Y25.4357
G01 X6.3795 Y25.4293
G01 X6.3673 Y25.4211
G01 X6.3573 Y25.4137
G01 X6.3459 Y25.4044
G01 X6.3313 Y25.3909
G01 X6.1953 Y25.2547
G00 Z2.0000
G00 X6.2980 Y25.6798
G01 F60.00
G01 Z-0.2000
G01 F120.00
G01 X6.9420 Y25.6798
G01 X6.9965 Y25.6063
G01 X7.0058 Y25.5949
G01 X7.0718 Y25.5222
G01 X7.0822 Y25.5118
G01 X7.1549 Y25.4458
G01 X7.1663 Y25.4365
G01 X7.2451 Y25.3781
G01 X7.2573 Y25.3699
G01 X7.3415 Y25.3194
G01 X7.3545 Y25.3125
G01 X7.4432 Y25.2705
G01 X7.4568 Y25.2649
G01 X7.5492 Y25.2318
G01 X7.5633 Y25.2276
G01 X7.6585 Y25.2037
G01 X7.6729 Y25.2008
G01 X7.7700 Y25.1864
G01 X7.7846 Y25.1850
G01 X7.8826 Y25.1802
G01 X7.8974 Y25.1802
G01 X7.9954 Y25.1850
G01 X8.0100 Y25.1864
G01 X8.1071 Y25.2008
G01 X8.1215 Y25.2037
G01 X8.2167 Y25.2276
G01 X8.2308 Y25.2318
G01 X8.3232 Y25.2649
G01 X8.3368 Y25.2705
G01 X8.4255 Y25.3125
G01 X8.4385 Y25.3194
G01 X8.5227 Y25.3699
G01 X8.5349 Y25.3781
G01 X8.6137 Y25.4365
G01 X8.6251 Y25.4458
G01 X8.6978 Y25.5118
G01 X8.7083 Y25.5222
G01 X8.7742 Y25.5949
G01 X8.7835 Y25.6063
G01 X8.8380 Y25.6798
G01 X9.1905 Y25.6798
G01 X9.1989 Y25.6636
G01 X9.2620 Y25.5584
G01 X9.2702 Y25.5462
G01 X9.3433 Y25.4477
G01 X9.3526 Y25.4363
G01 X9.4350 Y25.3454
G01 X9.4454 Y25.3350
G01 X9.5363 Y25.2526
G01 X9.5477 Y25.2433
G01 X9.6462 Y25.1702
G01 X9.6584 Y25.1620
G01 X9.7636 Y25.0989
G01 X9.7766 Y25.0920
G01 X9.8875 Y25.0396
G01 X9.9011 Y25.0339
G01 X10.0166 Y24.9926
G01 X10.0307 Y24.9883
G01 X10.1497 Y24.9585
G01 X10.1641 Y24.9556
G01 X10.2855 Y24.9376
G01 X10.3001 Y24.9362
G01 X10.4226 Y24.9302
G01 X10.4374 Y24.9302
G01 X10.5599 Y24.9362
G01 X10.5745 Y24.9376
G01 X10.6959 Y24.9556
G01 X10.7103 Y24.9585
G01 X10.8293 Y24.9883
G01 X10.8434 Y24.9926
G01 X10.9589 Y25.0339
G01 X10.9725 Y25.0396
G01 X11.0834 Y25.0920
G01 X11.0964 Y25.0989
G01 X11.2016 Y25.1620
G01 X11.2138 Y25.1702
G01 X11.3123 Y25.2433
G01 X11.3237 Y25.2526
G01 X11.4146 Y25.3350
G01 X11.4250 Y25.3454
G01 X11.5074 Y25.4363
G01 X11.5167 Y25.4477
G01 X11.5898 Y25.5462
G01 X11.5980 Y25.5584
G01 X11.6611 Y25.6636
G01 X11.6680 Y25.6766
G01 X11.7204 Y25.7875
G01 X11.7261 Y25.8011
G01 X11.7674 Y25.9166
G01 X11.7717 Y25.9307
G01 X11.8015 Y26.0497
G01 X11.8044 Y26.0641
G01 X11.8224 Y26.1855
G01 X11.8238 Y26.2001
G01 X11.8298 Y26.3226
G01 X11.8298 Y26.3374
G01 X11.8238 Y26.4599
G01 X11.8224 Y26.4745
G01 X11.8044 Y26.5959
G01 X11.8015 Y26.6103
G01 X11.7717 Y26.7293
G01 X11.7674 Y26.7434
G01 X11.7261 Y26.8589
G01 X11.7204 Y26.8725
G01 X11.6680 Y26.9834
G01 X11.6611 Y26.9964
G01 X11.5980 Y27.1016
G01 X11.5898 Y27.1138
G01 X11.5167 Y27.2123
G01 X11.5074 Y27.2237
G01 X11.4250 Y27.3146
G01 X11.4146 Y27.3250
G01 X11.3237 Y27.4074
G01 X11.3123 Y27.4167
G01 X11.2138 Y27.4898
G01 X11.2016 Y27.4980
G01 X11.0964 Y27.5611
G01 X11.0834 Y27.5680
G01 X10.9725 Y27.6204
G01 X10.9589 Y27.6261
G01 X10.8434 Y27.6674
G01 X10.8293 Y27.6717
G01 X10.7103 Y27.7015
G01 X10.6959 Y27.7044
G01 X10.5745 Y27.7224
G01 X10.5599 Y27.7238
G01 X10.4374 Y27.7298
G01 X10.4226 Y27.7298
G01 X10.3001 Y27.7238
G01 X10.2855 Y27.7224
G01 X10.1641 Y27.7044
G01 X10.1497 Y27.7015
G01 X10.0307 Y27.6717
G01 X10.0166 Y27.6674
G01 X9.9011 Y27.6261
G01 X9.8875 Y27.6204
G01 X9.7766 Y27.5680
G01 X9.7636 Y27.5611
G01 X9.6584 Y27.4980
G01 X9.6462 Y27.4898
G01 X9.5477 Y27.4167
G01 X9.5363 Y27.4074
G01 X9.4454 Y27.3250
G01 X9.4350 Y27.3146
G01 X9.3526 Y27.2237
G01 X9.3433 Y27.2123
G01 X9.2702 Y27.1138
G01 X9.2620 Y27.1016
G01 X9.1989 Y26.9964
G01 X9.1905 Y26.9803
G01 X8.8380 Y26.9803
G01 X8.7835 Y27.0537
G01 X8.7742 Y27.0651
G01 X8.7083 Y27.1378
G01 X8.6978 Y27.1483
G01 X8.6251 Y27.2142
G01 X8.6137 Y27.2235
G01 X8.5349 Y27.2820
G01 X8.5227 Y27.2901
G01 X8.4385 Y27.3406
G01 X8.4255 Y27.3475
G01 X8.3368 Y27.3895
G01 X8.3232 Y27.3951
G01 X8.2308 Y27.4282
G01 X8.2167 Y27.4324
G01 X8.1215 Y27.4563
G01 X8.1071 Y27.4592
G01 X8.0100 Y27.4736
G01 X7.9954 Y27.4750
G01 X7.8974 Y27.4798
G01 X7.8826 Y27.4798
G01 X7.7846 Y27.4750
G01 X7.7700 Y27.4736
G01 X7.6729 Y27.4592
G01 X7.6585 Y27.4563
G01 X7.5633 Y27.4324
G01 X7.5492 Y27.4282
G01 X7.4568 Y27.3951
G01 X7.4432 Y27.3895
G01 X7.3545 Y27.3475
G01 X7.3415 Y27.3406
G01 X7.2573 Y27.2901
G01 X7.2451 Y27.2820
G01 X7.1663 Y27.2235
G01 X7.1549 Y27.2142
G01 X7.0822 Y27.1483
G01 X7.0718 Y27.1378
G01 X7.0058 Y27.0651
G01 X6.9965 Y27.0537
G01 X6.9420 Y26.9803
G01 X6.2980 Y26.9803
G01 X6.2435 Y27.0537
G01 X6.2342 Y27.0651
G01 X6.1683 Y27.1378
G01 X6.1578 Y27.1483
G01 X6.0851 Y27.2142
G01 X6.0737 Y27.2235
G01 X5.9949 Y27.2820
G01 X5.9827 Y27.2901
G01 X5.8985 Y27.3406
G01 X5.8855 Y27.3475
G01 X5.7968 Y27.3895
G01 X5.7832 Y27.3951
G01 X5.6908 Y27.4282
G01 X5.6767 Y27.4324
G01 X5.5815 Y27.4563
G01 X5.5671 Y27.4592
G01 X5.4700 Y27.4736
G01 X5.4554 Y27.4750
G01 X5.3574 Y27.4798
G01 X5.3426 Y27.4798
G01 X5.2446 Y27.4750
G01 X5.2300 Y27.4736
G01 X5.1329 Y27.4592
G01 X5.1185 Y27.4563
G01 X5.0233 Y27.4324
G01 X5.0092 Y27.4282
G01 X4.9168 Y27.3951
G01 X4.9032 Y27.3895
G01 X4.8145 Y27.3475
G01 X4.8015 Y27.3406
G01 X4.7173 Y27.2901
G01 X4.7051 Y27.2820
G01 X4.6263 Y27.2235
G01 X4.6149 Y27.2142
G01 X4.5422 Y27.1483
G01 X4.5318 Y27.1378
G01 X4.4658 Y27.0651
G01 X4.4565 Y27.0537
G01 X4.3981 Y26.9749
G01 X4.3899 Y26.9627
G01 X4.3394 Y26.8785
G01 X4.3325 Y26.8655
G01 X4.2905 Y26.7768
G01 X4.2849 Y26.7632
G01 X4.2518 Y26.6708
G01 X4.2476 Y26.6567
G01 X4.2237 Y26.5615
G01 X4.2208 Y26.5471
G01 X4.2064 Y26.4500
G01 X4.2050 Y26.4354
G01 X4.2002 Y26.3374
G01 X4.2002 Y26.3226
G01 X4.2050 Y26.2246
G01 X4.2064 Y26.2100
G01 X4.2208 Y26.1129
G01 X4.2237 Y26.0985
G01 X4.2476 Y26.0033
G01 X4.2518 Y25.9892
G01 X4.2849 Y25.8968
G01 X4.2905 Y25.8832
G01 X4.3325 Y25.7945
G01 X4.3394 Y25.7815
G01 X4.3899 Y25.6973
G01 X4.3981 Y25.6851
G01 X4.4565 Y25.6063
G01 X4.4658 Y25.5949
G01 X4.5318 Y25.5222
G01 X4.5422 Y25.5118
G01 X4.6149 Y25.4458
G01 X4.6263 Y25.4365
G01 X4.7051 Y25.3781
G01 X4.7173 Y25.3699
G01 X4.8015 Y25.3194
G01 X4.8145 Y25.3125
G01 X4.9032 Y25.2705
G01 X4.9168 Y25.2649
G01 X5.0092 Y25.2318
G01 X5.0233 Y25.2276
G01 X5.1185 Y25.2037
G01 X5.1329 Y25.2008
G01 X5.2300 Y25.1864
G01 X5.2446 Y25.1850
G01 X5.3426 Y25.1802
G01 X5.3574 Y25.1802
G01 X5.4554 Y25.1850
G01 X5.4700 Y25.1864
G01 X5.5671 Y25.2008
G01 X5.5815 Y25.2037
G01 X5.6767 Y25.2276
G01 X5.6908 Y25.2318
G01 X5.7832 Y25.2649
G01 X5.7968 Y25.2705
G01 X5.8855 Y25.3125
G01 X5.8985 Y25.3194
G01 X5.9827 Y25.3699
G01 X5.9949 Y25.3781
G01 X6.0737 Y25.4365
G01 X6.0851 Y25.4458
G01 X6.1578 Y25.5118
G01 X6.1683 Y25.5222
G01 X6.2342 Y25.5949
G01 X6.2435 Y25.6063
G01 X6.2980 Y25.6798
G00 Z2.0000
G00 X6.8129 Y28.0264
G01 F60.00
G01 Z-0.2000
G01 F120.00
G01 X6.7994 Y28.0388
G01 X6.7880 Y28.0480
G01 X6.7780 Y28.0553
G01 X6.7657 Y28.0633
G01 X6.7551 Y28.0696
G01 X6.7421 Y28.0764
G01 X6.7308 Y28.0816
G01 X6.7173 Y28.0871
G01 X6.7056 Y28.0912
G01 X6.6916 Y28.0953
G01 X6.6795 Y28.0983
G01 X6.6652 Y28.1010
G01 X6.6529 Y28.1028
G01 X6.6383 Y28.1041
G01 X6.6260 Y28.1047
G01 X6.6113 Y28.1046
G01 X6.5990 Y28.1039
G01 X6.5844 Y28.1025
G01 X6.5722 Y28.1006
G01 X6.5578 Y28.0977
G01 X6.5458 Y28.0946
G01 X6.5318 Y28.0903
G01 X6.5202 Y28.0861
G01 X6.5067 Y28.0805
G01 X6.4955 Y28.0752
G01 X6.4826 Y28.0683
G01 X6.4720 Y28.0619
G01 X6.4598 Y28.0537
G01 X6.4499 Y28.0463
G01 X6.4386 Y28.0371
G01 X6.4241 Y28.0237
G01 X6.1896 Y27.7889
G01 X6.1793 Y27.7773
G01 X6.1723 Y27.7683
G01 X6.1635 Y27.7562
G01 X6.1570 Y27.7462
G01 X6.1501 Y27.7346
G01 X6.1439 Y27.7227
G01 X6.1384 Y27.7108
G01 X6.1332 Y27.6981
G01 X6.1291 Y27.6865
G01 X6.1249 Y27.6725
G01 X6.1220 Y27.6606
G01 X6.1191 Y27.6463
G01 X6.1174 Y27.6341
G01 X6.1159 Y27.6196
G01 X6.1153 Y27.6073
G01 X6.1153 Y27.5927
G01 X6.1159 Y27.5804
G01 X6.1174 Y27.5659
G01 X6.1191 Y27.5537
G01 X6.1220 Y27.5394
G01 X6.1249 Y27.5275
G01 X6.1285 Y27.5152
G01 X6.1372 Y27.4917
G01 X6.1485 Y27.4684
G01 X6.1570 Y27.4538
G01 X6.1661 Y27.4400
G01 X6.1777 Y27.4247
G01 X6.1896 Y27.4111
G01 X6.3313 Y27.2691
G01 X6.3459 Y27.2556
G01 X6.3573 Y27.2463
G01 X6.3673 Y27.2389
G01 X6.3795 Y27.2307
G01 X6.3902 Y27.2243
G01 X6.4032 Y27.2173
G01 X6.4145 Y27.2120
G01 X6.4281 Y27.2064
G01 X6.4398 Y27.2022
G01 X6.4539 Y27.1979
G01 X6.4660 Y27.1949
G01 X6.4804 Y27.1920
G01 X6.4928 Y27.1902
G01 X6.5074 Y27.1887
G01 X6.5199 Y27.1881
G01 X6.7128 Y27.1879
G01 X6.7326 Y27.1887
G01 X6.7472 Y27.1902
G01 X6.7596 Y27.1920
G01 X6.7740 Y27.1949
G01 X6.7861 Y27.1979
G01 X6.8002 Y27.2022
G01 X6.8119 Y27.2064
G01 X6.8255 Y27.2120
G01 X6.8368 Y27.2173
G01 X6.8498 Y27.2243
G01 X6.8605 Y27.2307
G01 X6.8727 Y27.2389
G01 X6.8827 Y27.2463
G01 X6.8941 Y27.2556
G01 X6.9087 Y27.2691
G01 X7.0506 Y27.4114
G01 X7.0588 Y27.4206
G01 X7.0680 Y27.4320
G01 X7.0753 Y27.4420
G01 X7.0833 Y27.4543
G01 X7.0896 Y27.4649
G01 X7.0964 Y27.4779
G01 X7.1016 Y27.4892
G01 X7.1071 Y27.5027
G01 X7.1112 Y27.5144
G01 X7.1153 Y27.5284
G01 X7.1183 Y27.5405
G01 X7.1210 Y27.5548
G01 X7.1228 Y27.5671
G01 X7.1241 Y27.5817
G01 X7.1247 Y27.5940
G01 X7.1246 Y27.6087
G01 X7.1239 Y27.6210
G01 X7.1225 Y27.6356
G01 X7.1206 Y27.6478
G01 X7.1177 Y27.6622
G01 X7.1146 Y27.6742
G01 X7.1103 Y27.6882
G01 X7.1061 Y27.6998
G01 X7.1005 Y27.7133
G01 X7.0952 Y27.7245
G01 X7.0883 Y27.7374
G01 X7.0819 Y27.7480
G01 X7.0737 Y27.7602
G01 X7.0663 Y27.7701
G01 X7.0571 Y27.7814
G01 X7.0487 Y27.7906
G01 X6.8129 Y28.0264
G00 Z2.0000
G00 X8.7311 Y27.4097
G01 F60.00
G01 Z-0.2000
G01 F120.00
G01 X8.7926 Y27.3480
G01 X8.8019 Y27.3397
G01 X8.8133 Y27.3303
G01 X8.8233 Y27.3229
G01 X8.8355 Y27.3147
G01 X8.8462 Y27.3083
G01 X8.8592 Y27.3014
G01 X8.8705 Y27.2960
G01 X8.8841 Y27.2904
G01 X8.8958 Y27.2862
G01 X8.9099 Y27.2819
G01 X8.9220 Y27.2789
G01 X8.9364 Y27.2760
G01 X8.9488 Y27.2742
G01 X8.9634 Y27.2727
G01 X8.9759 Y27.2721
G01 X8.9906 Y27.2721
G01 X9.0030 Y27.2727
G01 X9.0177 Y27.2742
G01 X9.0300 Y27.2760
G01 X9.0445 Y27.2789
G01 X9.0566 Y27.2819
G01 X9.0706 Y27.2862
G01 X9.0824 Y27.2904
G01 X9.0960 Y27.2960
G01 X9.1073 Y27.3014
G01 X9.1202 Y27.3083
G01 X9.1309 Y27.3147
G01 X9.1432 Y27.3229
G01 X9.1532 Y27.3303
G01 X9.1646 Y27.3397
G01 X9.1791 Y27.3531
G01 X9.3651 Y27.5391
G01 X9.3786 Y27.5537
G01 X9.3879 Y27.5650
G01 X9.3953 Y27.5750
G01 X9.4035 Y27.5873
G01 X9.4099 Y27.5980
G01 X9.4169 Y27.6110
G01 X9.4222 Y27.6222
G01 X9.4278 Y27.6358
G01 X9.4320 Y27.6476
G01 X9.4363 Y27.6617
G01 X9.4393 Y27.6738
G01 X9.4422 Y27.6882
G01 X9.4440 Y27.7005
G01 X9.4455 Y27.7152
G01 X9.4461 Y27.7276
G01 X9.4461 Y27.7424
G01 X9.4455 Y27.7548
G01 X9.4440 Y27.7695
G01 X9.4422 Y27.7818
G01 X9.4393 Y27.7962
G01 X9.4363 Y27.8083
G01 X9.4320 Y27.8224
G01 X9.4278 Y27.8342
G01 X9.4222 Y27.8478
G01 X9.4169 Y27.8590
G01 X9.4099 Y27.8720
G01 X9.4035 Y27.8827
G01 X9.3953 Y27.8950
G01 X9.3879 Y27.9050
G01 X9.3786 Y27.9163
G01 X9.3702 Y27.9256
G01 X9.3598 Y27.9360
G01 X9.3506 Y27.9444
G01 X9.3392 Y27.9537
G01 X9.3292 Y27.9611
G01 X9.3169 Y27.9693
G01 X9.3062 Y27.9757
G01 X9.2932 Y27.9827
G01 X9.2820 Y27.9880
G01 X9.2684 Y27.9936
G01 X9.2566 Y27.9978
G01 X9.2425 Y28.0021
G01 X9.2304 Y28.0051
G01 X9.2160 Y28.0080
G01 X9.2037 Y28.0098
G01 X9.1890 Y28.0113
G01 X9.1692 Y28.0121
G01 X9.0672 Y28.0121
G01 X9.0474 Y28.0113
G01 X9.0328 Y28.0098
G01 X9.0204 Y28.0080
G01 X9.0060 Y28.0051
G01 X8.9939 Y28.0021
G01 X8.9798 Y27.9978
G01 X8.9681 Y27.9936
G01 X8.9545 Y27.9880
G01 X8.9432 Y27.9827
G01 X8.9302 Y27.9757
G01 X8.9195 Y27.9693
G01 X8.9073 Y27.9611
G01 X8.8973 Y27.9537
G01 X8.8859 Y27.9444
G01 X8.8713 Y27.9309
G01 X8.7355 Y27.7951
G01 X8.7193 Y27.7773
G01 X8.7123 Y27.7683
G01 X8.7035 Y27.7562
G01 X8.6970 Y27.7462
G01 X8.6898 Y27.7340
G01 X8.6839 Y27.7227
G01 X8.6784 Y27.7108
G01 X8.6732 Y27.6981
G01 X8.6691 Y27.6865
G01 X8.6649 Y27.6725
G01 X8.6620 Y27.6606
G01 X8.6591 Y27.6463
G01 X8.6574 Y27.6341
G01 X8.6559 Y27.6196
G01 X8.6553 Y27.6073
G01 X8.6553 Y27.5927
G01 X8.6559 Y27.5804
G01 X8.6574 Y27.5659
G01 X8.6591 Y27.5537
G01 X8.6620 Y27.5394
G01 X8.6649 Y27.5275
G01 X8.6684 Y27.5156
G01 X8.6732 Y27.5019
G01 X8.6774 Y27.4912
G01 X8.6885 Y27.4684
G01 X8.6970 Y27.4538
G01 X8.7061 Y27.4400
G01 X8.7177 Y27.4247
G01 X8.7311 Y27.4097
G00 Z2.0000
G00 X8.8380 Y28.2198
G01 F60.00
G01 Z-0.2000
G01 F120.00
G01 X15.5100 Y28.2198
G01 X15.5664 Y28.2223
G01 X15.5810 Y28.2238
G01 X15.6296 Y28.2310
G01 X15.6440 Y28.2339
G01 X15.6917 Y28.2458
G01 X15.7058 Y28.2501
G01 X15.7520 Y28.2666
G01 X15.7656 Y28.2722
G01 X15.8100 Y28.2932
G01 X15.8229 Y28.3002
G01 X15.8650 Y28.3254
G01 X15.8773 Y28.3336
G01 X15.9167 Y28.3628
G01 X15.9281 Y28.3722
G01 X15.9698 Y28.4102
G01 X16.3634 Y28.8038
G01 X16.3807 Y28.7983
G01 X16.4997 Y28.7685
G01 X16.5141 Y28.7656
G01 X16.6355 Y28.7476
G01 X16.6501 Y28.7462
G01 X16.7726 Y28.7402
G01 X16.7874 Y28.7402
G01 X16.9099 Y28.7462
G01 X16.9245 Y28.7476
G01 X17.0459 Y28.7656
G01 X17.0603 Y28.7685
G01 X17.1793 Y28.7983
G01 X17.1934 Y28.8026
G01 X17.3089 Y28.8439
G01 X17.3225 Y28.8496
G01 X17.4334 Y28.9020
G01 X17.4464 Y28.9089
G01 X17.5516 Y28.9720
G01 X17.5638 Y28.9802
G01 X17.6623 Y29.0533
G01 X17.6737 Y29.0626
G01 X17.7646 Y29.1450
G01 X17.7750 Y29.1554
G01 X17.8574 Y29.2463
G01 X17.8667 Y29.2577
G01 X17.9398 Y29.3562
G01 X17.9480 Y29.3684
G01 X18.0111 Y29.4736
G01 X18.0180 Y29.4866
G01 X18.0704 Y29.5975
G01 X18.0761 Y29.6111
G01 X18.1174 Y29.7266
G01 X18.1217 Y29.7407
G01 X18.1515 Y29.8597
G01 X18.1544 Y29.8741
G01 X18.1724 Y29.9955
G01 X18.1738 Y30.0101
G01 X18.1798 Y30.1326
G01 X18.1798 Y30.1474
G01 X18.1738 Y30.2699
G01 X18.1724 Y30.2845
G01 X18.1544 Y30.4059
G01 X18.1515 Y30.4203
G01 X18.1217 Y30.5393
G01 X18.1174 Y30.5534
G01 X18.0761 Y30.6689
G01 X18.0704 Y30.6825
G01 X18.0180 Y30.7934
G01 X18.0111 Y30.8064
G01 X17.9480 Y30.9116
G01 X17.9398 Y30.9238
G01 X17.8667 Y31.0223
G01 X17.8574 Y31.0337
G01 X17.7750 Y31.1246
G01 X17.7646 Y31.1350
G01 X17.6737 Y31.2174
G01 X17.6623 Y31.2267
G01 X17.5638 Y31.2998
G01 X17.5516 Y31.3080
G01 X17.4464 Y31.3711
G01 X17.4334 Y31.3780
G01 X17.3225 Y31.4304
G01 X17.3089 Y31.4361
G01 X17.1934 Y31.4774
G01 X17.1793 Y31.4817
G01 X17.0603 Y31.5115
G01 X17.0459 Y31.5144
G01 X16.9245 Y31.5324
G01 X16.9099 Y31.5338
G01 X16.7874 Y31.5398
G01 X16.7726 Y31.5398
G01 X16.6501 Y31.5338
G01 X16.6355 Y31.5324
G01 X16.5141 Y31.5144
G01 X16.4997 Y31.5115
G01 X16.3807 Y31.4817
G01 X16.3666 Y31.4774
G01 X16.2511 Y31.4361
G01 X16.2375 Y31.4304
G01 X16.1266 Y31.3780
G01 X16.1136 Y31.3711
G01 X16.0084 Y31.3080
G01 X15.9962 Y31.2998
G01 X15.8977 Y31.2267
G01 X15.8863 Y31.2174
G01 X15.7954 Y31.1350
G01 X15.7850 Y31.1246
G01 X15.7026 Y31.0337
G01 X15.6933 Y31.0223
G01 X15.6202 Y30.9238
G01 X15.6120 Y30.9116
G01 X15.5489 Y30.8064
G01 X15.5420 Y30.7934
G01 X15.4896 Y30.6825
G01 X15.4839 Y30.6689
G01 X15.4426 Y30.5534
G01 X15.4383 Y30.5393
G01 X15.4085 Y30.4203
G01 X15.4056 Y30.4059
G01 X15.3876 Y30.2845
G01 X15.3862 Y30.2699
G01 X15.3802 Y30.1474
G01 X15.3802 Y30.1326
G01 X15.3862 Y30.0101
G01 X15.3876 Y29.9955
G01 X15.4056 Y29.8741
G01 X15.4085 Y29.8597
G01 X15.4383 Y29.7407
G01 X15.4438 Y29.7234
G01 X15.2407 Y29.5203
G01 X8.8380 Y29.5203
G01 X8.7835 Y29.5937
G01 X8.7742 Y29.6051
G01 X8.7083 Y29.6778
G01 X8.6978 Y29.6883
G01 X8.6251 Y29.7542
G01 X8.6137 Y29.7635
G01 X8.5349 Y29.8220
G01 X8.5227 Y29.8301
G01 X8.4385 Y29.8806
G01 X8.4255 Y29.8875
G01 X8.3368 Y29.9295
G01 X8.3232 Y29.9351
G01 X8.2308 Y29.9682
G01 X8.2167 Y29.9724
G01 X8.1215 Y29.9963
G01 X8.1071 Y29.9992
G01 X8.0100 Y30.0136
G01 X7.9954 Y30.0150
G01 X7.8974 Y30.0198
G01 X7.8826 Y30.0198
G01 X7.7846 Y30.0150
G01 X7.7700 Y30.0136
G01 X7.6729 Y29.9992
G01 X7.6585 Y29.9963
G01 X7.5633 Y29.9724
G01 X7.5492 Y29.9682
G01 X7.4568 Y29.9351
G01 X7.4432 Y29.9295
G01 X7.3545 Y29.8875
G01 X7.3415 Y29.8806
G01 X7.2573 Y29.8301
G01 X7.2451 Y29.8220
G01 X7.1663 Y29.7635
G01 X7.1549 Y29.7542
G01 X7.0822 Y29.6883
G01 X7.0718 Y29.6778
G01 X7.0058 Y29.6051
G01 X6.9965 Y29.5937
G01 X6.9381 Y29.5149
G01 X6.9299 Y29.5027
G01 X6.8794 Y29.4185
G01 X6.8725 Y29.4055
G01 X6.8305 Y29.3168
G01 X6.8249 Y29.3032
G01 X6.7918 Y29.2108
G01 X6.7876 Y29.1967
G01 X6.7637 Y29.1015
G01 X6.7608 Y29.0871
G01 X6.7464 Y28.9900
G01 X6.7450 Y28.9754
G01 X6.7402 Y28.8774
G01 X6.7402 Y28.8626
G01 X6.7450 Y28.7646
G01 X6.7464 Y28.7500
G01 X6.7608 Y28.6529
G01 X6.7637 Y28.6385
G01 X6.7876 Y28.5433
G01 X6.7918 Y28.5292
G01 X6.8249 Y28.4368
G01 X6.8305 Y28.4232
G01 X6.8725 Y28.3345
G01 X6.8794 Y28.3215
G01 X6.9299 Y28.2373
G01 X6.9381 Y28.2251
G01 X6.9965 Y28.1463
G01 X7.0058 Y28.1349
G01 X7.0718 Y28.0622
G01 X7.0822 Y28.0518
G01 X7.1549 Y27.9858
G01 X7.1663 Y27.9765
G01 X7.2451 Y27.9181
G01 X7.2573 Y27.9099
G01 X7.3415 Y27.8594
G01 X7.3545 Y27.8525
G01 X7.4432 Y27.8105
G01 X7.4568 Y27.8049
G01 X7.5492 Y27.7718
G01 X7.5633 Y27.7676
G01 X7.6585 Y27.7437
G01 X7.6729 Y27.7408
G01 X7.7700 Y27.7264
G01 X7.7846 Y27.7250
G01 X7.8826 Y27.7202
G01 X7.8974 Y27.7202
G01 X7.9954 Y27.7250
G01 X8.0100 Y27.7264
G01 X8.1071 Y27.7408
G01 X8.1215 Y27.7437
G01 X8.2167 Y27.7676
G01 X8.2308 Y27.7718
G01 X8.3232 Y27.8049
G01 X8.3368 Y27.8105
G01 X8.4255 Y27.8525
G01 X8.4385 Y27.8594
G01 X8.5227 Y27.9099
G01 X8.5349 Y27.9181
G01 X8.6137 Y27.9765
G01 X8.6251 Y27.9858
G01 X8.6978 Y28.0518
G01 X8.7083 Y28.0622
G01 X8.7742 Y28.1349
G01 X8.7835 Y28.1463
G01 X8.8380 Y28.2198
G00 Z2.0000
G00 X8.7353 Y25.2547
G01 F60.00
G01 Z-0.2000
G01 F120.00
G01 X8.7200 Y25.2380
G01 X8.7123 Y25.2283
G01 X8.7035 Y25.2162
G01 X8.6970 Y25.2062
G01 X8.6898 Y25.1940
G01 X8.6839 Y25.1827
G01 X8.6786 Y25.1713
G01 X8.6732 Y25.1581
G01 X8.6691 Y25.1465
G01 X8.6649 Y25.1325
G01 X8.6620 Y25.1206
G01 X8.6591 Y25.1063
G01 X8.6574 Y25.0941
G01 X8.6559 Y25.0796
G01 X8.6553 Y25.0673
G01 X8.6553 Y25.0527
G01 X8.6559 Y25.0404
G01 X8.6574 Y25.0259
G01 X8.6591 Y25.0137
G01 X8.6620 Y24.9994
G01 X8.6649 Y24.9875
G01 X8.6684 Y24.9756
G01 X8.6772 Y24.9517
G01 X8.6885 Y24.9284
G01 X8.7020 Y24.9059
G01 X8.7183 Y24.8839
G01 X8.7355 Y24.8649
G01 X8.8713 Y24.7291
G01 X8.8859 Y24.7156
G01 X8.8973 Y24.7063
G01 X8.9073 Y24.6989
G01 X8.9195 Y24.6907
G01 X8.9302 Y24.6843
G01 X8.9432 Y24.6773
G01 X8.9545 Y24.6720
G01 X8.9681 Y24.6664
G01 X8.9798 Y24.6622
G01 X8.9939 Y24.6579
G01 X9.0060 Y24.6549
G01 X9.0204 Y24.6520
G01 X9.0328 Y24.6502
G01 X9.0474 Y24.6487
G01 X9.0672 Y24.6479
G01 X9.1692 Y24.6479
G01 X9.1890 Y24.6487
G01 X9.2037 Y24.6502
G01 X9.2160 Y24.6520
G01 X9.2304 Y24.6549
G01 X9.2425 Y24.6579
G01 X9.2566 Y24.6622
G01 X9.2684 Y24.6664
G01 X9.2820 Y24.6720
G01 X9.2932 Y24.6773
G01 X9.3062 Y24.6843
G01 X9.3169 Y24.6907
G01 X9.3292 Y24.6989
G01 X9.3392 Y24.7063
G01 X9.3506 Y24.7156
G01 X9.3598 Y24.7240
G01 X9.3702 Y24.7344
G01 X9.3786 Y24.7437
G01 X9.3879 Y24.7550
G01 X9.3953 Y24.7650
G01 X9.4035 Y24.7773
G01 X9.4099 Y24.7880
G01 X9.4169 Y24.8010
G01 X9.4222 Y24.8122
G01 X9.4278 Y24.8258
G01 X9.4320 Y24.8376
G01 X9.4363 Y24.8517
G01 X9.4393 Y24.8638
G01 X9.4422 Y24.8782
G01 X9.4440 Y24.8905
G01 X9.4455 Y24.9052
G01 X9.4461 Y24.9176
G01 X9.4461 Y24.9324
G01 X9.4455 Y24.9448
G01 X9.4440 Y24.9595
G01 X9.4422 Y24.9718
G01 X9.4393 Y24.9862
G01 X9.4363 Y24.9983
G01 X9.4320 Y25.0124
G01 X9.4278 Y25.0242
G01 X9.4222 Y25.0378
G01 X9.4169 Y25.0490
G01 X9.4099 Y25.0620
G01 X9.4035 Y25.0727
G01 X9.3953 Y25.0850
G01 X9.3879 Y25.0950
G01 X9.3786 Y25.1063
G01 X9.3651 Y25.1209
G01 X9.1791 Y25.3069
G01 X9.1646 Y25.3203
G01 X9.1532 Y25.3297
G01 X9.1432 Y25.3371
G01 X9.1309 Y25.3453
G01 X9.1202 Y25.3517
G01 X9.1073 Y25.3586
G01 X9.0960 Y25.3640
G01 X9.0824 Y25.3696
G01 X9.0706 Y25.3738
G01 X9.0566 Y25.3781
G01 X9.0445 Y25.3811
G01 X9.0300 Y25.3840
G01 X9.0177 Y25.3858
G01 X9.0030 Y25.3873
G01 X8.9906 Y25.3879
G01 X8.9759 Y25.3879
G01 X8.9634 Y25.3873
G01 X8.9488 Y25.3858
G01 X8.9364 Y25.3840
G01 X8.9220 Y25.3811
G01 X8.9099 Y25.3781
G01 X8.8958 Y25.3738
G01 X8.8841 Y25.3696
G01 X8.8705 Y25.3640
G01 X8.8592 Y25.3586
G01 X8.8462 Y25.3517
G01 X8.8355 Y25.3453
G01 X8.8233 Y25.3371
G01 X8.8133 Y25.3297
G01 X8.8019 Y25.3203
G01 X8.7873 Y25.3069
G01 X8.7353 Y25.2547
G00 Z2.0000
G00 X11.4365 Y23.0262
G01 F60.00
G01 Z-0.2000
G01 F120.00
G01 X11.3883 Y23.0142
G01 X11.3774 Y23.0110
G01 X11.3280 Y22.9934
G01 X11.3144 Y22.9878
G01 X11.2700 Y22.9668
G01 X11.2571 Y22.9598
G01 X11.2150 Y22.9346
G01 X11.2027 Y22.9264
G01 X11.1633 Y22.8972
G01 X11.1519 Y22.8878
G01 X11.1102 Y22.8498
G01 X10.8466 Y22.5862
G01 X10.8293 Y22.5917
G01 X10.7103 Y22.6215
G01 X10.6959 Y22.6244
G01 X10.5745 Y22.6424
G01 X10.5599 Y22.6438
G01 X10.4374 Y22.6498
G01 X10.4226 Y22.6498
G01 X10.3001 Y22.6438
G01 X10.2855 Y22.6424
G01 X10.1641 Y22.6244
G01 X10.1497 Y22.6215
G01 X10.0307 Y22.5917
G01 X10.0166 Y22.5874
G01 X9.9011 Y22.5461
G01 X9.8875 Y22.5404
G01 X9.7766 Y22.4880
G01 X9.7636 Y22.4811
G01 X9.6584 Y22.4180
G01 X9.6462 Y22.4098
G01 X9.5477 Y22.3367
G01 X9.5363 Y22.3274
G01 X9.4454 Y22.2450
G01 X9.4350 Y22.2346
G01 X9.3526 Y22.1437
G01 X9.3433 Y22.1323
G01 X9.2702 Y22.0338
G01 X9.2620 Y22.0216
G01 X9.1989 Y21.9164
G01 X9.1920 Y21.9034
G01 X9.1396 Y21.7925
G01 X9.1339 Y21.7789
G01 X9.0926 Y21.6634
G01 X9.0883 Y21.6493
G01 X9.0585 Y21.5303
G01 X9.0556 Y21.5159
G01 X9.0376 Y21.3945
G01 X9.0362 Y21.3799
G01 X9.0302 Y21.2574
G01 X9.0302 Y21.2426
G01 X9.0362 Y21.1201
G01 X9.0376 Y21.1055
G01 X9.0556 Y20.9841
G01 X9.0585 Y20.9697
G01 X9.0883 Y20.8507
G01 X9.0926 Y20.8366
G01 X9.1339 Y20.7211
G01 X9.1396 Y20.7075
G01 X9.1920 Y20.5966
G01 X9.1989 Y20.5836
G01 X9.2620 Y20.4784
G01 X9.2702 Y20.4662
G01 X9.3433 Y20.3677
G01 X9.3526 Y20.3563
G01 X9.4350 Y20.2654
G01 X9.4454 Y20.2550
G01 X9.5363 Y20.1726
G01 X9.5477 Y20.1633
G01 X9.6462 Y20.0902
G01 X9.6584 Y20.0820
G01 X9.7636 Y20.0189
G01 X9.7766 Y20.0120
G01 X9.8875 Y19.9596
G01 X9.9011 Y19.9539
G01 X10.0166 Y19.9126
G01 X10.0307 Y19.9083
G01 X10.1497 Y19.8785
G01 X10.1641 Y19.8756
G01 X10.2855 Y19.8576
G01 X10.3001 Y19.8562
G01 X10.4226 Y19.8502
G01 X10.4374 Y19.8502
G01 X10.5599 Y19.8562
G01 X10.5745 Y19.8576
G01 X10.6959 Y19.8756
G01 X10.7103 Y19.8785
G01 X10.8293 Y19.9083
G01 X10.8434 Y19.9126
G01 X10.9589 Y19.9539
G01 X10.9725 Y19.9596
G01 X11.0834 Y20.0120
G01 X11.0964 Y20.0189
G01 X11.2016 Y20.0820
G01 X11.2138 Y20.0902
G01 X11.3123 Y20.1633
G01 X11.3237 Y20.1726
G01 X11.4146 Y20.2550
G01 X11.4250 Y20.2654
G01 X11.5074 Y20.3563
G01 X11.5167 Y20.3677
G01 X11.5898 Y20.4662
G01 X11.5980 Y20.4784
G01 X11.6611 Y20.5836
G01 X11.6680 Y20.5966
G01 X11.7204 Y20.7075
G01 X11.7261 Y20.7211
G01 X11.7674 Y20.8366
G01 X11.7717 Y20.8507
G01 X11.8015 Y20.9697
G01 X11.8044 Y20.9841
G01 X11.8224 Y21.1055
G01 X11.8238 Y21.1201
G01 X11.8298 Y21.2426
G01 X11.8298 Y21.2574
G01 X11.8238 Y21.3799
G01 X11.8224 Y21.3945
G01 X11.8044 Y21.5159
G01 X11.8015 Y21.5303
G01 X11.7717 Y21.6493
G01 X11.7662 Y21.6666
G01 X11.8533 Y21.7537
G01 X11.9015 Y21.7658
G01 X11.9156 Y21.7701
G01 X11.9618 Y21.7866
G01 X11.9754 Y21.7922
G01 X12.0198 Y21.8132
G01 X12.0328 Y21.8202
G01 X12.0749 Y21.8454
G01 X12.0871 Y21.8536
G01 X12.1265 Y21.8828
G01 X12.1379 Y21.8922
G01 X12.1743 Y21.9251
G01 X14.1792 Y23.9297
G01 X36.0599 Y23.9297
G01 X36.1163 Y23.9323
G01 X36.1310 Y23.9338
G01 X36.1795 Y23.9410
G01 X36.1940 Y23.9439
G01 X36.2416 Y23.9558
G01 X36.2557 Y23.9601
G01 X36.3019 Y23.9766
G01 X36.3155 Y23.9822
G01 X36.3599 Y24.0032
G01 X36.3728 Y24.0102
G01 X36.4150 Y24.0354
G01 X36.4272 Y24.0436
G01 X36.4666 Y24.0728
G01 X36.4780 Y24.0822
G01 X36.5197 Y24.1202
G01 X39.6884 Y27.2889
G01 X39.7264 Y27.3306
G01 X39.7357 Y27.3419
G01 X39.7650 Y27.3814
G01 X39.7732 Y27.3936
G01 X39.7984 Y27.4357
G01 X39.8053 Y27.4487
G01 X39.8263 Y27.4931
G01 X39.8320 Y27.5067
G01 X39.8485 Y27.5529
G01 X39.8528 Y27.5670
G01 X39.8647 Y27.6146
G01 X39.8676 Y27.6290
G01 X39.8748 Y27.6776
G01 X39.8762 Y27.6923
G01 X39.8788 Y27.7486
G01 X39.8788 Y35.8092
G01 X41.3698 Y37.3002
G01 X41.4078 Y37.3419
G01 X41.4172 Y37.3533
G01 X41.4464 Y37.3927
G01 X41.4546 Y37.4050
G01 X41.4798 Y37.4471
G01 X41.4868 Y37.4601
G01 X41.5078 Y37.5044
G01 X41.5134 Y37.5180
G01 X41.5299 Y37.5643
G01 X41.5342 Y37.5783
G01 X41.5461 Y37.6260
G01 X41.5490 Y37.6404
G01 X41.5562 Y37.6890
G01 X41.5577 Y37.7036
G01 X41.5603 Y37.7600
G01 X41.5603 Y47.9200
G01 X41.5577 Y47.9764
G01 X41.5562 Y47.9910
G01 X41.5490 Y48.0396
G01 X41.5461 Y48.0540
G01 X41.5342 Y48.1017
G01 X41.5299 Y48.1158
G01 X41.5134 Y48.1620
G01 X41.5078 Y48.1756
G01 X41.4868 Y48.2200
G01 X41.4798 Y48.2329
G01 X41.4546 Y48.2750
G01 X41.4464 Y48.2873
G01 X41.4172 Y48.3267
G01 X41.4078 Y48.3381
G01 X41.3698 Y48.3798
G01 X37.6898 Y52.0598
G01 X37.6481 Y52.0978
G01 X37.6367 Y52.1072
G01 X37.5973 Y52.1364
G01 X37.5850 Y52.1446
G01 X37.5429 Y52.1698
G01 X37.5300 Y52.1768
G01 X37.4856 Y52.1978
G01 X37.4720 Y52.2034
G01 X37.4258 Y52.2199
G01 X37.4117 Y52.2242
G01 X37.3641 Y52.2361
G01 X37.3496 Y52.2390
G01 X37.3011 Y52.2462
G01 X37.2864 Y52.2477
G01 X37.2300 Y52.2502
G01 X33.1600 Y52.2502
G01 X33.1036 Y52.2477
G01 X33.0889 Y52.2462
G01 X33.0404 Y52.2390
G01 X33.0260 Y52.2361
G01 X32.9783 Y52.2242
G01 X32.9642 Y52.2199
G01 X32.9180 Y52.2034
G01 X32.9044 Y52.1978
G01 X32.8600 Y52.1768
G01 X32.8471 Y52.1698
G01 X32.8050 Y52.1446
G01 X32.7927 Y52.1364
G01 X32.7533 Y52.1072
G01 X32.7419 Y52.0978
G01 X32.7055 Y52.0649
G01 X31.2052 Y50.5648
G01 X31.1672 Y50.5231
G01 X31.1579 Y50.5118
G01 X31.1286 Y50.4723
G01 X31.1204 Y50.4601
G01 X31.0952 Y50.4180
G01 X31.0883 Y50.4050
G01 X31.0673 Y50.3606
G01 X31.0616 Y50.3470
G01 X31.0451 Y50.3008
G01 X31.0408 Y50.2867
G01 X31.0289 Y50.2391
G01 X31.0260 Y50.2246
G01 X31.0188 Y50.1761
G01 X31.0174 Y50.1614
G01 X31.0148 Y50.1050
G01 X31.0148 Y47.2743
G01 X29.7707 Y46.0303
G01 X18.0500 Y46.0303
G01 X17.9936 Y46.0277
G01 X17.9790 Y46.0262
G01 X17.9304 Y46.0190
G01 X17.9160 Y46.0161
G01 X17.8683 Y46.0042
G01 X17.8543 Y45.9999
G01 X17.8080 Y45.9834
G01 X17.7944 Y45.9778
G01 X17.7501 Y45.9568
G01 X17.7371 Y45.9498
G01 X17.6950 Y45.9246
G01 X17.6827 Y45.9164
G01 X17.6433 Y45.8872
G01 X17.6319 Y45.8778
G01 X17.5955 Y45.8449
G01 X16.3202 Y44.5698
G01 X16.2822 Y44.5281
G01 X16.2728 Y44.5167
G01 X16.2436 Y44.4773
G01 X16.2354 Y44.4650
G01 X16.2102 Y44.4229
G01 X16.2032 Y44.4100
G01 X16.1822 Y44.3656
G01 X16.1766 Y44.3520
G01 X16.1601 Y44.3058
G01 X16.1558 Y44.2917
G01 X16.1439 Y44.2440
G01 X16.1410 Y44.2296
G01 X16.1338 Y44.1810
G01 X16.1323 Y44.1664
G01 X16.1298 Y44.1100
G01 X16.1298 Y43.7131
G01 X16.0944 Y43.6870
G01 X16.0831 Y43.6776
G01 X16.0147 Y43.6157
G01 X16.0043 Y43.6053
G01 X15.9424 Y43.5369
G01 X15.9330 Y43.5256
G01 X15.8781 Y43.4515
G01 X15.8699 Y43.4392
G01 X15.8225 Y43.3601
G01 X15.8156 Y43.3472
G01 X15.7761 Y43.2638
G01 X15.7705 Y43.2502
G01 X15.7394 Y43.1633
G01 X15.7352 Y43.1493
G01 X15.7128 Y43.0598
G01 X15.7099 Y43.0454
G01 X15.6963 Y42.9541
G01 X15.6949 Y42.9395
G01 X15.6904 Y42.8474
G01 X15.6904 Y42.8326
G01 X15.6949 Y42.7405
G01 X15.6963 Y42.7259
G01 X15.7099 Y42.6346
G01 X15.7128 Y42.6202
G01 X15.7352 Y42.5307
G01 X15.7394 Y42.5167
G01 X15.7705 Y42.4298
G01 X15.7761 Y42.4162
G01 X15.8156 Y42.3328
G01 X15.8225 Y42.3199
G01 X15.8699 Y42.2408
G01 X15.8781 Y42.2285
G01 X15.9330 Y42.1544
G01 X15.9424 Y42.1431
G01 X16.0043 Y42.0747
G01 X16.0147 Y42.0643
G01 X16.0831 Y42.0024
G01 X16.0944 Y41.9930
G01 X16.1685 Y41.9381
G01 X16.1808 Y41.9299
G01 X16.2599 Y41.8825
G01 X16.2728 Y41.8756
G01 X16.3562 Y41.8361
G01 X16.3698 Y41.8305
G01 X16.4567 Y41.7994
G01 X16.4707 Y41.7952
G01 X16.5602 Y41.7728
G01 X16.5746 Y41.7699
G01 X16.6659 Y41.7563
G01 X16.6805 Y41.7549
G01 X16.7726 Y41.7504
G01 X16.7874 Y41.7504
G01 X16.8795 Y41.7549
G01 X16.8941 Y41.7563
G01 X16.9854 Y41.7699
G01 X16.9998 Y41.7728
G01 X17.0893 Y41.7952
G01 X17.1033 Y41.7994
G01 X17.1902 Y41.8305
G01 X17.2038 Y41.8361
G01 X17.2872 Y41.8756
G01 X17.3001 Y41.8825
G01 X17.3792 Y41.9299
G01 X17.3915 Y41.9381
G01 X17.4656 Y41.9930
G01 X17.4769 Y42.0024
G01 X17.5453 Y42.0643
G01 X17.5557 Y42.0747
G01 X17.6176 Y42.1431
G01 X17.6270 Y42.1544
G01 X17.6819 Y42.2285
G01 X17.6901 Y42.2408
G01 X17.7375 Y42.3199
G01 X17.7444 Y42.3328
G01 X17.7839 Y42.4162
G01 X17.7895 Y42.4298
G01 X17.8206 Y42.5167
G01 X17.8248 Y42.5307
G01 X17.8472 Y42.6202
G01 X17.8501 Y42.6346
G01 X17.8637 Y42.7259
G01 X17.8651 Y42.7405
G01 X17.8696 Y42.8326
G01 X17.8696 Y42.8474
G01 X17.8651 Y42.9395
G01 X17.8637 Y42.9541
G01 X17.8501 Y43.0454
G01 X17.8472 Y43.0598
G01 X17.8248 Y43.1493
G01 X17.8206 Y43.1633
G01 X17.7895 Y43.2502
G01 X17.7839 Y43.2638
G01 X17.7444 Y43.3472
G01 X17.7375 Y43.3601
G01 X17.6901 Y43.4392
G01 X17.6819 Y43.4515
G01 X17.6270 Y43.5256
G01 X17.6176 Y43.5369
G01 X17.5557 Y43.6053
G01 X17.5453 Y43.6157
G01 X17.4769 Y43.6776
G01 X17.4656 Y43.6870
G01 X17.4303 Y43.7131
G01 X17.4303 Y43.8407
G01 X18.3193 Y44.7298
G01 X30.0401 Y44.7298
G01 X30.0965 Y44.7323
G01 X30.1111 Y44.7338
G01 X30.1597 Y44.7410
G01 X30.1741 Y44.7439
G01 X30.2217 Y44.7558
G01 X30.2358 Y44.7601
G01 X30.2821 Y44.7766
G01 X30.2957 Y44.7822
G01 X30.3400 Y44.8032
G01 X30.3530 Y44.8102
G01 X30.3951 Y44.8354
G01 X30.4074 Y44.8436
G01 X30.4468 Y44.8728
G01 X30.4582 Y44.8822
G01 X30.4999 Y44.9202
G01 X32.1248 Y46.5452
G01 X32.1629 Y46.5869
G01 X32.1722 Y46.5982
G01 X32.2015 Y46.6377
G01 X32.2096 Y46.6499
G01 X32.2349 Y46.6920
G01 X32.2418 Y46.7050
G01 X32.2628 Y46.7494
G01 X32.2684 Y46.7630
G01 X32.2850 Y46.8092
G01 X32.2893 Y46.8233
G01 X32.3012 Y46.8709
G01 X32.3041 Y46.8854
G01 X32.3113 Y46.9339
G01 X32.3127 Y46.9486
G01 X32.3153 Y47.0050
G01 X32.3153 Y49.8357
G01 X33.4293 Y50.9497
G01 X36.9607 Y50.9497
G01 X40.2598 Y47.6507
G01 X40.2598 Y38.0293
G01 X38.7637 Y36.5330
G01 X38.7307 Y36.4967
G01 X38.7214 Y36.4853
G01 X38.6921 Y36.4458
G01 X38.6840 Y36.4336
G01 X38.6587 Y36.3915
G01 X38.6518 Y36.3785
G01 X38.6308 Y36.3341
G01 X38.6252 Y36.3205
G01 X38.6086 Y36.2743
G01 X38.6043 Y36.2602
G01 X38.5924 Y36.2126
G01 X38.5895 Y36.1982
G01 X38.5823 Y36.1496
G01 X38.5809 Y36.1350
G01 X38.5783 Y36.0786
G01 X38.5783 Y28.0180
G01 X35.7906 Y25.2302
G01 X13.9098 Y25.2302
G01 X13.8534 Y25.2277
G01 X13.8388 Y25.2262
G01 X13.7902 Y25.2190
G01 X13.7758 Y25.2161
G01 X13.7282 Y25.2042
G01 X13.7141 Y25.1999
G01 X13.6679 Y25.1834
G01 X13.6543 Y25.1778
G01 X13.6099 Y25.1568
G01 X13.5969 Y25.1498
G01 X13.5548 Y25.1246
G01 X13.5425 Y25.1164
G01 X13.5031 Y25.0872
G01 X13.4917 Y25.0778
G01 X13.4554 Y25.0449
G01 X11.4365 Y23.0262
G00 Z2.0000
G00 X11.7286 Y30.5507
G01 F60.00
G01 Z-0.2000
G01 F120.00
G01 X11.7000 Y30.5479
G01 X11.6714 Y30.5507
G01 X11.6443 Y30.5521
G01 X9.5126 Y30.5521
G01 X9.4928 Y30.5513
G01 X9.4782 Y30.5498
G01 X9.4658 Y30.5480
G01 X9.4514 Y30.5451
G01 X9.4393 Y30.5421
G01 X9.4252 Y30.5378
G01 X9.4135 Y30.5336
G01 X9.3999 Y30.5280
G01 X9.3886 Y30.5227
G01 X9.3756 Y30.5157
G01 X9.3649 Y30.5093
G01 X9.3527 Y30.5011
G01 X9.3427 Y30.4937
G01 X9.3313 Y30.4844
G01 X9.3220 Y30.4760
G01 X9.3116 Y30.4656
G01 X9.3033 Y30.4563
G01 X9.2939 Y30.4450
G01 X9.2865 Y30.4349
G01 X9.2783 Y30.4227
G01 X9.2719 Y30.4120
G01 X9.2650 Y30.3990
G01 X9.2596 Y30.3878
G01 X9.2540 Y30.3741
G01 X9.2498 Y30.3624
G01 X9.2223 Y30.2724
G01 X9.1891 Y30.2102
G01 X9.1604 Y30.1750
G01 X9.1530 Y30.1649
G01 X9.1448 Y30.1527
G01 X9.1384 Y30.1420
G01 X9.1314 Y30.1290
G01 X9.1261 Y30.1178
G01 X9.1205 Y30.1042
G01 X9.1163 Y30.0924
G01 X9.1120 Y30.0783
G01 X9.1090 Y30.0662
G01 X9.1061 Y30.0518
G01 X9.1043 Y30.0395
G01 X9.1028 Y30.0248
G01 X9.1022 Y30.0124
G01 X9.1022 Y29.9976
G01 X9.1028 Y29.9852
G01 X9.1043 Y29.9705
G01 X9.1061 Y29.9582
G01 X9.1090 Y29.9438
G01 X9.1120 Y29.9317
G01 X9.1163 Y29.9176
G01 X9.1205 Y29.9058
G01 X9.1261 Y29.8922
G01 X9.1314 Y29.8810
G01 X9.1384 Y29.8680
G01 X9.1448 Y29.8573
G01 X9.1530 Y29.8450
G01 X9.1604 Y29.8350
G01 X9.1697 Y29.8237
G01 X9.1781 Y29.8144
G01 X9.1885 Y29.8040
G01 X9.1978 Y29.7956
G01 X9.2091 Y29.7863
G01 X9.2191 Y29.7789
G01 X9.2314 Y29.7707
G01 X9.2421 Y29.7643
G01 X9.2551 Y29.7573
G01 X9.2663 Y29.7520
G01 X9.2799 Y29.7464
G01 X9.2917 Y29.7422
G01 X9.3058 Y29.7379
G01 X9.3179 Y29.7349
G01 X9.3323 Y29.7320
G01 X9.3446 Y29.7302
G01 X9.3593 Y29.7287
G01 X9.3717 Y29.7281
G01 X14.8950 Y29.7279
G01 X14.9148 Y29.7287
G01 X14.9295 Y29.7302
G01 X14.9418 Y29.7320
G01 X14.9562 Y29.7349
G01 X14.9683 Y29.7379
G01 X14.9883 Y29.7443
G01 X15.0077 Y29.7520
G01 X15.0190 Y29.7573
G01 X15.0320 Y29.7643
G01 X15.0427 Y29.7707
G01 X15.0550 Y29.7789
G01 X15.0650 Y29.7863
G01 X15.0763 Y29.7956
G01 X15.0856 Y29.8040
G01 X15.0960 Y29.8144
G01 X15.1044 Y29.8237
G01 X15.1137 Y29.8350
G01 X15.1211 Y29.8450
G01 X15.1293 Y29.8573
G01 X15.1357 Y29.8680
G01 X15.1453 Y29.8866
G01 X15.1536 Y29.9058
G01 X15.1578 Y29.9176
G01 X15.1621 Y29.9317
G01 X15.1651 Y29.9438
G01 X15.1680 Y29.9582
G01 X15.1698 Y29.9705
G01 X15.1713 Y29.9852
G01 X15.1719 Y29.9976
G01 X15.1721 Y30.2984
G01 X15.2339 Y30.6090
G01 X15.3551 Y30.9016
G01 X15.5310 Y31.1650
G01 X15.7550 Y31.3890
G01 X16.0184 Y31.5649
G01 X16.3110 Y31.6861
G01 X16.6216 Y31.7479
G01 X16.9384 Y31.7479
G01 X17.2490 Y31.6861
G01 X17.5416 Y31.5649
G01 X17.8050 Y31.3890
G01 X18.0290 Y31.1650
G01 X18.2049 Y30.9016
G01 X18.3261 Y30.6090
G01 X18.3879 Y30.2984
G01 X18.3879 Y29.9816
G01 X18.3261 Y29.6710
G01 X18.2049 Y29.3784
G01 X18.0290 Y29.1150
G01 X17.8050 Y28.8910
G01 X17.5416 Y28.7151
G01 X17.2490 Y28.5939
G01 X16.9384 Y28.5321
G01 X16.6216 Y28.5321
G01 X16.5698 Y28.5424
G01 X16.5502 Y28.5455
G01 X16.5356 Y28.5469
G01 X16.5231 Y28.5475
G01 X16.5084 Y28.5475
G01 X16.4959 Y28.5469
G01 X16.4813 Y28.5455
G01 X16.4690 Y28.5436
G01 X16.4545 Y28.5408
G01 X16.4424 Y28.5377
G01 X16.4283 Y28.5335
G01 X16.4166 Y28.5293
G01 X16.4030 Y28.5236
G01 X16.3917 Y28.5183
G01 X16.3788 Y28.5114
G01 X16.3681 Y28.5049
G01 X16.3558 Y28.4968
G01 X16.3458 Y28.4893
G01 X16.3344 Y28.4800
G01 X16.3199 Y28.4665
G01 X16.1561 Y28.3028
G01 X16.1378 Y28.2826
G01 X16.1196 Y28.2604
G01 X15.9890 Y28.1532
G01 X15.8399 Y28.0735
G01 X15.6782 Y28.0245
G01 X15.5100 Y28.0079
G01 X15.4814 Y28.0107
G01 X15.4543 Y28.0121
G01 X11.6908 Y28.0121
G01 X11.6710 Y28.0113
G01 X11.6563 Y28.0098
G01 X11.6440 Y28.0080
G01 X11.6296 Y28.0051
G01 X11.6175 Y28.0021
G01 X11.6034 Y27.9978
G01 X11.5916 Y27.9936
G01 X11.5780 Y27.9880
G01 X11.5668 Y27.9827
G01 X11.5538 Y27.9757
G01 X11.5431 Y27.9693
G01 X11.5308 Y27.9611
G01 X11.5208 Y27.9537
G01 X11.5095 Y27.9444
G01 X11.5002 Y27.9360
G01 X11.4898 Y27.9256
G01 X11.4814 Y27.9163
G01 X11.4721 Y27.9050
G01 X11.4647 Y27.8950
G01 X11.4565 Y27.8827
G01 X11.4501 Y27.8720
G01 X11.4431 Y27.8590
G01 X11.4378 Y27.8478
G01 X11.4322 Y27.8342
G01 X11.4280 Y27.8224
G01 X11.4237 Y27.8083
G01 X11.4207 Y27.7962
G01 X11.4178 Y27.7818
G01 X11.4160 Y27.7695
G01 X11.4145 Y27.7548
G01 X11.4139 Y27.7424
G01 X11.4139 Y27.7276
G01 X11.4145 Y27.7152
G01 X11.4160 Y27.7005
G01 X11.4178 Y27.6882
G01 X11.4207 Y27.6738
G01 X11.4237 Y27.6617
G01 X11.4280 Y27.6476
G01 X11.4322 Y27.6358
G01 X11.4378 Y27.6222
G01 X11.4431 Y27.6110
G01 X11.4501 Y27.5980
G01 X11.4565 Y27.5873
G01 X11.4647 Y27.5750
G01 X11.4721 Y27.5650
G01 X11.4814 Y27.5537
G01 X11.4949 Y27.5391
G01 X11.6790 Y27.3550
G01 X11.8549 Y27.0916
G01 X11.9761 Y26.7990
G01 X12.0358 Y26.4999
G01 X12.0389 Y26.4878
G01 X12.0431 Y26.4737
G01 X12.0473 Y26.4620
G01 X12.0530 Y26.4484
G01 X12.0583 Y26.4371
G01 X12.0652 Y26.4242
G01 X12.0716 Y26.4135
G01 X12.0798 Y26.4012
G01 X12.0872 Y26.3912
G01 X12.0966 Y26.3798
G01 X12.1050 Y26.3706
G01 X12.1154 Y26.3602
G01 X12.1246 Y26.3518
G01 X12.1360 Y26.3425
G01 X12.1460 Y26.3350
G01 X12.1582 Y26.3269
G01 X12.1689 Y26.3204
G01 X12.1819 Y26.3135
G01 X12.1932 Y26.3082
G01 X12.2068 Y26.3025
G01 X12.2185 Y26.2983
G01 X12.2326 Y26.2941
G01 X12.2447 Y26.2910
G01 X12.2591 Y26.2882
G01 X12.2715 Y26.2863
G01 X12.2861 Y26.2849
G01 X12.2986 Y26.2843
G01 X12.3133 Y26.2843
G01 X12.3258 Y26.2849
G01 X12.3404 Y26.2863
G01 X12.3528 Y26.2882
G01 X12.3672 Y26.2910
G01 X12.3793 Y26.2941
G01 X12.3934 Y26.2983
G01 X12.4051 Y26.3025
G01 X12.4187 Y26.3082
G01 X12.4300 Y26.3135
G01 X12.4430 Y26.3204
G01 X12.4537 Y26.3269
G01 X12.4659 Y26.3350
G01 X12.4759 Y26.3425
G01 X12.4873 Y26.3518
G01 X12.5019 Y26.3653
G01 X13.0338 Y26.8972
G01 X13.0521 Y26.9174
G01 X13.0703 Y26.9396
G01 X13.2010 Y27.0468
G01 X13.3500 Y27.1265
G01 X13.5117 Y27.1755
G01 X13.6799 Y27.1921
G01 X13.7085 Y27.1893
G01 X13.7357 Y27.1879
G01 X35.3599 Y27.1879
G01 X35.3797 Y27.1887
G01 X35.3943 Y27.1902
G01 X35.4067 Y27.1920
G01 X35.4211 Y27.1949
G01 X35.4332 Y27.1979
G01 X35.4473 Y27.2022
G01 X35.4590 Y27.2064
G01 X35.4726 Y27.2120
G01 X35.4839 Y27.2173
G01 X35.4969 Y27.2243
G01 X35.5076 Y27.2307
G01 X35.5198 Y27.2389
G01 X35.5298 Y27.2463
G01 X35.5412 Y27.2556
G01 X35.5504 Y27.2640
G01 X36.8895 Y28.6028
G01 X36.9029 Y28.6173
G01 X36.9123 Y28.6287
G01 X36.9197 Y28.6387
G01 X36.9279 Y28.6510
G01 X36.9343 Y28.6617
G01 X36.9412 Y28.6747
G01 X36.9465 Y28.6859
G01 X36.9522 Y28.6995
G01 X36.9564 Y28.7113
G01 X36.9606 Y28.7253
G01 X36.9637 Y28.7374
G01 X36.9665 Y28.7519
G01 X36.9684 Y28.7642
G01 X36.9698 Y28.7789
G01 X36.9706 Y28.7987
G01 X36.9704 Y31.9458
G01 X36.9698 Y31.9582
G01 X36.9684 Y31.9729
G01 X36.9665 Y31.9852
G01 X36.9637 Y31.9997
G01 X36.9606 Y32.0118
G01 X36.9564 Y32.0258
G01 X36.9522 Y32.0376
G01 X36.9465 Y32.0512
G01 X36.9412 Y32.0624
G01 X36.9343 Y32.0754
G01 X36.9279 Y32.0861
G01 X36.9197 Y32.0984
G01 X36.9123 Y32.1084
G01 X36.9029 Y32.1198
G01 X36.8945 Y32.1290
G01 X36.8841 Y32.1394
G01 X36.8749 Y32.1478
G01 X36.8635 Y32.1571
G01 X36.8535 Y32.1645
G01 X36.8413 Y32.1727
G01 X36.8306 Y32.1791
G01 X36.8176 Y32.1861
G01 X36.8063 Y32.1914
G01 X36.7927 Y32.1970
G01 X36.7810 Y32.2012
G01 X36.7669 Y32.2055
G01 X36.7548 Y32.2085
G01 X36.7404 Y32.2114
G01 X36.7280 Y32.2132
G01 X36.7134 Y32.2147
G01 X36.7009 Y32.2153
G01 X36.6862 Y32.2153
G01 X36.6737 Y32.2147
G01 X36.6591 Y32.2132
G01 X36.6467 Y32.2114
G01 X36.6323 Y32.2085
G01 X36.6202 Y32.2055
G01 X36.6061 Y32.2012
G01 X36.5944 Y32.1970
G01 X36.5808 Y32.1914
G01 X36.5695 Y32.1861
G01 X36.5565 Y32.1791
G01 X36.5458 Y32.1727
G01 X36.5336 Y32.1645
G01 X36.5236 Y32.1571
G01 X36.5122 Y32.1478
G01 X36.4976 Y32.1343
G01 X35.9940 Y31.6305
G01 X35.9856 Y31.6212
G01 X35.9763 Y31.6098
G01 X35.9689 Y31.5998
G01 X35.9607 Y31.5876
G01 X35.9543 Y31.5769
G01 X35.9473 Y31.5639
G01 X35.9420 Y31.5526
G01 X35.9364 Y31.5390
G01 X35.9322 Y31.5273
G01 X35.9279 Y31.5132
G01 X35.9249 Y31.5011
G01 X35.9220 Y31.4867
G01 X35.9202 Y31.4743
G01 X35.9187 Y31.4597
G01 X35.9181 Y31.4472
G01 X35.9179 Y31.2763
G01 X35.8658 Y31.0139
G01 X35.7634 Y30.7668
G01 X35.6148 Y30.5444
G01 X35.4256 Y30.3552
G01 X35.2032 Y30.2066
G01 X34.9561 Y30.1042
G01 X34.6937 Y30.0521
G01 X34.4263 Y30.0521
G01 X34.1639 Y30.1042
G01 X33.9168 Y30.2066
G01 X33.6944 Y30.3552
G01 X33.5052 Y30.5444
G01 X33.3566 Y30.7668
G01 X33.2542 Y31.0139
G01 X33.2021 Y31.2763
G01 X33.2021 Y31.5437
G01 X33.2542 Y31.8061
G01 X33.3566 Y32.0532
G01 X33.5052 Y32.2756
G01 X33.6944 Y32.4648
G01 X33.9168 Y32.6134
G01 X34.1639 Y32.7158
G01 X34.4263 Y32.7679
G01 X34.5899 Y32.7679
G01 X34.6097 Y32.7687
G01 X34.6243 Y32.7702
G01 X34.6367 Y32.7720
G01 X34.6511 Y32.7749
G01 X34.6632 Y32.7779
G01 X34.6773 Y32.7822
G01 X34.6890 Y32.7864
G01 X34.7026 Y32.7920
G01 X34.7139 Y32.7973
G01 X34.7269 Y32.8043
G01 X34.7376 Y32.8107
G01 X34.7498 Y32.8189
G01 X34.7598 Y32.8263
G01 X34.7712 Y32.8356
G01 X34.7858 Y32.8491
G01 X35.0497 Y33.1130
G01 X35.0631 Y33.1275
G01 X35.0725 Y33.1389
G01 X35.0799 Y33.1489
G01 X35.0881 Y33.1612
G01 X35.0945 Y33.1719
G01 X35.1014 Y33.1849
G01 X35.1067 Y33.1961
G01 X35.1124 Y33.2097
G01 X35.1166 Y33.2215
G01 X35.1208 Y33.2355
G01 X35.1239 Y33.2476
G01 X35.1267 Y33.2621
G01 X35.1286 Y33.2744
G01 X35.1300 Y33.2891
G01 X35.1308 Y33.3089
G01 X35.1308 Y38.8053
G01 X35.1300 Y38.8251
G01 X35.1286 Y38.8397
G01 X35.1267 Y38.8521
G01 X35.1239 Y38.8665
G01 X35.1208 Y38.8786
G01 X35.1166 Y38.8927
G01 X35.1124 Y38.9044
G01 X35.1067 Y38.9180
G01 X35.1014 Y38.9293
G01 X35.0945 Y38.9423
G01 X35.0881 Y38.9530
G01 X35.0799 Y38.9652
G01 X35.0725 Y38.9752
G01 X35.0631 Y38.9866
G01 X35.0497 Y39.0012
G01 X34.9147 Y39.1362
G01 X34.8981 Y39.1513
G01 X34.8867 Y39.1605
G01 X34.8767 Y39.1678
G01 X34.8645 Y39.1758
G01 X34.8538 Y39.1821
G01 X34.8408 Y39.1889
G01 X34.8296 Y39.1941
G01 X34.8161 Y39.1996
G01 X34.8044 Y39.2037
G01 X34.7903 Y39.2078
G01 X34.7783 Y39.2108
G01 X34.7639 Y39.2135
G01 X34.7517 Y39.2153
G01 X34.7371 Y39.2166
G01 X34.7247 Y39.2172
G01 X34.7101 Y39.2171
G01 X34.6977 Y39.2164
G01 X34.6832 Y39.2150
G01 X34.6709 Y39.2131
G01 X34.6566 Y39.2102
G01 X34.6446 Y39.2071
G01 X34.6306 Y39.2028
G01 X34.6189 Y39.1986
G01 X34.6054 Y39.1930
G01 X34.5942 Y39.1877
G01 X34.5813 Y39.1808
G01 X34.5707 Y39.1744
G01 X34.5586 Y39.1662
G01 X34.5486 Y39.1588
G01 X34.5373 Y39.1496
G01 X34.5228 Y39.1362
G01 X34.3144 Y38.9277
G01 X34.0920 Y38.7791
G01 X33.8448 Y38.6767
G01 X33.5825 Y38.6246
G01 X33.3150 Y38.6246
G01 X33.0527 Y38.6767
G01 X32.8055 Y38.7791
G01 X32.5831 Y38.9277
G01 X32.3737 Y39.1372
G01 X32.3581 Y39.1513
G01 X32.3467 Y39.1605
G01 X32.3367 Y39.1678
G01 X32.3245 Y39.1758
G01 X32.3138 Y39.1821
G01 X32.3008 Y39.1889
G01 X32.2896 Y39.1941
G01 X32.2761 Y39.1996
G01 X32.2644 Y39.2037
G01 X32.2503 Y39.2078
G01 X32.2383 Y39.2108
G01 X32.2239 Y39.2135
G01 X32.2117 Y39.2153
G01 X32.1971 Y39.2166
G01 X32.1847 Y39.2172
G01 X32.1701 Y39.2171
G01 X32.1577 Y39.2164
G01 X32.1432 Y39.2150
G01 X32.1309 Y39.2131
G01 X32.1166 Y39.2102
G01 X32.1046 Y39.2071
G01 X32.0906 Y39.2028
G01 X32.0789 Y39.1986
G01 X32.0654 Y39.1930
G01 X32.0542 Y39.1877
G01 X32.0413 Y39.1808
G01 X32.0307 Y39.1744
G01 X32.0186 Y39.1662
G01 X32.0086 Y39.1588
G01 X31.9973 Y39.1496
G01 X31.9828 Y39.1362
G01 X31.7744 Y38.9277
G01 X31.5520 Y38.7791
G01 X31.3048 Y38.6767
G01 X31.0425 Y38.6246
G01 X30.7750 Y38.6246
G01 X30.5127 Y38.6767
G01 X30.2655 Y38.7791
G01 X30.0431 Y38.9277
G01 X29.8337 Y39.1372
G01 X29.8181 Y39.1513
G01 X29.8067 Y39.1605
G01 X29.7967 Y39.1678
G01 X29.7845 Y39.1758
G01 X29.7738 Y39.1821
G01 X29.7608 Y39.1889
G01 X29.7496 Y39.1941
G01 X29.7361 Y39.1996
G01 X29.7244 Y39.2037
G01 X29.7103 Y39.2078
G01 X29.6983 Y39.2108
G01 X29.6839 Y39.2135
G01 X29.6717 Y39.2153
G01 X29.6571 Y39.2166
G01 X29.6447 Y39.2172
G01 X29.6301 Y39.2171
G01 X29.6177 Y39.2164
G01 X29.6032 Y39.2150
G01 X29.5909 Y39.2131
G01 X29.5766 Y39.2102
G01 X29.5646 Y39.2071
G01 X29.5506 Y39.2028
G01 X29.5389 Y39.1986
G01 X29.5254 Y39.1930
G01 X29.5142 Y39.1877
G01 X29.5013 Y39.1808
G01 X29.4907 Y39.1744
G01 X29.4786 Y39.1662
G01 X29.4686 Y39.1588
G01 X29.4573 Y39.1496
G01 X29.4428 Y39.1362
G01 X29.2344 Y38.9277
G01 X29.0120 Y38.7791
G01 X28.7648 Y38.6767
G01 X28.5025 Y38.6246
G01 X28.2350 Y38.6246
G01 X27.9727 Y38.6767
G01 X27.7255 Y38.7791
G01 X27.5031 Y38.9277
G01 X27.2937 Y39.1372
G01 X27.2781 Y39.1513
G01 X27.2667 Y39.1605
G01 X27.2567 Y39.1678
G01 X27.2445 Y39.1758
G01 X27.2338 Y39.1821
G01 X27.2208 Y39.1889
G01 X27.2096 Y39.1941
G01 X27.1961 Y39.1996
G01 X27.1844 Y39.2037
G01 X27.1703 Y39.2078
G01 X27.1583 Y39.2108
G01 X27.1439 Y39.2135
G01 X27.1317 Y39.2153
G01 X27.1171 Y39.2166
G01 X27.1047 Y39.2172
G01 X27.0901 Y39.2171
G01 X27.0777 Y39.2164
G01 X27.0632 Y39.2150
G01 X27.0509 Y39.2131
G01 X27.0366 Y39.2102
G01 X27.0245 Y39.2071
G01 X27.0106 Y39.2028
G01 X26.9989 Y39.1986
G01 X26.9854 Y39.1930
G01 X26.9742 Y39.1877
G01 X26.9613 Y39.1808
G01 X26.9507 Y39.1744
G01 X26.9386 Y39.1662
G01 X26.9286 Y39.1588
G01 X26.9173 Y39.1495
G01 X26.9028 Y39.1362
G01 X26.7678 Y39.0012
G01 X26.7544 Y38.9866
G01 X26.7450 Y38.9752
G01 X26.7376 Y38.9652
G01 X26.7294 Y38.9530
G01 X26.7230 Y38.9423
G01 X26.7161 Y38.9293
G01 X26.7108 Y38.9180
G01 X26.7051 Y38.9044
G01 X26.7009 Y38.8927
G01 X26.6967 Y38.8786
G01 X26.6936 Y38.8665
G01 X26.6908 Y38.8521
G01 X26.6889 Y38.8397
G01 X26.6875 Y38.8251
G01 X26.6867 Y38.8053
G01 X26.6867 Y38.0714
G01 X26.6875 Y38.0516
G01 X26.6889 Y38.0369
G01 X26.6908 Y38.0246
G01 X26.6936 Y38.0101
G01 X26.6967 Y37.9980
G01 X26.7009 Y37.9840
G01 X26.7051 Y37.9722
G01 X26.7108 Y37.9586
G01 X26.7161 Y37.9474
G01 X26.7230 Y37.9344
G01 X26.7294 Y37.9237
G01 X26.7376 Y37.9114
G01 X26.7451 Y37.9014
G01 X26.7544 Y37.8900
G01 X26.7678 Y37.8755
G01 X30.0472 Y34.5961
G01 X30.0674 Y34.5778
G01 X30.0896 Y34.5596
G01 X30.1105 Y34.5343
G01 X30.1178 Y34.5259
G01 X30.1261 Y34.5172
G01 X31.3172 Y33.3261
G01 X31.3374 Y33.3078
G01 X31.3596 Y33.2896
G01 X31.4668 Y33.1590
G01 X31.5465 Y33.0099
G01 X31.5639 Y32.9531
G01 X31.5681 Y32.9414
G01 X31.5737 Y32.9278
G01 X31.5790 Y32.9165
G01 X31.5860 Y32.9035
G01 X31.5924 Y32.8928
G01 X31.6006 Y32.8806
G01 X31.6080 Y32.8706
G01 X31.6173 Y32.8592
G01 X31.6257 Y32.8499
G01 X31.6361 Y32.8395
G01 X31.6454 Y32.8312
G01 X31.6567 Y32.8218
G01 X31.6668 Y32.8144
G01 X31.6790 Y32.8062
G01 X31.6897 Y32.7998
G01 X31.7027 Y32.7929
G01 X31.7139 Y32.7875
G01 X31.7276 Y32.7819
G01 X31.7393 Y32.7777
G01 X31.7534 Y32.7734
G01 X31.7655 Y32.7704
G01 X31.7799 Y32.7675
G01 X31.7996 Y32.7648
G01 X31.8202 Y32.7628
G01 X31.8876 Y32.7423
G01 X31.9498 Y32.7091
G01 X32.0043 Y32.6643
G01 X32.0491 Y32.6098
G01 X32.0823 Y32.5476
G01 X32.1028 Y32.4802
G01 X32.1110 Y32.3964
G01 X32.1110 Y30.4236
G01 X32.1028 Y30.3398
G01 X32.0823 Y30.2724
G01 X32.0491 Y30.2102
G01 X32.0043 Y30.1557
G01 X31.9498 Y30.1109
G01 X31.8876 Y30.0777
G01 X31.8202 Y30.0572
G01 X31.7364 Y30.0490
G01 X29.7636 Y30.0490
G01 X29.6798 Y30.0572
G01 X29.6124 Y30.0777
G01 X29.5502 Y30.1109
G01 X29.4957 Y30.1557
G01 X29.4509 Y30.2102
G01 X29.4177 Y30.2724
G01 X29.3972 Y30.3398
G01 X29.3890 Y30.4236
G01 X29.3890 Y31.9768
G01 X29.3882 Y31.9966
G01 X29.3868 Y32.0113
G01 X29.3849 Y32.0236
G01 X29.3821 Y32.0380
G01 X29.3790 Y32.0501
G01 X29.3748 Y32.0642
G01 X29.3705 Y32.0760
G01 X29.3649 Y32.0896
G01 X29.3596 Y32.1008
G01 X29.3526 Y32.1138
G01 X29.3462 Y32.1245
G01 X29.3381 Y32.1367
G01 X29.3306 Y32.1468
G01 X29.3213 Y32.1581
G01 X29.3129 Y32.1674
G01 X29.3025 Y32.1778
G01 X29.2933 Y32.1862
G01 X29.2819 Y32.1955
G01 X29.2719 Y32.2029
G01 X29.2596 Y32.2111
G01 X29.2489 Y32.2175
G01 X29.2360 Y32.2245
G01 X29.2247 Y32.2298
G01 X29.2111 Y32.2354
G01 X29.1994 Y32.2396
G01 X29.1853 Y32.2439
G01 X29.1732 Y32.2469
G01 X29.1587 Y32.2498
G01 X29.1464 Y32.2516
G01 X29.1317 Y32.2531
G01 X29.1193 Y32.2537
G01 X29.1046 Y32.2537
G01 X29.0921 Y32.2531
G01 X29.0775 Y32.2516
G01 X29.0651 Y32.2498
G01 X29.0507 Y32.2469
G01 X29.0386 Y32.2439
G01 X29.0245 Y32.2396
G01 X29.0128 Y32.2354
G01 X28.9992 Y32.2298
G01 X28.9879 Y32.2245
G01 X28.9749 Y32.2175
G01 X28.9642 Y32.2111
G01 X28.9520 Y32.2029
G01 X28.9420 Y32.1955
G01 X28.9306 Y32.1862
G01 X28.9160 Y32.1727
G01 X28.3791 Y31.6358
G01 X28.3656 Y31.6212
G01 X28.3563 Y31.6098
G01 X28.3489 Y31.5998
G01 X28.3407 Y31.5876
G01 X28.3343 Y31.5769
G01 X28.3273 Y31.5639
G01 X28.3220 Y31.5526
G01 X28.3164 Y31.5390
G01 X28.3122 Y31.5273
G01 X28.3079 Y31.5132
G01 X28.3049 Y31.5011
G01 X28.3020 Y31.4867
G01 X28.3002 Y31.4743
G01 X28.2987 Y31.4597
G01 X28.2979 Y31.4399
G01 X28.2979 Y31.2763
G01 X28.2458 Y31.0139
G01 X28.1434 Y30.7668
G01 X27.9948 Y30.5444
G01 X27.8056 Y30.3552
G01 X27.5832 Y30.2066
G01 X27.3361 Y30.1042
G01 X27.0737 Y30.0521
G01 X26.8063 Y30.0521
G01 X26.5439 Y30.1042
G01 X26.2968 Y30.2066
G01 X26.0744 Y30.3552
G01 X25.9587 Y30.4709
G01 X25.9441 Y30.4844
G01 X25.9327 Y30.4937
G01 X25.9227 Y30.5011
G01 X25.9105 Y30.5093
G01 X25.8998 Y30.5157
G01 X25.8868 Y30.5227
G01 X25.8755 Y30.5280
G01 X25.8619 Y30.5336
G01 X25.8502 Y30.5378
G01 X25.8361 Y30.5421
G01 X25.8240 Y30.5451
G01 X25.8096 Y30.5480
G01 X25.7972 Y30.5498
G01 X25.7826 Y30.5513
G01 X25.7628 Y30.5521
G01 X22.4750 Y30.5521
G01 X22.4552 Y30.5513
G01 X22.4405 Y30.5498
G01 X22.4282 Y30.5480
G01 X22.4138 Y30.5451
G01 X22.4017 Y30.5421
G01 X22.3876 Y30.5378
G01 X22.3758 Y30.5336
G01 X22.3622 Y30.5280
G01 X22.3510 Y30.5227
G01 X22.3380 Y30.5157
G01 X22.3273 Y30.5093
G01 X22.3150 Y30.5011
G01 X22.3050 Y30.4937
G01 X22.2937 Y30.4844
G01 X22.2844 Y30.4760
G01 X22.2740 Y30.4656
G01 X22.2656 Y30.4563
G01 X22.2563 Y30.4450
G01 X22.2489 Y30.4350
G01 X22.2407 Y30.4227
G01 X22.2343 Y30.4120
G01 X22.2273 Y30.3990
G01 X22.2220 Y30.3878
G01 X22.2164 Y30.3742
G01 X22.2122 Y30.3624
G01 X22.2079 Y30.3483
G01 X22.2049 Y30.3362
G01 X22.2020 Y30.3218
G01 X22.2002 Y30.3095
G01 X22.1987 Y30.2948
G01 X22.1981 Y30.2824
G01 X22.1979 Y29.9816
G01 X22.1361 Y29.6710
G01 X22.0149 Y29.3784
G01 X21.8390 Y29.1150
G01 X21.6150 Y28.8910
G01 X21.3516 Y28.7151
G01 X21.0590 Y28.5939
G01 X20.7484 Y28.5321
G01 X20.4316 Y28.5321
G01 X20.1210 Y28.5939
G01 X19.8284 Y28.7151
G01 X19.5650 Y28.8910
G01 X19.3410 Y29.1150
G01 X19.1651 Y29.3784
G01 X19.0439 Y29.6710
G01 X18.9821 Y29.9816
G01 X18.9821 Y30.2984
G01 X19.0439 Y30.6090
G01 X19.1651 Y30.9016
G01 X19.3410 Y31.1650
G01 X19.5650 Y31.3890
G01 X19.8284 Y31.5649
G01 X20.1210 Y31.6861
G01 X20.4316 Y31.7479
G01 X20.7484 Y31.7479
G01 X20.8002 Y31.7376
G01 X20.8198 Y31.7345
G01 X20.8344 Y31.7331
G01 X20.8469 Y31.7325
G01 X20.8616 Y31.7325
G01 X20.8741 Y31.7331
G01 X20.8887 Y31.7345
G01 X20.9010 Y31.7364
G01 X20.9155 Y31.7392
G01 X20.9276 Y31.7423
G01 X20.9417 Y31.7465
G01 X20.9534 Y31.7507
G01 X20.9670 Y31.7564
G01 X20.9783 Y31.7617
G01 X20.9913 Y31.7687
G01 X21.0019 Y31.7751
G01 X21.0142 Y31.7832
G01 X21.0242 Y31.7907
G01 X21.0356 Y31.8000
G01 X21.0502 Y31.8135
G01 X21.2139 Y31.9772
G01 X21.2322 Y31.9974
G01 X21.2504 Y32.0196
G01 X21.3810 Y32.1268
G01 X21.5301 Y32.2065
G01 X21.6918 Y32.2555
G01 X21.8600 Y32.2721
G01 X21.8886 Y32.2693
G01 X21.9158 Y32.2679
G01 X25.7628 Y32.2679
G01 X25.7826 Y32.2687
G01 X25.7972 Y32.2702
G01 X25.8096 Y32.2720
G01 X25.8240 Y32.2749
G01 X25.8361 Y32.2779
G01 X25.8502 Y32.2822
G01 X25.8619 Y32.2864
G01 X25.8755 Y32.2920
G01 X25.8868 Y32.2973
G01 X25.8998 Y32.3043
G01 X25.9105 Y32.3107
G01 X25.9227 Y32.3189
G01 X25.9327 Y32.3263
G01 X25.9441 Y32.3356
G01 X25.9587 Y32.3491
G01 X26.0744 Y32.4648
G01 X26.2968 Y32.6134
G01 X26.5439 Y32.7158
G01 X26.8063 Y32.7679
G01 X26.9699 Y32.7679
G01 X26.9897 Y32.7687
G01 X27.0043 Y32.7702
G01 X27.0167 Y32.7720
G01 X27.0311 Y32.7749
G01 X27.0432 Y32.7779
G01 X27.0573 Y32.7822
G01 X27.0690 Y32.7864
G01 X27.0826 Y32.7920
G01 X27.0939 Y32.7973
G01 X27.1069 Y32.8043
G01 X27.1176 Y32.8107
G01 X27.1298 Y32.8189
G01 X27.1398 Y32.8263
G01 X27.1512 Y32.8356
G01 X27.1658 Y32.8491
G01 X28.0708 Y33.7541
G01 X28.0842 Y33.7687
G01 X28.0936 Y33.7800
G01 X28.1010 Y33.7900
G01 X28.1092 Y33.8023
G01 X28.1156 Y33.8130
G01 X28.1225 Y33.8260
G01 X28.1279 Y33.8372
G01 X28.1335 Y33.8508
G01 X28.1377 Y33.8626
G01 X28.1420 Y33.8767
G01 X28.1450 Y33.8888
G01 X28.1479 Y33.9032
G01 X28.1497 Y33.9155
G01 X28.1511 Y33.9302
G01 X28.1518 Y33.9426
G01 X28.1518 Y33.9574
G01 X28.1511 Y33.9698
G01 X28.1497 Y33.9845
G01 X28.1479 Y33.9968
G01 X28.1450 Y34.0112
G01 X28.1420 Y34.0233
G01 X28.1377 Y34.0374
G01 X28.1335 Y34.0492
G01 X28.1279 Y34.0628
G01 X28.1225 Y34.0740
G01 X28.1156 Y34.0870
G01 X28.1092 Y34.0977
G01 X28.1010 Y34.1100
G01 X28.0936 Y34.1200
G01 X28.0842 Y34.1313
G01 X28.0759 Y34.1406
G01 X25.2615 Y36.9552
G01 X25.2414 Y36.9734
G01 X25.2192 Y36.9917
G01 X25.1120 Y37.1223
G01 X25.0323 Y37.2713
G01 X24.9832 Y37.4331
G01 X24.9667 Y37.6013
G01 X24.9695 Y37.6298
G01 X24.9708 Y37.6570
G01 X24.9708 Y38.8053
G01 X24.9700 Y38.8251
G01 X24.9686 Y38.8397
G01 X24.9667 Y38.8521
G01 X24.9639 Y38.8665
G01 X24.9608 Y38.8786
G01 X24.9566 Y38.8927
G01 X24.9524 Y38.9044
G01 X24.9467 Y38.9180
G01 X24.9414 Y38.9293
G01 X24.9345 Y38.9423
G01 X24.9281 Y38.9530
G01 X24.9199 Y38.9652
G01 X24.9125 Y38.9752
G01 X24.9031 Y38.9866
G01 X24.8897 Y39.0012
G01 X24.7537 Y39.1372
G01 X24.7381 Y39.1513
G01 X24.7267 Y39.1605
G01 X24.7167 Y39.1678
G01 X24.7045 Y39.1758
G01 X24.6938 Y39.1821
G01 X24.6808 Y39.1889
G01 X24.6696 Y39.1941
G01 X24.6561 Y39.1996
G01 X24.6444 Y39.2037
G01 X24.6303 Y39.2078
G01 X24.6183 Y39.2108
G01 X24.6039 Y39.2135
G01 X24.5917 Y39.2153
G01 X24.5771 Y39.2166
G01 X24.5647 Y39.2172
G01 X24.5501 Y39.2171
G01 X24.5377 Y39.2164
G01 X24.5232 Y39.2150
G01 X24.5109 Y39.2131
G01 X24.4966 Y39.2102
G01 X24.4846 Y39.2071
G01 X24.4706 Y39.2028
G01 X24.4589 Y39.1986
G01 X24.4454 Y39.1930
G01 X24.4342 Y39.1877
G01 X24.4213 Y39.1808
G01 X24.4107 Y39.1744
G01 X24.3986 Y39.1662
G01 X24.3886 Y39.1588
G01 X24.3773 Y39.1496
G01 X24.3628 Y39.1362
G01 X24.1544 Y38.9277
G01 X23.9320 Y38.7791
G01 X23.6848 Y38.6767
G01 X23.4225 Y38.6246
G01 X23.1550 Y38.6246
G01 X22.8927 Y38.6767
G01 X22.6455 Y38.7791
G01 X22.4231 Y38.9277
G01 X22.2137 Y39.1372
G01 X22.1981 Y39.1513
G01 X22.1867 Y39.1605
G01 X22.1767 Y39.1678
G01 X22.1645 Y39.1758
G01 X22.1538 Y39.1821
G01 X22.1408 Y39.1889
G01 X22.1296 Y39.1941
G01 X22.1161 Y39.1996
G01 X22.1044 Y39.2037
G01 X22.0903 Y39.2078
G01 X22.0783 Y39.2108
G01 X22.0639 Y39.2135
G01 X22.0517 Y39.2153
G01 X22.0371 Y39.2166
G01 X22.0247 Y39.2172
G01 X22.0101 Y39.2171
G01 X21.9977 Y39.2164
G01 X21.9832 Y39.2150
G01 X21.9709 Y39.2131
G01 X21.9566 Y39.2102
G01 X21.9446 Y39.2071
G01 X21.9306 Y39.2028
G01 X21.9189 Y39.1986
G01 X21.9054 Y39.1930
G01 X21.8942 Y39.1877
G01 X21.8813 Y39.1808
G01 X21.8707 Y39.1744
G01 X21.8586 Y39.1662
G01 X21.8486 Y39.1588
G01 X21.8373 Y39.1496
G01 X21.8228 Y39.1362
G01 X21.6144 Y38.9277
G01 X21.3920 Y38.7791
G01 X21.1448 Y38.6767
G01 X20.8825 Y38.6246
G01 X20.6150 Y38.6246
G01 X20.3527 Y38.6767
G01 X20.1055 Y38.7791
G01 X19.8831 Y38.9277
G01 X19.6737 Y39.1372
G01 X19.6581 Y39.1513
G01 X19.6467 Y39.1605
G01 X19.6367 Y39.1678
G01 X19.6245 Y39.1758
G01 X19.6138 Y39.1821
G01 X19.6008 Y39.1889
G01 X19.5896 Y39.1941
G01 X19.5761 Y39.1996
G01 X19.5644 Y39.2037
G01 X19.5503 Y39.2078
G01 X19.5383 Y39.2108
G01 X19.5239 Y39.2135
G01 X19.5117 Y39.2153
G01 X19.4971 Y39.2166
G01 X19.4847 Y39.2172
G01 X19.4701 Y39.2171
G01 X19.4577 Y39.2164
G01 X19.4432 Y39.2150
G01 X19.4309 Y39.2131
G01 X19.4166 Y39.2102
G01 X19.4046 Y39.2071
G01 X19.3906 Y39.2028
G01 X19.3789 Y39.1986
G01 X19.3654 Y39.1930
G01 X19.3542 Y39.1877
G01 X19.3413 Y39.1808
G01 X19.3307 Y39.1744
G01 X19.3186 Y39.1662
G01 X19.3086 Y39.1588
G01 X19.2973 Y39.1496
G01 X19.2828 Y39.1362
G01 X19.0744 Y38.9277
G01 X18.8520 Y38.7791
G01 X18.6048 Y38.6767
G01 X18.3425 Y38.6246
G01 X18.0750 Y38.6246
G01 X17.8127 Y38.6767
G01 X17.5655 Y38.7791
G01 X17.3431 Y38.9277
G01 X17.1274 Y39.1431
G01 X17.1181 Y39.1513
G01 X17.1067 Y39.1605
G01 X17.0967 Y39.1678
G01 X17.0845 Y39.1758
G01 X17.0738 Y39.1821
G01 X17.0608 Y39.1889
G01 X17.0496 Y39.1941
G01 X17.0361 Y39.1996
G01 X17.0244 Y39.2037
G01 X17.0103 Y39.2078
G01 X16.9983 Y39.2108
G01 X16.9839 Y39.2135
G01 X16.9717 Y39.2153
G01 X16.9571 Y39.2166
G01 X16.9447 Y39.2172
G01 X16.9301 Y39.2171
G01 X16.9177 Y39.2164
G01 X16.9032 Y39.2150
G01 X16.8909 Y39.2131
G01 X16.8766 Y39.2102
G01 X16.8645 Y39.2071
G01 X16.8506 Y39.2028
G01 X16.8389 Y39.1986
G01 X16.8254 Y39.1930
G01 X16.8142 Y39.1877
G01 X16.8013 Y39.1808
G01 X16.7907 Y39.1744
G01 X16.7786 Y39.1662
G01 X16.7686 Y39.1588
G01 X16.7573 Y39.1495
G01 X16.7428 Y39.1362
G01 X16.6078 Y39.0012
G01 X16.5944 Y38.9866
G01 X16.5850 Y38.9752
G01 X16.5776 Y38.9652
G01 X16.5694 Y38.9530
G01 X16.5630 Y38.9423
G01 X16.5561 Y38.9293
G01 X16.5508 Y38.9180
G01 X16.5451 Y38.9044
G01 X16.5409 Y38.8927
G01 X16.5367 Y38.8786
G01 X16.5336 Y38.8665
G01 X16.5308 Y38.8521
G01 X16.5289 Y38.8397
G01 X16.5275 Y38.8251
G01 X16.5267 Y38.8053
G01 X16.5269 Y38.0640
G01 X16.5275 Y38.0516
G01 X16.5289 Y38.0369
G01 X16.5308 Y38.0246
G01 X16.5336 Y38.0101
G01 X16.5367 Y37.9980
G01 X16.5409 Y37.9840
G01 X16.5451 Y37.9722
G01 X16.5508 Y37.9586
G01 X16.5561 Y37.9474
G01 X16.5630 Y37.9344
G01 X16.5694 Y37.9237
G01 X16.5776 Y37.9114
G01 X16.5851 Y37.9014
G01 X16.5944 Y37.8900
G01 X16.6078 Y37.8755
G01 X18.3242 Y36.1591
G01 X18.3388 Y36.1456
G01 X18.3502 Y36.1363
G01 X18.3602 Y36.1289
G01 X18.3724 Y36.1207
G01 X18.3831 Y36.1143
G01 X18.3961 Y36.1073
G01 X18.4074 Y36.1020
G01 X18.4210 Y36.0964
G01 X18.4327 Y36.0922
G01 X18.4468 Y36.0879
G01 X18.4589 Y36.0849
G01 X18.4733 Y36.0820
G01 X18.4857 Y36.0802
G01 X18.5003 Y36.0787
G01 X18.5201 Y36.0779
G01 X21.6213 Y36.0779
G01 X21.6411 Y36.0787
G01 X21.6558 Y36.0802
G01 X21.6681 Y36.0820
G01 X21.6825 Y36.0849
G01 X21.6946 Y36.0879
G01 X21.7087 Y36.0922
G01 X21.7205 Y36.0964
G01 X21.7341 Y36.1020
G01 X21.7453 Y36.1073
G01 X21.7583 Y36.1143
G01 X21.7690 Y36.1207
G01 X21.7813 Y36.1289
G01 X21.7913 Y36.1363
G01 X21.8027 Y36.1456
G01 X21.8119 Y36.1540
G01 X21.8223 Y36.1644
G01 X21.8307 Y36.1737
G01 X21.8400 Y36.1850
G01 X21.8517 Y36.2011
G01 X21.8810 Y36.2450
G01 X22.1050 Y36.4690
G01 X22.3684 Y36.6449
G01 X22.6610 Y36.7661
G01 X22.9716 Y36.8279
G01 X23.2884 Y36.8279
G01 X23.5990 Y36.7661
G01 X23.8916 Y36.6449
G01 X24.1550 Y36.4690
G01 X24.3790 Y36.2450
G01 X24.5549 Y35.9816
G01 X24.6761 Y35.6890
G01 X24.7379 Y35.3784
G01 X24.7379 Y35.0616
G01 X24.6761 Y34.7510
G01 X24.5549 Y34.4584
G01 X24.3790 Y34.1950
G01 X24.1550 Y33.9710
G01 X23.8916 Y33.7951
G01 X23.5990 Y33.6739
G01 X23.2884 Y33.6121
G01 X22.9716 Y33.6121
G01 X22.6610 Y33.6739
G01 X22.3684 Y33.7951
G01 X22.1050 Y33.9710
G01 X21.8810 Y34.1950
G01 X21.8474 Y34.2449
G01 X21.8400 Y34.2550
G01 X21.8307 Y34.2663
G01 X21.8223 Y34.2756
G01 X21.8119 Y34.2860
G01 X21.8027 Y34.2944
G01 X21.7913 Y34.3037
G01 X21.7813 Y34.3111
G01 X21.7690 Y34.3193
G01 X21.7583 Y34.3257
G01 X21.7453 Y34.3327
G01 X21.7341 Y34.3380
G01 X21.7205 Y34.3436
G01 X21.7087 Y34.3478
G01 X21.6946 Y34.3521
G01 X21.6826 Y34.3551
G01 X21.6681 Y34.3580
G01 X21.6558 Y34.3598
G01 X21.6411 Y34.3613
G01 X21.6213 Y34.3621
G01 X18.1058 Y34.3621
G01 X18.0786 Y34.3607
G01 X18.0500 Y34.3579
G01 X18.0214 Y34.3607
G01 X17.9942 Y34.3621
G01 X14.2308 Y34.3621
G01 X14.2110 Y34.3613
G01 X14.1963 Y34.3598
G01 X14.1840 Y34.3580
G01 X14.1696 Y34.3551
G01 X14.1575 Y34.3521
G01 X14.1434 Y34.3478
G01 X14.1316 Y34.3436
G01 X14.1180 Y34.3380
G01 X14.1068 Y34.3327
G01 X14.0938 Y34.3257
G01 X14.0831 Y34.3193
G01 X14.0708 Y34.3111
G01 X14.0608 Y34.3037
G01 X14.0495 Y34.2944
G01 X14.0402 Y34.2860
G01 X14.0298 Y34.2756
G01 X14.0214 Y34.2663
G01 X14.0121 Y34.2550
G01 X14.0047 Y34.2450
G01 X13.9965 Y34.2327
G01 X13.9901 Y34.2220
G01 X13.9831 Y34.2090
G01 X13.9778 Y34.1978
G01 X13.9722 Y34.1842
G01 X13.9680 Y34.1724
G01 X13.9637 Y34.1583
G01 X13.9607 Y34.1462
G01 X13.9578 Y34.1318
G01 X13.9560 Y34.1195
G01 X13.9545 Y34.1048
G01 X13.9539 Y34.0924
G01 X13.9539 Y34.0776
G01 X13.9545 Y34.0652
G01 X13.9560 Y34.0505
G01 X13.9578 Y34.0382
G01 X13.9607 Y34.0238
G01 X13.9637 Y34.0117
G01 X13.9680 Y33.9976
G01 X13.9722 Y33.9858
G01 X13.9778 Y33.9722
G01 X13.9831 Y33.9610
G01 X13.9901 Y33.9480
G01 X13.9965 Y33.9373
G01 X14.0047 Y33.9250
G01 X14.0121 Y33.9150
G01 X14.0214 Y33.9037
G01 X14.0349 Y33.8891
G01 X14.2190 Y33.7050
G01 X14.3949 Y33.4416
G01 X14.5161 Y33.1490
G01 X14.5779 Y32.8384
G01 X14.5779 Y32.5216
G01 X14.5161 Y32.2110
G01 X14.3949 Y31.9184
G01 X14.2190 Y31.6550
G01 X13.9950 Y31.4310
G01 X13.7316 Y31.2551
G01 X13.4390 Y31.1339
G01 X13.1284 Y31.0721
G01 X12.8116 Y31.0721
G01 X12.7526 Y31.0836
G01 X12.7402 Y31.0855
G01 X12.7256 Y31.0869
G01 X12.7131 Y31.0875
G01 X12.6984 Y31.0875
G01 X12.6859 Y31.0869
G01 X12.6713 Y31.0855
G01 X12.6590 Y31.0836
G01 X12.6445 Y31.0808
G01 X12.6324 Y31.0777
G01 X12.6183 Y31.0735
G01 X12.6066 Y31.0693
G01 X12.5930 Y31.0636
G01 X12.5817 Y31.0583
G01 X12.5688 Y31.0514
G01 X12.5581 Y31.0449
G01 X12.5458 Y31.0368
G01 X12.5358 Y31.0293
G01 X12.5244 Y31.0200
G01 X12.5099 Y31.0065
G01 X12.3461 Y30.8428
G01 X12.3278 Y30.8226
G01 X12.3096 Y30.8004
G01 X12.1790 Y30.6932
G01 X12.0299 Y30.6135
G01 X11.8682 Y30.5645
G01 X11.7286 Y30.5507
G00 Z2.0000
G00 X11.6338 Y32.2634
G01 F60.00
G01 Z-0.2000
G01 F120.00
G01 X11.4307 Y32.0603
G01 X9.0400 Y32.0603
G01 X9.0400 Y32.4100
G01 X9.0393 Y32.4247
G01 X9.0371 Y32.4393
G01 X9.0335 Y32.4535
G01 X9.0286 Y32.4674
G01 X9.0223 Y32.4807
G01 X9.0147 Y32.4933
G01 X9.0060 Y32.5052
G01 X8.9961 Y32.5161
G01 X8.9852 Y32.5260
G01 X8.9733 Y32.5347
G01 X8.9607 Y32.5423
G01 X8.9474 Y32.5486
G01 X8.9335 Y32.5535
G01 X8.9193 Y32.5571
G01 X8.9047 Y32.5593
G01 X8.8900 Y32.5600
G01 X6.8900 Y32.5600
G01 X6.8753 Y32.5593
G01 X6.8607 Y32.5571
G01 X6.8465 Y32.5535
G01 X6.8326 Y32.5486
G01 X6.8193 Y32.5423
G01 X6.8067 Y32.5347
G01 X6.7948 Y32.5260
G01 X6.7839 Y32.5161
G01 X6.7740 Y32.5052
G01 X6.7653 Y32.4933
G01 X6.7577 Y32.4807
G01 X6.7514 Y32.4674
G01 X6.7465 Y32.4535
G01 X6.7429 Y32.4393
G01 X6.7407 Y32.4247
G01 X6.7400 Y32.4100
G01 X6.7400 Y30.4100
G01 X6.7407 Y30.3953
G01 X6.7429 Y30.3807
G01 X6.7465 Y30.3665
G01 X6.7514 Y30.3526
G01 X6.7577 Y30.3393
G01 X6.7653 Y30.3267
G01 X6.7740 Y30.3148
G01 X6.7839 Y30.3039
G01 X6.7948 Y30.2940
G01 X6.8067 Y30.2853
G01 X6.8193 Y30.2777
G01 X6.8326 Y30.2714
G01 X6.8465 Y30.2665
G01 X6.8607 Y30.2629
G01 X6.8753 Y30.2607
G01 X6.8900 Y30.2600
G01 X8.8900 Y30.2600
G01 X8.9047 Y30.2607
G01 X8.9193 Y30.2629
G01 X8.9335 Y30.2665
G01 X8.9474 Y30.2714
G01 X8.9607 Y30.2777
G01 X8.9733 Y30.2853
G01 X8.9852 Y30.2940
G01 X8.9961 Y30.3039
G01 X9.0060 Y30.3148
G01 X9.0147 Y30.3267
G01 X9.0223 Y30.3393
G01 X9.0286 Y30.3526
G01 X9.0335 Y30.3665
G01 X9.0371 Y30.3807
G01 X9.0393 Y30.3953
G01 X9.0400 Y30.4100
G01 X9.0400 Y30.7598
G01 X11.7000 Y30.7598
G01 X11.7564 Y30.7623
G01 X11.7710 Y30.7638
G01 X11.8196 Y30.7710
G01 X11.8340 Y30.7739
G01 X11.8817 Y30.7858
G01 X11.8958 Y30.7901
G01 X11.9420 Y30.8066
G01 X11.9556 Y30.8122
G01 X12.0000 Y30.8332
G01 X12.0129 Y30.8402
G01 X12.0550 Y30.8654
G01 X12.0673 Y30.8736
G01 X12.1067 Y30.9028
G01 X12.1181 Y30.9122
G01 X12.1598 Y30.9502
G01 X12.5534 Y31.3438
G01 X12.5707 Y31.3383
G01 X12.6897 Y31.3085
G01 X12.7041 Y31.3056
G01 X12.8255 Y31.2876
G01 X12.8401 Y31.2862
G01 X12.9626 Y31.2802
G01 X12.9774 Y31.2802
G01 X13.0999 Y31.2862
G01 X13.1145 Y31.2876
G01 X13.2359 Y31.3056
G01 X13.2503 Y31.3085
G01 X13.3693 Y31.3383
G01 X13.3834 Y31.3426
G01 X13.4989 Y31.3839
G01 X13.5125 Y31.3896
G01 X13.6234 Y31.4420
G01 X13.6364 Y31.4489
G01 X13.7416 Y31.5120
G01 X13.7538 Y31.5202
G01 X13.8523 Y31.5933
G01 X13.8637 Y31.6026
G01 X13.9546 Y31.6850
G01 X13.9650 Y31.6954
G01 X14.0474 Y31.7863
G01 X14.0567 Y31.7977
G01 X14.1298 Y31.8962
G01 X14.1380 Y31.9084
G01 X14.2011 Y32.0136
G01 X14.2080 Y32.0266
G01 X14.2604 Y32.1375
G01 X14.2661 Y32.1511
G01 X14.3074 Y32.2666
G01 X14.3117 Y32.2807
G01 X14.3415 Y32.3997
G01 X14.3444 Y32.4141
G01 X14.3624 Y32.5355
G01 X14.3638 Y32.5501
G01 X14.3698 Y32.6726
G01 X14.3698 Y32.6874
G01 X14.3638 Y32.8099
G01 X14.3624 Y32.8245
G01 X14.3444 Y32.9459
G01 X14.3415 Y32.9603
G01 X14.3117 Y33.0793
G01 X14.3074 Y33.0934
G01 X14.2661 Y33.2089
G01 X14.2604 Y33.2225
G01 X14.2080 Y33.3334
G01 X14.2011 Y33.3464
G01 X14.1380 Y33.4516
G01 X14.1298 Y33.4638
G01 X14.0567 Y33.5623
G01 X14.0474 Y33.5737
G01 X13.9650 Y33.6646
G01 X13.9546 Y33.6750
G01 X13.8637 Y33.7574
G01 X13.8523 Y33.7667
G01 X13.7538 Y33.8398
G01 X13.7416 Y33.8480
G01 X13.6364 Y33.9111
G01 X13.6234 Y33.9180
G01 X13.5125 Y33.9704
G01 X13.4989 Y33.9761
G01 X13.3834 Y34.0174
G01 X13.3693 Y34.0217
G01 X13.2503 Y34.0515
G01 X13.2359 Y34.0544
G01 X13.1145 Y34.0724
G01 X13.0999 Y34.0738
G01 X12.9774 Y34.0798
G01 X12.9626 Y34.0798
G01 X12.8401 Y34.0738
G01 X12.8255 Y34.0724
G01 X12.7041 Y34.0544
G01 X12.6897 Y34.0515
G01 X12.5707 Y34.0217
G01 X12.5566 Y34.0174
G01 X12.4411 Y33.9761
G01 X12.4275 Y33.9704
G01 X12.3166 Y33.9180
G01 X12.3036 Y33.9111
G01 X12.1984 Y33.8480
G01 X12.1862 Y33.8398
G01 X12.0877 Y33.7667
G01 X12.0763 Y33.7574
G01 X11.9854 Y33.6750
G01 X11.9750 Y33.6646
G01 X11.8926 Y33.5737
G01 X11.8833 Y33.5623
G01 X11.8102 Y33.4638
G01 X11.8020 Y33.4516
G01 X11.7389 Y33.3464
G01 X11.7320 Y33.3334
G01 X11.6796 Y33.2225
G01 X11.6739 Y33.2089
G01 X11.6326 Y33.0934
G01 X11.6283 Y33.0793
G01 X11.5985 Y32.9603
G01 X11.5956 Y32.9459
G01 X11.5776 Y32.8245
G01 X11.5762 Y32.8099
G01 X11.5702 Y32.6874
G01 X11.5702 Y32.6726
G01 X11.5762 Y32.5501
G01 X11.5776 Y32.5355
G01 X11.5956 Y32.4141
G01 X11.5985 Y32.3997
G01 X11.6283 Y32.2807
G01 X11.6338 Y32.2634
G00 Z2.0000
G00 X8.8764 Y32.7710
G01 F60.00
G01 Z-0.2000
G01 F120.00
G01 X8.9602 Y32.7628
G01 X9.0276 Y32.7423
G01 X9.0898 Y32.7091
G01 X9.1443 Y32.6643
G01 X9.1891 Y32.6098
G01 X9.2223 Y32.5476
G01 X9.2475 Y32.4646
G01 X9.2540 Y32.4458
G01 X9.2596 Y32.4322
G01 X9.2650 Y32.4210
G01 X9.2719 Y32.4080
G01 X9.2783 Y32.3973
G01 X9.2865 Y32.3851
G01 X9.2939 Y32.3750
G01 X9.3033 Y32.3637
G01 X9.3116 Y32.3544
G01 X9.3220 Y32.3440
G01 X9.3313 Y32.3356
G01 X9.3427 Y32.3263
G01 X9.3527 Y32.3189
G01 X9.3649 Y32.3107
G01 X9.3756 Y32.3043
G01 X9.3886 Y32.2973
G01 X9.3999 Y32.2920
G01 X9.4135 Y32.2864
G01 X9.4252 Y32.2822
G01 X9.4393 Y32.2779
G01 X9.4514 Y32.2749
G01 X9.4658 Y32.2720
G01 X9.4782 Y32.2702
G01 X9.4928 Y32.2687
G01 X9.5126 Y32.2679
G01 X11.0850 Y32.2679
G01 X11.1048 Y32.2687
G01 X11.1195 Y32.2702
G01 X11.1318 Y32.2720
G01 X11.1462 Y32.2749
G01 X11.1583 Y32.2779
G01 X11.1724 Y32.2822
G01 X11.1842 Y32.2864
G01 X11.1978 Y32.2920
G01 X11.2090 Y32.2973
G01 X11.2220 Y32.3043
G01 X11.2327 Y32.3107
G01 X11.2450 Y32.3189
G01 X11.2550 Y32.3263
G01 X11.2663 Y32.3356
G01 X11.2756 Y32.3440
G01 X11.2860 Y32.3544
G01 X11.2944 Y32.3637
G01 X11.3037 Y32.3750
G01 X11.3111 Y32.3850
G01 X11.3193 Y32.3973
G01 X11.3257 Y32.4080
G01 X11.3327 Y32.4210
G01 X11.3380 Y32.4322
G01 X11.3436 Y32.4458
G01 X11.3478 Y32.4576
G01 X11.3521 Y32.4717
G01 X11.3551 Y32.4838
G01 X11.3580 Y32.4982
G01 X11.3598 Y32.5105
G01 X11.3613 Y32.5252
G01 X11.3619 Y32.5376
G01 X11.3621 Y32.8384
G01 X11.4239 Y33.1490
G01 X11.5451 Y33.4416
G01 X11.7210 Y33.7050
G01 X11.9102 Y33.8944
G01 X11.9186 Y33.9037
G01 X11.9279 Y33.9150
G01 X11.9353 Y33.9250
G01 X11.9435 Y33.9373
G01 X11.9499 Y33.9480
G01 X11.9569 Y33.9610
G01 X11.9622 Y33.9722
G01 X11.9678 Y33.9858
G01 X11.9720 Y33.9976
G01 X11.9763 Y34.0117
G01 X11.9793 Y34.0238
G01 X11.9822 Y34.0382
G01 X11.9840 Y34.0505
G01 X11.9855 Y34.0652
G01 X11.9861 Y34.0776
G01 X11.9861 Y34.0924
G01 X11.9855 Y34.1048
G01 X11.9840 Y34.1195
G01 X11.9822 Y34.1318
G01 X11.9793 Y34.1462
G01 X11.9763 Y34.1583
G01 X11.9720 Y34.1724
G01 X11.9678 Y34.1842
G01 X11.9622 Y34.1978
G01 X11.9569 Y34.2090
G01 X11.9499 Y34.2220
G01 X11.9435 Y34.2327
G01 X11.9353 Y34.2450
G01 X11.9279 Y34.2550
G01 X11.9186 Y34.2663
G01 X11.9102 Y34.2756
G01 X11.8998 Y34.2860
G01 X11.8906 Y34.2944
G01 X11.8792 Y34.3037
G01 X11.8692 Y34.3111
G01 X11.8569 Y34.3193
G01 X11.8462 Y34.3257
G01 X11.8332 Y34.3327
G01 X11.8220 Y34.3380
G01 X11.8084 Y34.3436
G01 X11.7966 Y34.3478
G01 X11.7825 Y34.3521
G01 X11.7704 Y34.3551
G01 X11.7560 Y34.3580
G01 X11.7437 Y34.3598
G01 X11.7290 Y34.3613
G01 X11.7166 Y34.3619
G01 X8.3601 Y34.3621
G01 X8.3403 Y34.3613
G01 X8.3257 Y34.3598
G01 X8.3133 Y34.3580
G01 X8.2989 Y34.3551
G01 X8.2868 Y34.3521
G01 X8.2727 Y34.3478
G01 X8.2610 Y34.3436
G01 X8.2474 Y34.3380
G01 X8.2361 Y34.3327
G01 X8.2231 Y34.3257
G01 X8.2124 Y34.3193
G01 X8.2002 Y34.3111
G01 X8.1902 Y34.3037
G01 X8.1788 Y34.2944
G01 X8.1696 Y34.2860
G01 X7.1273 Y33.2440
G01 X7.1138 Y33.2294
G01 X7.1045 Y33.2180
G01 X7.0971 Y33.2080
G01 X7.0889 Y33.1958
G01 X7.0825 Y33.1851
G01 X7.0755 Y33.1721
G01 X7.0702 Y33.1608
G01 X7.0646 Y33.1472
G01 X7.0604 Y33.1355
G01 X7.0561 Y33.1214
G01 X7.0531 Y33.1093
G01 X7.0502 Y33.0949
G01 X7.0484 Y33.0825
G01 X7.0469 Y33.0679
G01 X7.0463 Y33.0554
G01 X7.0463 Y33.0407
G01 X7.0469 Y33.0283
G01 X7.0484 Y33.0136
G01 X7.0502 Y33.0013
G01 X7.0531 Y32.9868
G01 X7.0561 Y32.9747
G01 X7.0604 Y32.9607
G01 X7.0646 Y32.9489
G01 X7.0702 Y32.9353
G01 X7.0755 Y32.9240
G01 X7.0825 Y32.9111
G01 X7.0889 Y32.9004
G01 X7.0971 Y32.8881
G01 X7.1045 Y32.8781
G01 X7.1138 Y32.8667
G01 X7.1222 Y32.8575
G01 X7.1326 Y32.8471
G01 X7.1419 Y32.8387
G01 X7.1532 Y32.8294
G01 X7.1633 Y32.8219
G01 X7.1755 Y32.8138
G01 X7.1862 Y32.8074
G01 X7.1992 Y32.8004
G01 X7.2104 Y32.7951
G01 X7.2240 Y32.7895
G01 X7.2358 Y32.7853
G01 X7.2499 Y32.7810
G01 X7.2620 Y32.7779
G01 X7.2764 Y32.7751
G01 X7.2887 Y32.7732
G01 X7.3034 Y32.7718
G01 X7.3232 Y32.7710
G01 X8.8764 Y32.7710
G00 Z2.0000
G00 X4.6998 Y32.3580
G01 F60.00
G01 Z-0.2000
G01 F120.00
G01 X4.6263 Y32.3035
G01 X4.6149 Y32.2942
G01 X4.5422 Y32.2283
G01 X4.5318 Y32.2178
G01 X4.4658 Y32.1451
G01 X4.4565 Y32.1337
G01 X4.3981 Y32.0549
G01 X4.3899 Y32.0427
G01 X4.3394 Y31.9585
G01 X4.3325 Y31.9455
G01 X4.2905 Y31.8568
G01 X4.2849 Y31.8432
G01 X4.2518 Y31.7508
G01 X4.2476 Y31.7367
G01 X4.2237 Y31.6415
G01 X4.2208 Y31.6271
G01 X4.2064 Y31.5300
G01 X4.2050 Y31.5154
G01 X4.2002 Y31.4174
G01 X4.2002 Y31.4026
G01 X4.2050 Y31.3046
G01 X4.2064 Y31.2900
G01 X4.2208 Y31.1929
G01 X4.2237 Y31.1785
G01 X4.2476 Y31.0833
G01 X4.2518 Y31.0692
G01 X4.2849 Y30.9768
G01 X4.2905 Y30.9632
G01 X4.3325 Y30.8745
G01 X4.3394 Y30.8615
G01 X4.3899 Y30.7773
G01 X4.3981 Y30.7651
G01 X4.4565 Y30.6863
G01 X4.4658 Y30.6749
G01 X4.5318 Y30.6022
G01 X4.5422 Y30.5918
G01 X4.6149 Y30.5258
G01 X4.6263 Y30.5165
G01 X4.7051 Y30.4581
G01 X4.7173 Y30.4499
G01 X4.8015 Y30.3994
